; generated by PrusaSlicer 2.3.3+win64 on 2021-08-13 at 02:45:44 UTC

; 

; external perimeters extrusion width = 0.45mm
; perimeters extrusion width = 0.45mm
; infill extrusion width = 0.45mm
; solid infill extrusion width = 0.45mm
; top infill extrusion width = 0.40mm
; first layer extrusion width = 0.45mm

M201 X550 Y550 Z100 E1000 ; sets maximum accelerations, mm/sec^2
M203 X300 Y300 Z5 E25 ; sets maximum feedrates, mm/sec
M204 P500 R500 T500 ; sets acceleration (P, T) and retract acceleration (R), mm/sec^2
M205 X10.00 Y10.00 Z0.40 E5.00 ; sets the jerk limits, mm/sec
M205 S0 T0 ; sets the minimum extruding and travel feed rate, mm/sec
M107
;TYPE:Custom
//M85 S180 ; For use with raspberry only, it kills the printer if it loses the USB connection and remains inactive for 3 minutes. It works in Marlin 1.1.6
M140 S75 ; set bed temp
M190 S75 ; wait for bed temp
G28 ; Home all axes
G29 ; Auto bed-level (BL-Touch) // Comment if you don't like the automatic level in each print
M104 S260 ; set extruder temp
G92 E0 ; Reset Extruder
G1 X5 Y20 Z2.0 F3000.0 ; Move to start position
M109 S260 ; wait for extruder temp
G1 X5 Y200.0 Z0.3 F1500.0 E15 ; Draw the first line
G1 X5 Y200.0 Z0.3 F5000.0 ; Move to side a little
G1 X5.4 Y20 Z0.3 F1500.0 E30 ; Draw the second line
G92 E0 ; Reset Extruder
G1 Z1.0 F3000 ; Move Z Axis up little to prevent scratching of Heat Bed
G21 ; set units to millimeters
G90 ; use absolute coordinates
M82 ; use absolute distances for extrusion
G92 E0
; Filament gcode
;LAYER_CHANGE
;Z:0.25
;HEIGHT:0.25
G1 Z0.250 F9000.000
G1 E-1.00000 F3000.000
G92 E0
G1 X148.989 Y164.861 F9000.000
G1 E1.05000 F3000.000
;TYPE:Skirt
;WIDTH:0.45
G1 F1200.000
G1 X150.427 Y164.558 E1.11052
G1 X175.009 Y163.090 E2.12500
G1 X177.450 Y163.244 E2.22577
G1 X179.881 Y163.725 E2.32785
G1 X182.237 Y164.524 E2.43036
G1 X184.479 Y165.638 E2.53350
G1 X186.557 Y167.043 E2.63680
G1 X188.419 Y168.706 E2.73965
G1 X190.057 Y170.621 E2.84346
G1 X191.352 Y172.620 E2.94160
G1 X191.782 Y173.739 E2.99100
G1 X191.942 Y174.944 E3.04107
G1 X191.804 Y176.174 E3.09204
G1 X191.377 Y177.333 E3.14291
G1 X190.208 Y179.174 E3.23278
G1 X188.913 Y180.769 E3.31740
G1 X187.367 Y182.288 E3.40668
G1 X185.763 Y183.542 E3.49056
G1 X184.591 Y184.296 E3.54798
G1 X183.309 Y184.990 E3.60802
G1 X181.988 Y185.578 E3.66760
G1 X180.573 Y186.077 E3.72938
G1 X179.230 Y186.437 E3.78668
G1 X177.811 Y186.705 E3.84616
G1 X176.400 Y186.862 E3.90467
G1 X174.941 Y186.910 E3.96479
G1 X150.136 Y185.412 E4.98850
G1 X149.019 Y185.149 E5.03580
G1 X147.972 Y184.657 E5.08343
G1 X147.062 Y183.966 E5.13050
G1 X146.326 Y183.112 E5.17695
G1 X145.924 Y182.437 E5.20932
G1 X145.631 Y181.736 E5.24062
G1 X145.337 Y180.272 E5.30212
G1 X145.341 Y169.690 E5.73805
G1 X145.583 Y168.414 E5.79157
G1 X146.057 Y167.315 E5.84087
G1 X146.765 Y166.336 E5.89065
G1 X147.682 Y165.532 E5.94088
G1 X148.936 Y164.889 E5.99894
G1 X149.114 Y165.241 F9000.000
G1 F1200.000
G1 X150.472 Y164.952 E6.05613
G1 X175.007 Y163.486 E7.06864
G1 X177.401 Y163.637 E7.16747
G1 X179.775 Y164.107 E7.26717
G1 X182.085 Y164.890 E7.36766
G1 X184.277 Y165.979 E7.46848
G1 X186.314 Y167.357 E7.56980
G1 X188.134 Y168.982 E7.67030
G1 X189.740 Y170.859 E7.77207
G1 X191.002 Y172.807 E7.86770
G1 X191.406 Y173.870 E7.91456
G1 X191.545 Y175.042 E7.96316
G1 X191.398 Y176.164 E8.00982
G1 X190.998 Y177.203 E8.05567
G1 X189.875 Y178.958 E8.14151
G1 X188.535 Y180.595 E8.22865
G1 X187.027 Y182.058 E8.31521
G1 X185.405 Y183.308 E8.39955
G1 X184.237 Y184.044 E8.45644
G1 X182.976 Y184.711 E8.51521
G1 X181.689 Y185.270 E8.57300
G1 X180.442 Y185.702 E8.62736
G1 X178.969 Y186.089 E8.69011
G1 X177.594 Y186.336 E8.74766
G1 X174.943 Y186.513 E8.85714
G1 X150.204 Y185.021 E9.87812
G1 X149.153 Y184.776 E9.92258
G1 X148.172 Y184.315 E9.96724
G1 X147.322 Y183.666 E10.01126
G1 X146.630 Y182.855 E10.05520
G1 X145.999 Y181.586 E10.11359
G1 X145.731 Y180.223 E10.17082
G1 X145.734 Y169.739 E10.60269
G1 X145.961 Y168.531 E10.65333
G1 X146.404 Y167.505 E10.69937
G1 X147.084 Y166.575 E10.74680
G1 X147.936 Y165.838 E10.79326
G1 X149.061 Y165.268 E10.84518
@Object 3DBenchy.stl id:0 copy 0
G1 E9.84518 F3000.000
G92 E0
G1 X175.564 Y178.029 F9000.000
G1 E1.05000 F3000.000
;TYPE:External perimeter
G1 F1200.000
G1 X175.380 Y177.668 E1.06668
G1 X175.337 Y177.493 E1.07410
G1 X175.280 Y177.391 E1.07892
G1 X175.092 Y177.241 E1.08883
G1 X174.980 Y177.342 E1.09505
G1 X174.906 Y177.489 E1.10181
G1 X174.819 Y177.741 E1.11281
G1 X174.620 Y178.070 E1.12865
G1 X174.447 Y178.257 E1.13915
G1 X174.236 Y178.375 E1.14908
G1 X173.970 Y178.395 E1.16008
G1 X173.686 Y178.285 E1.17262
G1 X173.538 Y178.179 E1.18014
G1 X173.422 Y178.028 E1.18796
G1 X173.371 Y177.862 E1.19512
G1 X173.366 Y177.670 E1.20302
G1 X173.463 Y177.170 E1.22402
G1 X173.857 Y176.387 E1.26014
G1 X173.981 Y176.177 E1.27020
G1 X174.226 Y175.847 E1.28710
G1 X174.268 Y175.750 E1.29147
G1 X174.019 Y175.375 E1.31002
G1 X173.501 Y174.455 E1.35350
G1 X173.416 Y174.260 E1.36226
G1 X173.348 Y174.002 E1.37327
G1 X173.361 Y173.706 E1.38545
G1 X173.431 Y173.539 E1.39294
G1 X173.528 Y173.412 E1.39952
G1 X173.657 Y173.303 E1.40646
G1 X173.816 Y173.217 E1.41392
G1 X174.095 Y173.159 E1.42566
G1 X174.304 Y173.179 E1.43430
G1 X174.465 Y173.242 E1.44141
G1 X174.601 Y173.347 E1.44848
G1 X174.761 Y173.525 E1.45837
G1 X174.881 Y173.704 E1.46723
G1 X174.948 Y173.921 E1.47658
G1 X175.058 Y174.133 E1.48642
G1 X175.183 Y174.249 E1.49343
G1 X175.312 Y174.116 E1.50106
G1 X175.429 Y173.860 E1.51265
G1 X175.491 Y173.659 E1.52132
G1 X175.638 Y173.481 E1.53081
G1 X175.880 Y173.257 E1.54441
G1 X176.108 Y173.170 E1.55446
G1 X176.277 Y173.161 E1.56144
G1 X176.432 Y173.192 E1.56798
G1 X176.580 Y173.261 E1.57470
G1 X176.720 Y173.371 E1.58203
G1 X176.885 Y173.596 E1.59352
G1 X176.947 Y173.768 E1.60107
G1 X176.964 Y173.935 E1.60796
G1 X176.937 Y174.126 E1.61592
G1 X176.877 Y174.289 E1.62306
G1 X176.193 Y175.449 E1.67855
G1 X176.128 Y175.601 E1.68537
G1 X176.109 Y175.705 E1.68970
G1 X176.117 Y175.791 E1.69327
G1 X176.154 Y175.891 E1.69765
G1 X176.833 Y177.020 E1.75195
G1 X176.980 Y177.348 E1.76675
G1 X177.022 Y177.629 E1.77844
G1 X176.988 Y177.897 E1.78955
G1 X176.875 Y178.123 E1.79997
G1 X176.755 Y178.246 E1.80708
G1 X176.616 Y178.334 E1.81385
G1 X176.452 Y178.396 E1.82104
G1 X176.196 Y178.427 E1.83168
G1 X175.939 Y178.374 E1.84250
G1 X175.738 Y178.248 E1.85226
G1 X175.595 Y178.080 E1.86136
G1 X175.165 Y178.055 F9000.000
G1 E0.86136 F3000.000
G92 E0
G1 X178.925 Y173.626 F9000.000
G1 E1.05000 F3000.000
G1 F1200.000
G1 X179.040 Y173.908 E1.06254
G1 X179.153 Y174.382 E1.08263
G1 X179.307 Y174.904 E1.10505
G1 X179.337 Y175.077 E1.11227
G1 X179.471 Y175.442 E1.12831
G1 X179.643 Y175.437 E1.13539
G1 X179.737 Y175.118 E1.14909
G1 X179.928 Y174.286 E1.18424
G1 X180.023 Y173.996 E1.19681
G1 X180.164 Y173.690 E1.21070
G1 X180.330 Y173.449 E1.22275
G1 X180.514 Y173.279 E1.23310
G1 X180.729 Y173.176 E1.24289
G1 X180.970 Y173.166 E1.25286
G1 X181.197 Y173.262 E1.26299
G1 X181.422 Y173.466 E1.27551
G1 X181.531 Y173.641 E1.28401
G1 X181.579 Y173.887 E1.29434
G1 X181.585 Y174.125 E1.30414
G1 X181.560 Y174.365 E1.31406
G1 X181.335 Y174.935 E1.33932
G1 X181.083 Y175.698 E1.37244
G1 X180.265 Y177.992 E1.47277
G1 X179.748 Y179.344 E1.53241
G1 X179.472 Y179.952 E1.55990
G1 X179.350 Y180.157 E1.56974
G1 X179.163 Y180.398 E1.58229
G1 X178.859 Y180.642 E1.59834
G1 X178.573 Y180.784 E1.61152
G1 X178.342 Y180.864 E1.62158
G1 X178.030 Y180.934 E1.63475
G1 X177.762 Y180.946 E1.64581
G1 X177.519 Y180.896 E1.65600
G1 X177.349 Y180.811 E1.66384
G1 X177.128 Y180.583 E1.67694
G1 X177.013 Y180.342 E1.68794
G1 X176.969 Y180.163 E1.69555
G1 X176.959 Y179.991 E1.70261
G1 X177.006 Y179.764 E1.71218
G1 X177.095 Y179.612 E1.71944
G1 X177.265 Y179.470 E1.72856
G1 X177.413 Y179.401 E1.73527
G1 X177.931 Y179.244 E1.75757
G1 X178.046 Y179.172 E1.76321
G1 X178.147 Y179.072 E1.76903
G1 X178.268 Y178.870 E1.77874
G1 X178.486 Y178.301 E1.80385
G1 X178.692 Y177.860 E1.82391
G1 X178.723 Y177.719 E1.82986
G1 X178.687 Y177.544 E1.83719
G1 X178.414 Y176.922 E1.86517
G1 X177.820 Y175.317 E1.93567
G1 X177.520 Y174.586 E1.96824
G1 X177.424 Y174.251 E1.98258
G1 X177.389 Y173.863 E1.99864
G1 X177.454 Y173.554 E2.01164
G1 X177.544 Y173.401 E2.01896
G1 X177.665 Y173.284 E2.02588
G1 X177.813 Y173.205 E2.03281
G1 X178.049 Y173.156 E2.04275
G1 X178.310 Y173.178 E2.05352
G1 X178.534 Y173.254 E2.06325
G1 X178.753 Y173.398 E2.07405
G1 X178.897 Y173.574 E2.08343
G1 X179.230 Y173.625 F9000.000
G1 E1.08343 F3000.000
G92 E0
G1 X184.473 Y178.389 F9000.000
G1 E1.05000 F3000.000
G1 F1200.000
G1 X183.232 Y178.399 E1.10111
G1 X182.642 Y178.428 E1.12544
G1 X182.404 Y178.388 E1.13538
G1 X182.252 Y178.317 E1.14233
G1 X182.079 Y178.164 E1.15183
G1 X181.968 Y177.985 E1.16049
G1 X181.877 Y177.657 E1.17452
G1 X181.880 Y177.380 E1.18595
G1 X181.946 Y177.117 E1.19712
G1 X182.075 Y176.850 E1.20932
G1 X182.810 Y175.822 E1.26137
G1 X183.081 Y175.482 E1.27928
G1 X183.501 Y175.019 E1.30506
G1 X183.597 Y174.887 E1.31178
G1 X183.640 Y174.738 E1.31817
G1 X183.471 Y174.691 E1.32542
G1 X183.167 Y174.717 E1.33801
G1 X183.038 Y174.749 E1.34345
G1 X182.654 Y174.740 E1.35929
G1 X182.391 Y174.679 E1.37040
G1 X182.132 Y174.516 E1.38303
G1 X182.012 Y174.300 E1.39321
G1 X181.984 Y174.076 E1.40250
G1 X181.992 Y173.722 E1.41708
G1 X182.052 Y173.535 E1.42517
G1 X182.214 Y173.356 E1.43513
G1 X182.417 Y173.246 E1.44461
G1 X182.662 Y173.177 E1.45513
G1 X182.901 Y173.159 E1.46500
G1 X185.055 Y173.160 E1.55374
G1 X185.298 Y173.210 E1.56392
G1 X185.445 Y173.282 E1.57069
G1 X185.571 Y173.389 E1.57749
G1 X185.671 Y173.529 E1.58457
G1 X185.767 Y173.809 E1.59679
G1 X185.783 Y174.090 E1.60835
G1 X185.726 Y174.392 E1.62102
G1 X185.613 Y174.647 E1.63251
G1 X185.366 Y175.025 E1.65110
G1 X184.428 Y176.323 E1.71711
G1 X184.262 Y176.459 E1.72592
G1 X184.199 Y176.792 E1.73989
G1 X184.378 Y176.767 E1.74736
G1 X184.501 Y176.828 E1.75301
G1 X184.726 Y176.751 E1.76279
G1 X184.895 Y176.792 E1.76996
G1 X185.215 Y176.816 E1.78315
G1 X185.464 Y176.928 E1.79441
G1 X185.728 Y177.166 E1.80908
G1 X185.799 Y177.433 E1.82046
G1 X185.712 Y177.895 E1.83982
G1 X185.598 Y178.082 E1.84885
G1 X185.430 Y178.207 E1.85746
G1 X185.002 Y178.342 E1.87595
G1 X184.533 Y178.386 E1.89538
G1 X184.297 Y178.748 F9000.000
G1 E0.89538 F3000.000
G92 E0
G1 X158.964 Y168.956 F9000.000
G1 E1.05000 F3000.000
;TYPE:Perimeter
G1 F1200.000
G1 X174.212 Y168.026 E1.67931
G1 X175.061 Y168.002 E1.71432
G1 X176.064 Y168.038 E1.75566
G1 X176.822 Y168.115 E1.78704
G1 X177.583 Y168.235 E1.81880
G1 X178.610 Y168.468 E1.86216
G1 X179.356 Y168.689 E1.89424
G1 X180.352 Y169.059 E1.93800
G1 X181.150 Y169.421 E1.97407
G1 X182.007 Y169.881 E2.01416
G1 X182.679 Y170.299 E2.04678
G1 X183.540 Y170.919 E2.09046
G1 X184.287 Y171.545 E2.13062
G1 X184.916 Y172.149 E2.16653
G1 X185.118 Y172.368 E2.17880
G1 X182.872 Y172.366 E2.27131
G1 X182.524 Y172.392 E2.28569
G1 X182.116 Y172.507 E2.30316
G1 X181.759 Y172.701 E2.31989
G1 X181.629 Y172.584 E2.32709
G1 X181.115 Y172.366 E2.35011
G1 X180.532 Y172.391 E2.37413
G1 X180.064 Y172.615 E2.39554
G1 X179.727 Y172.928 E2.41448
G1 X179.574 Y173.150 E2.42559
G1 X179.290 Y172.802 E2.44408
G1 X178.883 Y172.535 E2.46413
G1 X178.472 Y172.397 E2.48200
G1 X178.002 Y172.356 E2.50143
G1 X177.540 Y172.452 E2.52087
G1 X177.120 Y172.677 E2.54050
G1 X176.997 Y172.580 E2.54697
G1 X176.681 Y172.434 E2.56128
G1 X176.336 Y172.364 E2.57580
G1 X175.941 Y172.385 E2.59212
G1 X175.453 Y172.572 E2.61362
G1 X175.200 Y172.806 E2.62784
G1 X174.857 Y172.545 E2.64559
G1 X174.492 Y172.402 E2.66177
G1 X174.052 Y172.358 E2.68000
G1 X173.542 Y172.465 E2.70146
G1 X173.208 Y172.644 E2.71707
G1 X172.950 Y172.863 E2.73099
G1 X172.740 Y173.138 E2.74526
G1 X172.575 Y173.530 E2.76277
G1 X172.551 Y174.088 E2.78577
G1 X172.665 Y174.521 E2.80422
G1 X172.790 Y174.809 E2.81715
G1 X173.221 Y175.573 E2.85329
G1 X173.087 Y175.701 E2.86092
G1 X172.716 Y175.467 E2.87898
G1 X172.355 Y175.331 E2.89489
G1 X171.971 Y175.259 E2.91095
G1 X171.722 Y175.265 E2.92124
G1 X171.737 Y175.000 E2.93216
G1 X171.729 Y174.570 E2.94986
G1 X171.639 Y173.839 E2.98023
G1 X171.509 Y173.335 E3.00165
G1 X171.379 Y172.986 E3.01701
G1 X171.080 Y172.418 E3.04344
G1 X170.683 Y171.915 E3.06983
G1 X170.247 Y171.538 E3.09358
G1 X169.716 Y171.242 E3.11862
G1 X169.121 Y171.058 E3.14430
G1 X168.414 Y170.954 E3.17370
G1 X166.692 Y170.915 E3.24467
G1 X166.217 Y170.966 E3.26438
G1 X165.706 Y171.164 E3.28694
G1 X165.404 Y171.398 E3.30268
G1 X165.127 Y171.747 E3.32101
G1 X164.833 Y171.430 E3.33883
G1 X164.559 Y171.218 E3.35311
G1 X164.168 Y171.007 E3.37141
G1 X163.845 Y170.892 E3.38553
G1 X163.413 Y170.799 E3.40373
G1 X163.041 Y170.759 E3.41914
G1 X162.600 Y170.755 E3.43732
G1 X162.271 Y170.780 E3.45091
G1 X161.813 Y170.862 E3.47005
G1 X161.374 Y171.009 E3.48913
G1 X160.967 Y171.221 E3.50805
G1 X160.809 Y171.340 E3.51621
G1 X160.618 Y171.169 E3.52679
G1 X160.208 Y170.984 E3.54533
G1 X159.869 Y170.927 E3.55946
G1 X156.513 Y170.938 E3.69771
G1 X155.849 Y170.892 E3.72513
G1 X155.475 Y170.934 E3.74065
G1 X155.088 Y171.083 E3.75772
G1 X154.786 Y171.307 E3.77321
G1 X154.675 Y171.438 E3.78028
G1 X154.546 Y171.327 E3.78728
G1 X154.030 Y171.029 E3.81182
G1 X153.559 Y170.865 E3.83239
G1 X153.055 Y170.776 E3.85349
G1 X152.609 Y170.754 E3.87185
G1 X152.257 Y170.767 E3.88637
G1 X151.863 Y170.819 E3.90277
G1 X151.461 Y170.919 E3.91983
G1 X151.143 Y171.036 E3.93376
G1 X150.835 Y171.184 E3.94785
G1 X150.439 Y171.438 E3.96722
G1 X150.235 Y171.608 E3.97817
G1 X150.237 Y170.101 E4.04026
G1 X150.269 Y169.891 E4.04901
G1 X150.337 Y169.728 E4.05628
G1 X150.432 Y169.610 E4.06254
G1 X150.537 Y169.535 E4.06784
G1 X150.680 Y169.481 E4.07415
G1 X150.883 Y169.448 E4.08263
G1 X158.904 Y168.959 E4.41367
G1 E3.41367 F3000.000
G92 E0
G1 X186.346 Y174.947 F9000.000
G1 E1.05000 F3000.000
G1 F1200.000
G1 X186.488 Y174.629 E1.06434
G1 X186.569 Y174.196 E1.08251
G1 X187.003 Y174.910 E1.11691
G1 X187.021 Y175.031 E1.12198
G1 X186.999 Y175.096 E1.12478
G1 X186.586 Y175.779 E1.15766
G1 X186.116 Y176.449 E1.19138
G1 X185.903 Y176.256 E1.20322
G1 X185.564 Y176.104 E1.21850
G1 X186.020 Y175.474 E1.25053
G1 X186.322 Y175.002 E1.27361
G1 X185.962 Y174.837 F9000.000
G1 F1200.000
G1 X186.107 Y174.511 E1.28831
G1 X186.181 Y174.115 E1.30487
G1 X186.160 Y173.733 E1.32066
G1 X186.027 Y173.346 E1.33750
G1 X185.865 Y173.118 E1.34902
G1 X185.663 Y172.948 E1.35991
G1 X185.426 Y172.832 E1.37077
G1 X185.096 Y172.764 E1.38467
G1 X182.887 Y172.762 E1.47568
G1 X182.593 Y172.785 E1.48780
G1 X182.266 Y172.877 E1.50180
G1 X181.966 Y173.040 E1.51588
G1 X181.775 Y173.250 E1.52758
G1 X181.413 Y172.923 E1.54770
G1 X181.043 Y172.766 E1.56427
G1 X180.630 Y172.783 E1.58127
G1 X180.289 Y172.947 E1.59686
G1 X180.028 Y173.189 E1.61151
G1 X179.819 Y173.494 E1.62675
G1 X179.617 Y173.930 E1.64656
G1 X179.449 Y173.913 E1.65353
G1 X179.418 Y173.787 E1.65889
G1 X179.257 Y173.389 E1.67657
G1 X179.022 Y173.100 E1.69193
G1 X178.709 Y172.894 E1.70736
G1 X178.391 Y172.787 E1.72116
G1 X178.026 Y172.756 E1.73625
G1 X177.677 Y172.828 E1.75095
G1 X177.429 Y172.961 E1.76252
G1 X177.126 Y173.254 E1.77989
G1 X177.008 Y173.093 E1.78810
G1 X176.789 Y172.921 E1.79959
G1 X176.557 Y172.813 E1.81011
G1 X176.306 Y172.762 E1.82064
G1 X176.024 Y172.777 E1.83229
G1 X175.667 Y172.914 E1.84806
G1 X175.349 Y173.208 E1.86589
G1 X175.170 Y173.424 E1.87744
G1 X175.075 Y173.282 E1.88450
G1 X174.871 Y173.054 E1.89711
G1 X174.661 Y172.894 E1.90800
G1 X174.398 Y172.790 E1.91964
G1 X174.073 Y172.758 E1.93307
G1 X173.679 Y172.841 E1.94967
G1 X173.432 Y172.974 E1.96121
G1 X173.239 Y173.138 E1.97164
G1 X173.086 Y173.339 E1.98206
G1 X172.968 Y173.618 E1.99456
G1 X172.949 Y174.045 E2.01215
G1 X173.041 Y174.391 E2.02688
G1 X173.146 Y174.632 E2.03773
G1 X173.681 Y175.582 E2.08265
G1 X173.798 Y175.759 E2.09138
G1 X173.651 Y175.957 E2.10157
G1 X173.509 Y176.197 E2.11304
G1 X173.307 Y176.599 E2.13157
G1 X173.039 Y176.210 E2.15102
G1 X172.804 Y175.991 E2.16422
G1 X172.539 Y175.824 E2.17716
G1 X172.247 Y175.714 E2.19000
G1 X171.939 Y175.656 E2.20290
G1 X171.684 Y175.662 E2.21344
