; generated by PrusaSlicer 2.3.3+win64 on 2021-08-13 at 03:21:28 UTC

; 

; external perimeters extrusion width = 0.45mm
; perimeters extrusion width = 0.45mm
; infill extrusion width = 0.45mm
; solid infill extrusion width = 0.45mm
; top infill extrusion width = 0.40mm
; first layer extrusion width = 0.45mm

M201 X550 Y550 Z100 E1000 ; sets maximum accelerations, mm/sec^2
M203 X300 Y300 Z5 E25 ; sets maximum feedrates, mm/sec
M204 P500 R500 T500 ; sets acceleration (P, T) and retract acceleration (R), mm/sec^2
M205 X10.00 Y10.00 Z0.40 E5.00 ; sets the jerk limits, mm/sec
M205 S0 T0 ; sets the minimum extruding and travel feed rate, mm/sec
M107
;TYPE:Custom
//M85 S180 ; For use with raspberry only, it kills the printer if it loses the USB connection and remains inactive for 3 minutes. It works in Marlin 1.1.6
M140 S75 ; set bed temp
M190 S75 ; wait for bed temp
G28 ; Home all axes
G29 ; Auto bed-level (BL-Touch) // Comment if you don't like the automatic level in each print
M104 S260 ; set extruder temp
G92 E0 ; Reset Extruder
G1 X5 Y20 Z2.0 F3000.0 ; Move to start position
M109 S260 ; wait for extruder temp
G1 X5 Y200.0 Z0.3 F1500.0 E15 ; Draw the first line
G1 X5 Y200.0 Z0.3 F5000.0 ; Move to side a little
G1 X5.4 Y20 Z0.3 F1500.0 E30 ; Draw the second line
G92 E0 ; Reset Extruder
G1 Z1.0 F3000 ; Move Z Axis up little to prevent scratching of Heat Bed
G21 ; set units to millimeters
G90 ; use absolute coordinates
M82 ; use absolute distances for extrusion
G92 E0
; Filament gcode
;LAYER_CHANGE
;Z:0.25
;HEIGHT:0.25
G1 Z0.250 F9000.000
G1 E-1.00000 F3000.000
G92 E0
G1 X147.889 Y165.406 F9000.000
G1 E1.05000 F3000.000
;TYPE:Skirt
;WIDTH:0.45
G1 F1200.000
G1 X148.846 Y164.929 E1.09405
G1 X150.440 Y164.557 E1.16147
G1 X175.070 Y163.091 E2.17792
G1 X177.458 Y163.245 E2.27650
G1 X179.887 Y163.726 E2.37851
G1 X182.234 Y164.523 E2.48062
G1 X184.471 Y165.633 E2.58350
G1 X186.554 Y167.041 E2.68707
G1 X188.407 Y168.694 E2.78937
G1 X189.991 Y170.532 E2.88933
G1 X191.288 Y172.507 E2.98666
G1 X191.662 Y173.386 E3.02600
G1 X191.938 Y174.806 E3.08562
G1 X191.869 Y175.701 E3.12260
G1 X191.479 Y177.119 E3.18316
G1 X191.159 Y177.694 E3.21028
G1 X189.346 Y180.274 E3.34019
G1 X186.638 Y182.881 E3.49506
G1 X184.074 Y184.591 E3.62198
G1 X181.676 Y185.696 E3.73077
G1 X179.230 Y186.431 E3.83601
G1 X177.119 Y186.795 E3.92426
G1 X174.830 Y186.908 E4.01867
G1 X150.249 Y185.422 E5.03313
G1 X148.735 Y185.012 E5.09776
G1 X147.973 Y184.657 E5.13238
G1 X147.304 Y184.141 E5.16719
G1 X146.242 Y182.981 E5.23197
G1 X145.751 Y181.983 E5.27779
G1 X145.332 Y180.141 E5.35563
G1 X145.343 Y169.662 E5.78732
G1 X145.753 Y168.020 E5.85701
G1 X146.115 Y167.215 E5.89340
G1 X146.663 Y166.504 E5.93038
G1 X147.845 Y165.446 E5.99570
G1 X148.109 Y165.743 F9000.000
G1 F1200.000
G1 X148.146 Y165.711 E5.99771
G1 X148.994 Y165.297 E6.03660
G1 X150.484 Y164.951 E6.09962
G1 X175.072 Y163.487 E7.11432
G1 X177.405 Y163.638 E7.21065
G1 X179.779 Y164.108 E7.31030
G1 X182.081 Y164.888 E7.41048
G1 X184.271 Y165.975 E7.51118
G1 X186.314 Y167.356 E7.61275
G1 X188.127 Y168.975 E7.71290
G1 X189.674 Y170.770 E7.81051
G1 X190.934 Y172.688 E7.90506
G1 X191.280 Y173.493 E7.94116
G1 X191.543 Y174.830 E7.99729
G1 X191.477 Y175.641 E8.03078
G1 X191.103 Y176.989 E8.08843
G1 X189.038 Y180.026 E8.23973
G1 X186.834 Y182.211 E8.36755
G1 X186.381 Y182.576 E8.39153
G1 X183.882 Y184.244 E8.51531
G1 X181.546 Y185.322 E8.62130
G1 X179.158 Y186.042 E8.72404
G1 X177.077 Y186.401 E8.81105
G1 X174.834 Y186.511 E8.90357
G1 X150.315 Y185.031 E9.91545
G1 X148.868 Y184.639 E9.97722
G1 X148.172 Y184.315 E10.00886
G1 X147.570 Y183.846 E10.04030
G1 X146.547 Y182.725 E10.10282
G1 X146.120 Y181.837 E10.14338
G1 X145.726 Y180.096 E10.21693
G1 X145.738 Y169.699 E10.64524
G1 X146.132 Y168.136 E10.71166
G1 X146.464 Y167.403 E10.74478
G1 X146.962 Y166.766 E10.77809
G1 X148.065 Y165.783 E10.83895
@Object 3DBenchy.stl id:0 copy 0
G1 E9.83895 F3000.000
G92 E0
G1 X176.909 Y173.715 F9000.000
G1 E1.05000 F3000.000
;TYPE:External perimeter
G1 F1200.000
G1 X176.897 Y174.250 E1.07205
G1 X176.136 Y175.695 E1.13931
G1 X176.986 Y177.356 E1.21616
G1 X176.996 Y177.911 E1.23902
G1 X176.611 Y178.367 E1.26363
G1 X175.750 Y178.287 E1.29923
G1 X175.093 Y177.229 E1.35054
G1 X174.452 Y178.269 E1.40089
G1 X173.969 Y178.411 E1.42165
G1 X173.391 Y178.040 E1.44995
G1 X173.457 Y177.176 E1.48564
G1 X174.241 Y175.784 E1.55148
G1 X173.334 Y174.000 E1.63391
G1 X173.506 Y173.404 E1.65948
G1 X174.122 Y173.134 E1.68720
G1 X174.745 Y173.497 E1.71692
G1 X175.199 Y174.236 E1.75264
G1 X175.872 Y173.241 E1.80213
G1 X176.437 Y173.172 E1.82558
G1 X176.911 Y173.606 E1.85206
G1 X176.910 Y173.655 E1.85410
G1 X177.291 Y173.834 F9000.000
G1 E0.85410 F3000.000
G92 E0
G1 X179.674 Y179.403 F9000.000
G1 E1.05000 F3000.000
G1 F1200.000
G1 X179.469 Y179.965 E1.07464
G1 X178.862 Y180.650 E1.11237
G1 X177.749 Y180.962 E1.15997
G1 X177.109 Y180.594 E1.19037
G1 X176.973 Y179.728 E1.22652
G1 X178.148 Y179.055 E1.28230
G1 X178.708 Y177.726 E1.34173
G1 X177.420 Y174.247 E1.49457
G1 X177.446 Y173.510 E1.52492
G1 X178.049 Y173.125 E1.55442
G1 X178.904 Y173.551 E1.59375
G1 X179.445 Y175.350 E1.67115
G1 X179.616 Y175.355 E1.67820
G1 X180.314 Y173.454 E1.76164
G1 X180.733 Y173.160 E1.78270
G1 X181.190 Y173.247 E1.80188
G1 X181.534 Y173.628 E1.82300
G1 X181.589 Y174.144 E1.84441
G1 X179.694 Y179.346 E2.07248
G1 X179.935 Y179.706 F9000.000
G1 E1.07248 F3000.000
G92 E0
G1 X184.502 Y176.121 F9000.000
G1 E1.05000 F3000.000
G1 F1200.000
G1 X184.251 Y176.453 E1.06712
G1 X184.097 Y176.797 E1.08267
G1 X185.462 Y176.902 E1.13905
G1 X185.825 Y177.415 E1.16494
G1 X185.490 Y178.193 E1.19984
G1 X184.832 Y178.371 E1.22793
G1 X182.592 Y178.429 E1.32023
G1 X181.968 Y178.028 E1.35078
G1 X181.873 Y177.385 E1.37757
G1 X182.069 Y176.858 E1.40070
G1 X183.580 Y174.759 E1.50726
G1 X182.635 Y174.740 E1.54619
G1 X182.086 Y174.510 E1.57070
G1 X182.015 Y173.503 E1.61228
G1 X182.866 Y173.159 E1.65008
G1 X185.092 Y173.160 E1.74178
G1 X185.669 Y173.488 E1.76912
G1 X185.788 Y174.087 E1.79427
G1 X185.618 Y174.643 E1.81824
G1 X184.538 Y176.073 E1.89206
G1 X184.668 Y176.485 F9000.000
G1 E0.89206 F3000.000
G92 E0
G1 X152.595 Y169.346 F9000.000
G1 E1.05000 F3000.000
;TYPE:Perimeter
G1 F1200.000
G1 X175.062 Y168.003 E1.97719
G1 X176.821 Y168.116 E2.04980
G1 X178.604 Y168.468 E2.12468
G1 X180.349 Y169.059 E2.20055
G1 X182.003 Y169.881 E2.27665
G1 X183.538 Y170.919 E2.35298
G1 X184.916 Y172.151 E2.42910
G1 X185.103 Y172.368 E2.44090
G1 X182.712 Y172.366 E2.53939
G1 X181.797 Y172.736 E2.58004
G1 X181.601 Y172.518 E2.59213
G1 X180.552 Y172.319 E2.63612
G1 X179.579 Y173.001 E2.68509
G1 X178.001 Y172.215 E2.75772
G1 X177.156 Y172.755 E2.79903
G1 X176.703 Y172.341 E2.82430
G1 X175.418 Y172.498 E2.87765
G1 X175.188 Y172.838 E2.89457
G1 X174.173 Y172.246 E2.94295
G1 X172.847 Y172.827 E3.00260
G1 X172.485 Y174.081 E3.05636
G1 X173.304 Y175.690 E3.13071
G1 X171.682 Y175.197 E3.20053
G1 X171.740 Y174.583 E3.22595
G1 X171.404 Y173.007 E3.29234
G1 X170.691 Y171.901 E3.34654
G1 X169.727 Y171.231 E3.39491
G1 X168.449 Y170.955 E3.44878
G1 X166.626 Y170.914 E3.52389
G1 X165.586 Y171.163 E3.56796
G1 X165.137 Y171.839 E3.60139
G1 X164.216 Y170.980 E3.65328
G1 X162.569 Y170.735 E3.72187
G1 X161.001 Y171.170 E3.78891
G1 X160.765 Y171.390 E3.80222
G1 X160.113 Y170.930 E3.83508
G1 X155.632 Y170.894 E4.01968
G1 X154.635 Y171.398 E4.06569
G1 X154.564 Y171.323 E4.06997
G1 X153.584 Y170.861 E4.11458
G1 X152.565 Y170.744 E4.15683
G1 X151.118 Y171.018 E4.21749
G1 X150.236 Y171.681 E4.26294
G1 X150.237 Y170.169 E4.32524
G1 X150.355 Y169.764 E4.34261
G1 X150.599 Y169.534 E4.35643
G1 X150.934 Y169.445 E4.37071
G1 X152.536 Y169.350 E4.43678
G1 E3.43678 F3000.000
G92 E0
G1 X185.657 Y176.122 F9000.000
G1 E1.05000 F3000.000
G1 F1200.000
G1 X185.503 Y176.110 E1.05638
G1 X186.335 Y175.009 E1.11323
G1 X186.567 Y174.251 E1.14588
G1 X186.978 Y174.879 E1.17679
G1 X187.004 Y174.982 E1.18118
G1 X186.972 Y175.128 E1.18732
G1 X186.109 Y176.445 E1.25219
G1 X185.893 Y176.140 E1.26755
G1 X185.717 Y176.127 E1.27482
G1 X185.677 Y176.521 F9000.000
G1 F1200.000
G1 X184.750 Y176.450 E1.31314
G1 X185.976 Y174.826 E1.39696
G1 X186.196 Y174.107 E1.42792
G1 X186.023 Y173.232 E1.46467
G1 X185.197 Y172.764 E1.50378
G1 X182.789 Y172.762 E1.60296
G1 X181.689 Y173.208 E1.65187
G1 X181.396 Y172.882 E1.66990
G1 X180.642 Y172.739 E1.70149
G1 X179.985 Y173.200 E1.73457
G1 X179.654 Y174.103 E1.77418
G1 X179.482 Y174.098 E1.78124
G1 X179.234 Y173.272 E1.81676
G1 X178.025 Y172.670 E1.87241
G1 X177.113 Y173.253 E1.91701
G1 X176.570 Y172.756 E1.94730
G1 X175.645 Y172.869 E1.98570
G1 X175.215 Y173.505 E2.01732
G1 X175.031 Y173.205 E2.03181
G1 X174.148 Y172.690 E2.07393
G1 X173.176 Y173.116 E2.11761
G1 X172.909 Y174.041 E2.15728
G1 X173.792 Y175.774 E2.23741
G1 X173.265 Y176.710 E2.28164
G1 X172.842 Y175.963 E2.31697
G1 X171.673 Y175.609 E2.36730
G1 X171.220 Y175.872 E2.38887
G1 X171.340 Y174.606 E2.44124
G1 X171.032 Y173.160 E2.50214
G1 X170.401 Y172.182 E2.55010
G1 X169.566 Y171.602 E2.59198
G1 X168.402 Y171.350 E2.64104
G1 X166.668 Y171.311 E2.71247
G1 X165.830 Y171.512 E2.74799
G1 X165.375 Y172.198 E2.78192
G1 X165.388 Y172.939 E2.81244
G1 X165.173 Y172.963 E2.82133
G1 X165.027 Y172.278 E2.85019
G1 X164.036 Y171.354 E2.90604
G1 X162.594 Y171.139 E2.96608
G1 X161.200 Y171.526 E3.02568
G1 X160.799 Y171.899 E3.04825
G1 X159.985 Y171.326 E3.08924
G1 X155.725 Y171.291 E3.26477
G1 X154.824 Y171.747 E3.30635
G1 X154.784 Y172.135 E3.32242
G1 X154.327 Y171.649 E3.34990
G1 X153.474 Y171.248 E3.38873
G1 X152.580 Y171.145 E3.42581
G1 X151.283 Y171.390 E3.48020
G1 X150.135 Y172.253 E3.53933
G1 X150.023 Y172.478 E3.54970
G1 X149.840 Y172.435 E3.55747
G1 X149.840 Y170.112 E3.65318
G1 X150.005 Y169.549 E3.67733
G1 X150.401 Y169.177 E3.69974
G1 X150.871 Y169.052 E3.71978
G1 X175.063 Y167.606 E4.71816
G1 X176.873 Y167.722 E4.79285
G1 X178.707 Y168.085 E4.86987
G1 X180.501 Y168.692 E4.94793
G1 X182.203 Y169.538 E5.02621
G1 X183.782 Y170.606 E5.10473
G1 X185.199 Y171.872 E5.18303
G1 X186.387 Y173.253 E5.25808
G1 X187.346 Y174.717 E5.33017
G1 X187.411 Y174.975 E5.34114
G1 X187.344 Y175.284 E5.35412
G1 X186.122 Y177.148 E5.44595
G1 X185.712 Y176.570 E5.47512
G1 E4.47512 F3000.000
G92 E0
G1 X173.029 Y177.096 F9000.000
G1 E1.05000 F3000.000
;TYPE:External perimeter
G1 F1200.000
G1 X172.817 Y178.139 E1.09384
G1 X172.379 Y178.542 E1.11835
G1 X171.783 Y178.699 E1.14374
G1 X170.913 Y178.394 E1.18173
G1 X170.505 Y177.566 E1.21973
G1 X170.820 Y176.563 E1.26304
G1 X171.723 Y176.038 E1.30608
G1 X172.575 Y176.297 E1.34276
G1 X172.999 Y177.044 E1.37816
G1 X173.403 Y177.237 F9000.000
G1 E0.37816 F3000.000
G92 E0
G1 X165.849 Y176.571 F9000.000
G1 E1.05000 F3000.000
G1 F1200.000
G1 X165.773 Y172.314 E1.22538
G1 X166.074 Y171.861 E1.24780
G1 X166.711 Y171.708 E1.27477
G1 X168.355 Y171.746 E1.34254
G1 X169.405 Y171.972 E1.38677
G1 X170.110 Y172.463 E1.42215
G1 X170.659 Y173.314 E1.46390
G1 X170.939 Y174.629 E1.51929
G1 X170.824 Y175.858 E1.57011
G1 X169.992 Y177.479 E1.64517
G1 X169.286 Y177.983 E1.68092
G1 X168.387 Y178.182 E1.71885
G1 X166.453 Y178.244 E1.79855
G1 X165.872 Y177.838 E1.82777
G1 X165.850 Y176.631 E1.87750
G1 X165.480 Y176.417 F9000.000
G1 X165.192 Y175.257
;TYPE:Perimeter
G1 F1200.000
G1 X165.030 Y174.723 E1.90047
G1 X164.626 Y174.477 E1.91995
G1 X165.047 Y174.156 E1.94177
G1 X165.173 Y173.223 E1.98054
G1 X165.393 Y173.236 E1.98962
G1 X165.431 Y175.337 E2.07618
G1 X165.226 Y175.369 E2.08470
G1 X165.210 Y175.314 E2.08707
G1 X164.830 Y175.429 F9000.000
;TYPE:External perimeter
G1 F1200.000
G1 X165.039 Y176.115 E2.11662
G1 X164.891 Y176.997 E2.15344
G1 X164.448 Y177.714 E2.18816
G1 X163.698 Y178.223 E2.22550
G1 X162.854 Y178.384 E2.26089
G1 X161.467 Y178.120 E2.31905
G1 X161.041 Y177.736 E2.34268
G1 X160.871 Y177.234 E2.36453
G1 X160.980 Y176.711 E2.38653
G1 X161.442 Y176.383 E2.40988
G1 X162.100 Y176.422 E2.43703
G1 X162.841 Y176.822 E2.47173
G1 X163.100 Y176.719 E2.48321
G1 X163.275 Y176.444 E2.49662
G1 X163.255 Y176.097 E2.51096
G1 X163.043 Y175.783 E2.52655
G1 X161.849 Y175.331 E2.57915
G1 X161.539 Y174.881 E2.60164
G1 X161.850 Y174.000 E2.64011
G1 X162.698 Y173.763 E2.67638
G1 X162.900 Y173.610 E2.68685
G1 X162.921 Y173.256 E2.70144
G1 X162.610 Y173.131 E2.71524
G1 X161.617 Y173.572 E2.76001
G1 X161.137 Y173.301 E2.78271
G1 X160.876 Y172.809 E2.80564
G1 X160.982 Y172.269 E2.82832
G1 X161.399 Y171.882 E2.85175
G1 X162.619 Y171.543 E2.90391
G1 X163.856 Y171.728 E2.95540
G1 X164.666 Y172.483 E3.00104
G1 X164.793 Y173.079 E3.02614
G1 X164.676 Y173.940 E3.06195
G1 X163.925 Y174.514 E3.10091
G1 X164.695 Y174.983 E3.13805
G1 X164.813 Y175.372 E3.15478
G1 X165.229 Y175.456 F9000.000
G1 E2.15478 F3000.000
G92 E0
G1 X181.370 Y178.586 F9000.000
G1 E1.05000 F3000.000
;TYPE:Perimeter
G1 F1200.000
G1 X182.369 Y179.227 E1.09889
G1 X183.023 Y179.211 E1.12585
G1 X183.076 Y179.383 E1.13327
G1 X181.556 Y180.368 E1.20789
G1 X179.896 Y181.120 E1.28301
G1 X179.677 Y181.187 E1.29243
G1 X179.579 Y181.036 E1.29985
G1 X180.162 Y180.378 E1.33607
G1 X180.995 Y178.092 E1.43630
G1 X181.179 Y178.110 E1.44392
G1 X181.237 Y178.500 E1.46014
G1 X181.320 Y178.553 E1.46421
G1 E0.46421 F3000.000
G92 E0
G1 X158.961 Y181.039 F9000.000
G1 E1.05000 F3000.000
G1 F1200.000
G1 X150.952 Y180.556 E1.38054
G1 X150.538 Y180.431 E1.39836
G1 X150.364 Y180.254 E1.40856
G1 X150.234 Y179.753 E1.42990
G1 X150.234 Y178.264 E1.49125
G1 X151.065 Y178.887 E1.53404
G1 X152.665 Y179.200 E1.60117
G1 X154.402 Y178.736 E1.67524
G1 X155.135 Y178.020 E1.71747
G1 X155.591 Y176.929 E1.76617
G1 X155.002 Y175.791 E1.81898
G1 X153.672 Y175.322 E1.87707
G1 X152.711 Y175.887 E1.92298
G1 X152.439 Y175.887 E1.93419
G1 X152.364 Y175.842 E1.93778
G1 X152.314 Y175.760 E1.94176
G1 X152.220 Y174.621 E1.98881
G1 X152.458 Y174.005 E2.01603
G1 X154.164 Y174.680 E2.09162
G1 X154.994 Y173.902 E2.13850
G1 X155.223 Y174.144 E2.15222
G1 X156.158 Y174.112 E2.19076
G1 X156.152 Y177.983 E2.35022
G1 X156.924 Y178.943 E2.40096
G1 X158.289 Y179.012 E2.45728
G1 X159.113 Y178.346 E2.50092
G1 X159.359 Y177.501 E2.53719
G1 X159.374 Y174.107 E2.67702
G1 X160.470 Y173.983 E2.72246
G1 X160.559 Y173.884 E2.72795
G1 X160.968 Y174.116 E2.74736
G1 X160.658 Y174.998 E2.78588
G1 X161.106 Y175.650 E2.81847
G1 X160.267 Y176.245 E2.86084
G1 X160.051 Y177.284 E2.90456
G1 X160.356 Y178.187 E2.94383
G1 X161.101 Y178.858 E2.98512
G1 X162.854 Y179.191 E3.05863
G1 X164.008 Y178.971 E3.10701
G1 X165.073 Y178.247 E3.16009
G1 X166.215 Y179.045 E3.21749
G1 X168.486 Y178.972 E3.31109
G1 X169.615 Y178.722 E3.35873
G1 X170.041 Y178.418 E3.38030
G1 X170.345 Y179.035 E3.40863
G1 X171.750 Y179.527 E3.46996
G1 X172.771 Y179.259 E3.51346
G1 X173.203 Y178.861 E3.53763
G1 X173.845 Y179.274 E3.56906
G1 X174.967 Y178.944 E3.61727
G1 X175.096 Y178.736 E3.62735
G1 X175.285 Y179.040 E3.64211
G1 X176.110 Y179.117 E3.67625
G1 X176.147 Y179.287 E3.68342
G1 X176.104 Y179.311 E3.68543
G1 X176.385 Y181.093 E3.75974
G1 X177.523 Y181.746 E3.81380
G1 X176.587 Y181.912 E3.85296
G1 X174.829 Y181.996 E3.92550
G1 X159.021 Y181.043 E4.57790
G1 X158.997 Y181.438 F9000.000
G1 F1200.000
G1 X150.882 Y180.949 E4.91281
G1 X150.326 Y180.782 E4.93673
G1 X150.007 Y180.456 E4.95548
G1 X149.838 Y179.804 E4.98326
G1 X149.838 Y177.473 E5.07929
G1 X150.018 Y177.427 E5.08692
G1 X150.179 Y177.727 E5.10095
G1 X151.231 Y178.516 E5.15508
G1 X152.651 Y178.793 E5.21470
G1 X154.199 Y178.380 E5.28071
G1 X154.800 Y177.792 E5.31535
G1 X155.154 Y176.947 E5.35311
G1 X154.722 Y176.112 E5.39182
G1 X153.714 Y175.757 E5.43586
G1 X152.819 Y176.283 E5.47862
G1 X152.331 Y176.283 E5.49873
G1 X152.076 Y176.133 E5.51090
G1 X151.927 Y175.885 E5.52284
G1 X151.817 Y174.563 E5.57746
G1 X152.128 Y173.759 E5.61300
G1 X152.304 Y173.645 E5.62165
G1 X152.538 Y173.611 E5.63137
G1 X154.076 Y174.219 E5.69952
G1 X155.011 Y173.343 E5.75231
G1 X155.388 Y173.742 E5.77492
G1 X156.555 Y173.702 E5.82301
G1 X156.548 Y177.844 E5.99364
G1 X157.121 Y178.556 E6.03129
G1 X158.158 Y178.608 E6.07405
G1 X158.768 Y178.116 E6.10633
G1 X158.963 Y177.444 E6.13518
G1 X158.979 Y173.752 E6.28725
