; generated by PrusaSlicer 2.3.3+win64 on 2021-08-15 at 04:29:50 UTC

; 

; external perimeters extrusion width = 0.45mm
; perimeters extrusion width = 0.45mm
; infill extrusion width = 0.45mm
; solid infill extrusion width = 0.45mm
; top infill extrusion width = 0.40mm
; first layer extrusion width = 0.45mm

M201 X550 Y550 Z100 E1000 ; sets maximum accelerations, mm/sec^2
M203 X300 Y300 Z5 E25 ; sets maximum feedrates, mm/sec
M204 P500 R500 T500 ; sets acceleration (P, T) and retract acceleration (R), mm/sec^2
M205 X10.00 Y10.00 Z0.40 E5.00 ; sets the jerk limits, mm/sec
M205 S0 T0 ; sets the minimum extruding and travel feed rate, mm/sec
M107 ; disable fan
;TYPE:Custom
//M85 S180 ; For use with raspberry only, it kills the printer if it loses the USB connection and remains inactive for 3 minutes. It works in Marlin 1.1.6
M140 S75 ; set bed temp
M190 S75 ; wait for bed temp
G28 ; Home all axes
G29 ; Auto bed-level (BL-Touch) // Comment if you don't like the automatic level in each print
M104 S260 ; set extruder temp
G92 E0 ; Reset Extruder
G1 X5 Y20 Z2.0 F3000.0 ; Move to start position
M109 S260 ; wait for extruder temp
G1 X5 Y200.0 Z0.3 F1500.0 E15 ; Draw the first line
G1 X5 Y200.0 Z0.3 F5000.0 ; Move to side a little
G1 X5.4 Y20 Z0.3 F1500.0 E30 ; Draw the second line
G92 E0 ; Reset Extruder
G1 Z1.0 F3000 ; Move Z Axis up little to prevent scratching of Heat Bed
G21 ; set units to millimeters
G90 ; use absolute coordinates
M82 ; use absolute distances for extrusion
G92 E0 ; reset extrusion distance
; Filament gcode
;LAYER_CHANGE
;Z:0.25
;HEIGHT:0.25
G1 Z0.250 F9000.000 ; move to next layer (0)
G1 E-1.20000 F2400.000 ; retract
G92 E0 ; reset extrusion distance
G1 X141.327 Y27.334 F9000.000 ; move to first skirt point
G1 E1.30000 F2400.000 ; unretract
;TYPE:Skirt
;WIDTH:0.45
G1 F1200.000
G1 X141.491 Y26.722 E1.32613 ; skirt
G1 X141.756 Y26.145 E1.35227 ; skirt
G1 X142.113 Y25.621 E1.37840 ; skirt
G1 X142.552 Y25.163 E1.40453 ; skirt
G1 X143.061 Y24.785 E1.43066 ; skirt
G1 X143.622 Y24.499 E1.45660 ; skirt
G1 X144.227 Y24.309 E1.48273 ; skirt
G1 X144.856 Y24.222 E1.50886 ; skirt
G1 X199.944 Y24.216 E3.77825 ; skirt
G1 X200.675 Y24.288 E3.80852 ; skirt
G1 X201.383 Y24.502 E3.83900 ; skirt
G1 X202.033 Y24.847 E3.86928 ; skirt
G1 X202.607 Y25.313 E3.89975 ; skirt
G1 X203.076 Y25.878 E3.93003 ; skirt
G1 X203.430 Y26.528 E3.96051 ; skirt
G1 X203.650 Y27.229 E3.99078 ; skirt
G1 X203.731 Y27.960 E4.02106 ; skirt
G1 X203.731 Y326.809 E16.33238 ; skirt
G1 X203.671 Y327.484 E16.36029 ; skirt
G1 X203.491 Y328.137 E16.38820 ; skirt
G1 X203.198 Y328.748 E16.41611 ; skirt
G1 X202.808 Y329.290 E16.44362 ; skirt
G1 X202.306 Y329.779 E16.47249 ; skirt
G1 X201.797 Y330.157 E16.49862 ; skirt
G1 X201.232 Y330.445 E16.52475 ; skirt
G1 X200.631 Y330.634 E16.55069 ; skirt
G1 X200.003 Y330.721 E16.57682 ; skirt
G1 X145.195 Y330.727 E18.83466 ; skirt
G1 X144.525 Y330.666 E18.86237 ; skirt
G1 X143.876 Y330.488 E18.89009 ; skirt
G1 X143.265 Y330.196 E18.91800 ; skirt
G1 X142.749 Y329.828 E18.94413 ; skirt
G1 X142.176 Y329.274 E18.97696 ; skirt
G1 X141.791 Y328.734 E19.00427 ; skirt
G1 X141.507 Y328.140 E19.03139 ; skirt
G1 X141.331 Y327.506 E19.05851 ; skirt
G1 X141.266 Y326.850 E19.08563 ; skirt
G1 X141.266 Y28.009 E31.39663 ; skirt
G1 X141.321 Y27.394 E31.42207 ; skirt
G1 X142.105 Y26.333 F9000.000 ; move to first skirt point
G1 F1200.000
G1 X142.821 Y25.455 E31.46874 ; skirt
G1 X143.785 Y24.861 E31.51541 ; skirt
G1 X144.896 Y24.617 E31.56227 ; skirt
G1 X199.943 Y24.613 E33.82997 ; skirt
G1 X200.604 Y24.678 E33.85731 ; skirt
G1 X201.235 Y24.870 E33.88447 ; skirt
G1 X201.817 Y25.179 E33.91162 ; skirt
G1 X202.328 Y25.595 E33.93878 ; skirt
G1 X202.752 Y26.106 E33.96612 ; skirt
G1 X203.066 Y26.685 E33.99327 ; skirt
G1 X203.264 Y27.318 E34.02061 ; skirt
G1 X203.335 Y27.974 E34.04776 ; skirt
G1 X203.335 Y326.809 E46.35851 ; skirt
G1 X203.280 Y327.416 E46.38361 ; skirt
G1 X203.117 Y328.007 E46.40889 ; skirt
G1 X202.851 Y328.556 E46.43399 ; skirt
G1 X202.495 Y329.045 E46.45891 ; skirt
G1 X202.037 Y329.488 E46.48518 ; skirt
G1 X201.068 Y330.084 E46.53204 ; skirt
G1 X199.961 Y330.326 E46.57871 ; skirt
G1 X145.195 Y330.330 E48.83483 ; skirt
G1 X144.593 Y330.276 E48.85974 ; skirt
G1 X144.006 Y330.114 E48.88484 ; skirt
G1 X143.461 Y329.851 E48.90976 ; skirt
G1 X142.475 Y329.013 E48.96307 ; skirt
G1 X142.132 Y328.532 E48.98742 ; skirt
G1 X141.878 Y327.998 E49.01177 ; skirt
G1 X141.720 Y327.428 E49.03613 ; skirt
G1 X141.663 Y326.840 E49.06048 ; skirt
G1 X141.663 Y28.009 E61.37104 ; skirt
G1 X141.717 Y27.402 E61.39614 ; skirt
G1 X142.085 Y26.389 E61.44053 ; skirt
@Object Rack300mm.stl id:0 copy 0
G1 E60.24053 F2400.000 ; retract
G92 E0 ; reset extrusion distance
G1 X146.177 Y29.127 F9000.000 ; move to first perimeter point
G1 E1.30000 F2400.000 ; unretract
;TYPE:Perimeter
G1 F1200.000
G1 X198.821 Y29.127 E3.46873 ; perimeter
G1 X198.821 Y325.816 E15.69108 ; perimeter
G1 X146.177 Y325.816 E17.85980 ; perimeter
G1 X146.177 Y29.187 E30.07968 ; perimeter
G1 X145.780 Y28.730 F9000.000 ; move to first perimeter point
G1 F1200.000
G1 X199.217 Y28.730 E32.28107 ; perimeter
G1 X199.217 Y326.213 E44.53607 ; perimeter
G1 X145.780 Y326.213 E46.73745 ; perimeter
G1 X145.780 Y28.790 E58.98999 ; perimeter
G1 X145.384 Y28.334 F9000.000 ; move to first perimeter point
;TYPE:External perimeter
G1 F1200.000
G1 X199.614 Y28.334 E61.22403 ; perimeter
G1 X199.614 Y326.609 E73.51169 ; perimeter
G1 X145.384 Y326.609 E75.74573 ; perimeter
G1 X145.384 Y28.394 E88.03092 ; perimeter
G1 X145.742 Y28.513 F9000.000 ; move inwards before travel
G1 E86.83092 F2400.000 ; retract
G92 E0 ; reset extrusion distance
G1 X147.097 Y325.697 F9000.000 ; move to first infill point
G1 E1.30000 F2400.000 ; unretract
;TYPE:Solid infill
;WIDTH:0.450332
G1 F1200.000
G1 X146.474 Y325.074 E1.33636 ; infill
G1 X146.474 Y324.513 E1.35949 ; infill
G1 X147.480 Y325.519 E1.41815 ; infill
G1 X148.041 Y325.519 E1.44128 ; infill
G1 X146.474 Y323.952 E1.53266 ; infill
G1 X146.474 Y323.391 E1.55579 ; infill
G1 X148.602 Y325.519 E1.67988 ; infill
G1 X149.163 Y325.519 E1.70301 ; infill
G1 X146.474 Y322.830 E1.85980 ; infill
G1 X146.474 Y322.269 E1.88293 ; infill
G1 X149.724 Y325.519 E2.07244 ; infill
G1 X150.285 Y325.519 E2.09557 ; infill
G1 X146.474 Y321.708 E2.31779 ; infill
G1 X146.474 Y321.147 E2.34092 ; infill
G1 X150.846 Y325.519 E2.59585 ; infill
G1 X151.407 Y325.519 E2.61898 ; infill
G1 X146.474 Y320.586 E2.90662 ; infill
G1 X146.474 Y320.025 E2.92975 ; infill
G1 X151.968 Y325.519 E3.25010 ; infill
G1 X152.529 Y325.519 E3.27323 ; infill
G1 X146.474 Y319.464 E3.62629 ; infill
G1 X146.474 Y318.903 E3.64942 ; infill
G1 X153.090 Y325.519 E4.03520 ; infill
G1 X153.651 Y325.519 E4.05833 ; infill
G1 X146.474 Y318.342 E4.47681 ; infill
G1 X146.474 Y317.781 E4.49994 ; infill
G1 X154.212 Y325.519 E4.95113 ; infill
G1 X154.773 Y325.519 E4.97426 ; infill
G1 X146.474 Y317.220 E5.45817 ; infill
G1 X146.474 Y316.659 E5.48130 ; infill
G1 X155.334 Y325.519 E5.99791 ; infill
G1 X155.895 Y325.519 E6.02104 ; infill
G1 X146.474 Y316.098 E6.57037 ; infill
G1 X146.474 Y315.537 E6.59350 ; infill
G1 X156.456 Y325.519 E7.17553 ; infill
G1 X157.017 Y325.519 E7.19866 ; infill
G1 X146.474 Y314.976 E7.81341 ; infill
G1 X146.474 Y314.415 E7.83654 ; infill
G1 X157.578 Y325.519 E8.48400 ; infill
G1 X158.139 Y325.519 E8.50713 ; infill
G1 X146.474 Y313.854 E9.18730 ; infill
G1 X146.474 Y313.293 E9.21043 ; infill
G1 X158.700 Y325.519 E9.92331 ; infill
G1 X159.261 Y325.519 E9.94644 ; infill
G1 X146.474 Y312.732 E10.69202 ; infill
G1 X146.474 Y312.171 E10.71515 ; infill
G1 X159.822 Y325.519 E11.49345 ; infill
G1 X160.383 Y325.519 E11.51658 ; infill
G1 X146.474 Y311.610 E12.32760 ; infill
G1 X146.474 Y311.049 E12.35073 ; infill
G1 X160.944 Y325.519 E13.19445 ; infill
G1 X161.505 Y325.519 E13.21758 ; infill
G1 X146.474 Y310.488 E14.09401 ; infill
G1 X146.474 Y309.927 E14.11714 ; infill
G1 X162.066 Y325.519 E15.02628 ; infill
G1 X162.627 Y325.519 E15.04941 ; infill
G1 X146.474 Y309.366 E15.99126 ; infill
G1 X146.474 Y308.805 E16.01439 ; infill
G1 X163.188 Y325.519 E16.98896 ; infill
G1 X163.749 Y325.519 E17.01209 ; infill
G1 X146.474 Y308.244 E18.01936 ; infill
G1 X146.474 Y307.683 E18.04249 ; infill
G1 X164.310 Y325.519 E19.08248 ; infill
G1 X164.871 Y325.519 E19.10561 ; infill
G1 X146.474 Y307.122 E20.17830 ; infill
G1 X146.474 Y306.561 E20.20143 ; infill
G1 X165.432 Y325.519 E21.30684 ; infill
G1 X165.993 Y325.519 E21.32997 ; infill
G1 X146.474 Y306.000 E22.46809 ; infill
G1 X146.474 Y305.439 E22.49122 ; infill
G1 X166.554 Y325.519 E23.66205 ; infill
G1 X167.115 Y325.519 E23.68517 ; infill
G1 X146.474 Y304.878 E24.88871 ; infill
G1 X146.474 Y304.317 E24.91184 ; infill
G1 X167.676 Y325.519 E26.14809 ; infill
G1 X168.237 Y325.519 E26.17122 ; infill
G1 X146.474 Y303.756 E27.44018 ; infill
G1 X146.474 Y303.195 E27.46331 ; infill
G1 X168.798 Y325.519 E28.76498 ; infill
G1 X169.359 Y325.519 E28.78811 ; infill
G1 X146.474 Y302.634 E30.12249 ; infill
G1 X146.474 Y302.073 E30.14562 ; infill
G1 X169.920 Y325.519 E31.51271 ; infill
G1 X170.481 Y325.519 E31.53584 ; infill
G1 X146.474 Y301.512 E32.93565 ; infill
G1 X146.474 Y300.951 E32.95878 ; infill
G1 X171.042 Y325.519 E34.39129 ; infill
G1 X171.603 Y325.519 E34.41442 ; infill
G1 X146.474 Y300.390 E35.87964 ; infill
G1 X146.474 Y299.829 E35.90277 ; infill
G1 X172.164 Y325.519 E37.40071 ; infill
G1 X172.725 Y325.519 E37.42384 ; infill
G1 X146.474 Y299.268 E38.95448 ; infill
G1 X146.474 Y298.707 E38.97761 ; infill
G1 X173.286 Y325.519 E40.54097 ; infill
G1 X173.847 Y325.519 E40.56410 ; infill
G1 X146.474 Y298.146 E42.16016 ; infill
G1 X146.474 Y297.585 E42.18329 ; infill
G1 X174.408 Y325.519 E43.81207 ; infill
G1 X174.969 Y325.519 E43.83520 ; infill
G1 X146.474 Y297.024 E45.49669 ; infill
G1 X146.474 Y296.463 E45.51982 ; infill
G1 X175.530 Y325.519 E47.21401 ; infill
G1 X176.091 Y325.519 E47.23714 ; infill
G1 X146.474 Y295.902 E48.96405 ; infill
G1 X146.474 Y295.341 E48.98718 ; infill
G1 X176.652 Y325.519 E50.74680 ; infill
G1 X177.213 Y325.519 E50.76993 ; infill
G1 X146.474 Y294.780 E52.56226 ; infill
G1 X146.474 Y294.219 E52.58539 ; infill
G1 X177.774 Y325.519 E54.41043 ; infill
G1 X178.335 Y325.519 E54.43356 ; infill
G1 X146.474 Y293.658 E56.29131 ; infill
G1 X146.474 Y293.097 E56.31444 ; infill
G1 X178.896 Y325.519 E58.20491 ; infill
G1 X179.457 Y325.519 E58.22804 ; infill
G1 X146.474 Y292.536 E60.15121 ; infill
G1 X146.474 Y291.975 E60.17434 ; infill
G1 X180.018 Y325.519 E62.13022 ; infill
G1 X180.579 Y325.519 E62.15335 ; infill
G1 X146.474 Y291.414 E64.14194 ; infill
G1 X146.474 Y290.853 E64.16507 ; infill
G1 X181.140 Y325.519 E66.18638 ; infill
G1 X181.701 Y325.519 E66.20951 ; infill
G1 X146.474 Y290.292 E68.26352 ; infill
G1 X146.474 Y289.731 E68.28665 ; infill
G1 X182.262 Y325.519 E70.37338 ; infill
G1 X182.823 Y325.519 E70.39651 ; infill
G1 X146.474 Y289.170 E72.51594 ; infill
G1 X146.474 Y288.609 E72.53907 ; infill
G1 X183.384 Y325.519 E74.69122 ; infill
G1 X183.945 Y325.519 E74.71435 ; infill
G1 X146.474 Y288.048 E76.89921 ; infill
G1 X146.474 Y287.487 E76.92234 ; infill
G1 X184.506 Y325.519 E79.13991 ; infill
G1 X185.067 Y325.519 E79.16304 ; infill
G1 X146.474 Y286.926 E81.41332 ; infill
G1 X146.474 Y286.365 E81.43645 ; infill
G1 X185.628 Y325.519 E83.71944 ; infill
G1 X186.189 Y325.519 E83.74257 ; infill
G1 X146.474 Y285.804 E86.05827 ; infill
G1 X146.474 Y285.243 E86.08140 ; infill
G1 X186.750 Y325.519 E88.42981 ; infill
G1 X187.311 Y325.519 E88.45294 ; infill
G1 X146.474 Y284.682 E90.83406 ; infill
G1 X146.474 Y284.121 E90.85719 ; infill
G1 X187.872 Y325.519 E93.27102 ; infill
G1 X188.433 Y325.519 E93.29415 ; infill
G1 X146.474 Y283.560 E95.74069 ; infill
G1 X146.474 Y282.999 E95.76382 ; infill
G1 X188.994 Y325.519 E98.24307 ; infill
G1 X189.554 Y325.519 E98.26620 ; infill
G1 X146.474 Y282.438 E100.77817 ; infill
G1 X146.474 Y281.877 E100.80130 ; infill
G1 X190.115 Y325.519 E103.34597 ; infill
G1 X190.676 Y325.519 E103.36910 ; infill
G1 X146.474 Y281.316 E105.94649 ; infill
G1 X146.474 Y280.755 E105.96962 ; infill
G1 X191.237 Y325.519 E108.57971 ; infill
G1 X191.798 Y325.519 E108.60284 ; infill
G1 X146.474 Y280.194 E111.24565 ; infill
G1 X146.474 Y279.633 E111.26878 ; infill
G1 X192.359 Y325.519 E113.94430 ; infill
G1 X192.920 Y325.519 E113.96743 ; infill
G1 X146.474 Y279.072 E116.67565 ; infill
G1 X146.474 Y278.511 E116.69878 ; infill
G1 X193.481 Y325.519 E119.43972 ; infill
G1 X194.042 Y325.519 E119.46285 ; infill
G1 X146.474 Y277.950 E122.23650 ; infill
G1 X146.474 Y277.390 E122.25963 ; infill
G1 X194.603 Y325.519 E125.06599 ; infill
G1 X195.164 Y325.519 E125.08912 ; infill
G1 X146.474 Y276.829 E127.92819 ; infill
G1 X146.474 Y276.268 E127.95132 ; infill
G1 X195.725 Y325.519 E130.82310 ; infill
G1 X196.286 Y325.519 E130.84623 ; infill
G1 X146.474 Y275.707 E133.75072 ; infill
G1 X146.474 Y275.146 E133.77385 ; infill
G1 X196.847 Y325.519 E136.71106 ; infill
G1 X197.408 Y325.519 E136.73419 ; infill
G1 X146.474 Y274.585 E139.70410 ; infill
G1 X146.474 Y274.024 E139.72723 ; infill
G1 X197.969 Y325.519 E142.72985 ; infill
G1 X198.524 Y325.513 E142.75271 ; infill
G1 X146.474 Y273.463 E145.78767 ; infill
G1 X146.474 Y272.902 E145.81080 ; infill
G1 X198.524 Y324.952 E148.84575 ; infill
G1 X198.524 Y324.391 E148.86888 ; infill
G1 X146.474 Y272.341 E151.90383 ; infill
G1 X146.474 Y271.780 E151.92696 ; infill
G1 X198.524 Y323.830 E154.96191 ; infill
G1 X198.524 Y323.269 E154.98504 ; infill
G1 X146.474 Y271.219 E158.02000 ; infill
G1 X146.474 Y270.658 E158.04313 ; infill
G1 X198.524 Y322.708 E161.07808 ; infill
G1 X198.524 Y322.147 E161.10121 ; infill
G1 X146.474 Y270.097 E164.13616 ; infill
G1 X146.474 Y269.536 E164.15929 ; infill
G1 X198.524 Y321.586 E167.19424 ; infill
G1 X198.524 Y321.025 E167.21737 ; infill
G1 X146.474 Y268.975 E170.25233 ; infill
G1 X146.474 Y268.414 E170.27546 ; infill
G1 X198.524 Y320.464 E173.31041 ; infill
G1 X198.524 Y319.903 E173.33354 ; infill
G1 X146.474 Y267.853 E176.36849 ; infill
G1 X146.474 Y267.292 E176.39162 ; infill
G1 X198.524 Y319.342 E179.42657 ; infill
G1 X198.524 Y318.781 E179.44970 ; infill
G1 X146.474 Y266.731 E182.48466 ; infill
G1 X146.474 Y266.170 E182.50779 ; infill
G1 X198.524 Y318.220 E185.54274 ; infill
G1 X198.524 Y317.659 E185.56587 ; infill
G1 X146.474 Y265.609 E188.60082 ; infill
G1 X146.474 Y265.048 E188.62395 ; infill
G1 X198.524 Y317.098 E191.65890 ; infill
G1 X198.524 Y316.537 E191.68203 ; infill
G1 X146.474 Y264.487 E194.71699 ; infill
G1 X146.474 Y263.926 E194.74012 ; infill
G1 X198.524 Y315.976 E197.77507 ; infill
G1 X198.524 Y315.415 E197.79820 ; infill
G1 X146.474 Y263.365 E200.83315 ; infill
G1 X146.474 Y262.804 E200.85628 ; infill
G1 X198.524 Y314.854 E203.89123 ; infill
G1 X198.524 Y314.293 E203.91436 ; infill
G1 X146.474 Y262.243 E206.94932 ; infill
G1 X146.474 Y261.682 E206.97244 ; infill
G1 X198.524 Y313.732 E210.00740 ; infill
G1 X198.524 Y313.171 E210.03053 ; infill
G1 X146.474 Y261.121 E213.06548 ; infill
G1 X146.474 Y260.560 E213.08861 ; infill
G1 X198.524 Y312.610 E216.12356 ; infill
G1 X198.524 Y312.049 E216.14669 ; infill
G1 X146.474 Y259.999 E219.18164 ; infill
G1 X146.474 Y259.438 E219.20477 ; infill
G1 X198.524 Y311.488 E222.23973 ; infill
G1 X198.524 Y310.927 E222.26286 ; infill
G1 X146.474 Y258.877 E225.29781 ; infill
G1 X146.474 Y258.316 E225.32094 ; infill
G1 X198.524 Y310.366 E228.35589 ; infill
G1 X198.524 Y309.805 E228.37902 ; infill
G1 X146.474 Y257.755 E231.41397 ; infill
G1 X146.474 Y257.194 E231.43710 ; infill
G1 X198.524 Y309.244 E234.47206 ; infill
G1 X198.524 Y308.683 E234.49519 ; infill
G1 X146.474 Y256.633 E237.53014 ; infill
G1 X146.474 Y256.072 E237.55327 ; infill
G1 X198.524 Y308.122 E240.58822 ; infill
G1 X198.524 Y307.561 E240.61135 ; infill
G1 X146.474 Y255.511 E243.64630 ; infill
G1 X146.474 Y254.950 E243.66943 ; infill
G1 X198.524 Y307.000 E246.70439 ; infill
G1 X198.524 Y306.439 E246.72752 ; infill
G1 X146.474 Y254.389 E249.76247 ; infill
