;FLAVOR:Marlin
;TIME:5169
;Filament used: 4.22727m
;Layer height: 0.2
;MINX:153.225
;MINY:162.223
;MINZ:0.3
;MAXX:212.752
;MAXY:192.777
;MAXZ:47.9
;LINEARADVANCEPROCESSED
;Generated with Cura_SteamEngine 4.10.0
M140 S80
M105
M190 S80
M104 S260
M105
M109 S260
M82 ;absolute extrusion mode
; Script based on an original created by tjjfvi (https://github.com/tjjfvi)
; An up-to-date version of the tjjfvi's original script can be found
; here:  https://csi.t6.fyi/
; Note - This script will only work in Cura V4.2 and above!
; --- Global Settings
; layer_height = 0.2
; smooth_spiralized_contours = True
; magic_mesh_surface_mode = normal
; machine_extruder_count = 1
; --- Single Extruder Settings
; speed_z_hop = 10
; retraction_amount = 1.2
; retraction_hop = 1
; retraction_hop_enabled = False
; retraction_enable = True
; retraction_speed = 40.0
; retraction_retract_speed = 40.0
; retraction_prime_speed = 40.0
; speed_travel = 120

M201 X500.00 Y500.00 Z100.00 E5000.00 ;Setup machine max acceleration
M203 X500.00 Y500.00 Z10.00 E50.00 ;Setup machine max feedrate
M204 P500.00 R1000.00 T500.00 ;Setup Print/Retract/Travel acceleration
M205 X8.00 Y8.00 Z0.40 E5.00 ;Setup Jerk
M220 S100 ;Reset Feedrate
M221 S100 ;Reset Flowrate

G28 ;Home
G29 ;Automatic Leveling

G92 E0 ;Reset Extruder
G1 Z2.0 F3000 ;Move Z Axis up
G1 X10.1 Y20 Z0.28 F5000.0 ;Move to start position
G1 X10.1 Y200.0 Z0.28 F1500.0 E15 ;Draw the first line
G1 X10.4 Y200.0 Z0.28 F5000.0 ;Move to side a little
G1 X10.4 Y20 Z0.28 F1500.0 E30 ;Draw the second line
G92 E0 ;Reset Extruder
G1 Z2.0 F3000 ;Move Z Axis up
G92 E0
G92 E0
G1 F2400 E-1.2
;LAYER_COUNT:240
M900 K0.000000 T0 ;added by LinearAdvanceSettingPlugin
;LAYER:0
M117 INDICATOR-Layer0
M107
M204 S500
M205 X10 Y10
G0 F3600 X155.686 Y168.799 Z0.3
M204 S550
;TYPE:SKIRT
G1 F2400 E0.02079
G1 F1800 X156.166 Y168.438 E0.05791
G1 X156.731 Y168.123 E0.0979
G1 X157.378 Y167.874 E0.14075
G1 X158.031 Y167.717 E0.18227
G1 X158.344 Y167.678 E0.20176
G1 X159.393 Y167.598 E0.2668
G1 X181.51 Y166.246 E1.63649
G1 X182.353 Y166.206 E1.68865
G1 X182.987 Y166.192 E1.72785
G1 X183.153 Y166.192 E1.73812
G1 X184.065 Y166.221 E1.79452
G1 X184.325 Y166.238 E1.81062
G1 X185.092 Y166.308 E1.85823
G1 X185.426 Y166.348 E1.87903
G1 X185.933 Y166.423 E1.91071
G1 X186.531 Y166.529 E1.94825
G1 X186.678 Y166.558 E1.95751
G1 X187.4 Y166.724 E2.0033
G1 X188.019 Y166.885 E2.04284
G1 X188.367 Y166.987 E2.06526
G1 X189.037 Y167.209 E2.10889
G1 X189.149 Y167.249 E2.11624
G1 X189.88 Y167.523 E2.16449
G1 X190.434 Y167.76 E2.20174
G1 X190.915 Y167.986 E2.23459
G1 X191.381 Y168.219 E2.2668
G1 X192.071 Y168.593 E2.31531
G1 X192.527 Y168.863 E2.34807
G1 X193.018 Y169.177 E2.38409
G1 X193.469 Y169.48 E2.41768
G1 X194.224 Y170.041 E2.47582
G1 X194.753 Y170.469 E2.51788
G1 X194.858 Y170.559 E2.52643
G1 X195.233 Y170.892 E2.55743
G1 X195.321 Y170.973 E2.56483
G1 X195.833 Y171.463 E2.60863
G1 X196.253 Y171.899 E2.64605
G1 X196.596 Y172.265 E2.67706
G1 X196.869 Y172.582 E2.70292
G1 X197.198 Y172.982 E2.73494
G1 X197.551 Y173.44 E2.77068
G1 X197.997 Y174.074 E2.8186
G1 X198.294 Y174.513 E2.85136
G1 X198.343 Y174.588 E2.8569
G1 X198.645 Y175.075 E2.89232
G1 X198.883 Y175.512 E2.92308
G1 X199.1 Y176.041 E2.95842
G1 X199.255 Y176.622 E2.99559
G1 X199.291 Y176.823 E3.00821
G1 X199.341 Y177.419 E3.04518
G1 X199.338 Y177.69 E3.06194
G1 X199.271 Y178.304 E3.10012
G1 X199.226 Y178.52 E3.11375
G1 X199.081 Y179.013 E3.14552
G1 X198.812 Y179.629 E3.18707
G1 X198.398 Y180.333 E3.23755
G1 X198.07 Y180.835 E3.27462
G1 X197.763 Y181.281 E3.30809
G1 X197.284 Y181.909 E3.35691
G1 X196.819 Y182.484 E3.40262
G1 X196.416 Y182.935 E3.44001
G1 X195.85 Y183.523 E3.49046
G1 X195.752 Y183.62 E3.49898
G1 X195.283 Y184.066 E3.53899
G1 X194.918 Y184.391 E3.5692
G1 X194.361 Y184.854 E3.61397
G1 X193.873 Y185.23 E3.65205
G1 X193.168 Y185.726 E3.70533
G1 X192.427 Y186.201 E3.75974
G1 X191.914 Y186.499 E3.79641
G1 X191.605 Y186.665 E3.8181
G1 X190.947 Y187 E3.86374
G1 X190.415 Y187.249 E3.90005
G1 X189.924 Y187.46 E3.93308
G1 X189.447 Y187.647 E3.96475
G1 X188.859 Y187.858 E4.00337
G1 X188.424 Y187.998 E4.03161
G1 X187.887 Y188.151 E4.06613
G1 X187.029 Y188.369 E4.12085
G1 X186.899 Y188.397 E4.12907
G1 X186.148 Y188.544 E4.17637
G1 X185.619 Y188.628 E4.20948
G1 X184.851 Y188.719 E4.25729
G1 X184.147 Y188.778 E4.30096
G1 X183.622 Y188.802 E4.33344
G1 X183.149 Y188.808 E4.36268
G1 X182.582 Y188.805 E4.39773
G1 X182.057 Y188.785 E4.43021
G1 X181.565 Y188.758 E4.46067
G1 X160.907 Y187.497 E5.74
G1 X159.151 Y187.387 E5.84876
G1 X158.54 Y187.34 E5.88664
G1 X158.172 Y187.301 E5.90951
G1 X157.6 Y187.184 E5.9456
G1 X157.21 Y187.066 E5.97079
G1 X156.657 Y186.84 E6.00771
G1 X156.071 Y186.5 E6.04959
G1 X155.499 Y186.042 E6.09489
G1 X155.288 Y185.834 E6.1132
G1 X154.915 Y185.393 E6.14891
G1 X154.578 Y184.873 E6.18721
G1 X154.472 Y184.675 E6.20109
G1 X154.24 Y184.119 E6.23833
G1 X154.063 Y183.497 E6.27831
G1 X154.011 Y183.243 E6.29433
G1 X153.947 Y182.664 E6.33034
G1 X153.923 Y181.374 E6.41009
G1 X153.924 Y173.225 E6.91382
G1 X153.934 Y172.528 E6.95691
G1 X154.012 Y171.752 E7.00512
G1 X154.187 Y171.029 E7.0511
G1 X154.456 Y170.36 E7.09567
G1 X154.79 Y169.783 E7.13688
G1 X155.187 Y169.282 E7.17639
G1 X155.362 Y169.112 E7.19147
G0 F1620 X155.686 Y168.799
M204 S500
G0 F3600 X156.005 Y169.148
M204 S550
G1 F1800 X156.413 Y168.841 E7.22304
G1 X156.924 Y168.554 E7.25926
G1 X157.503 Y168.329 E7.29766
G1 X158.102 Y168.184 E7.33576
G1 X158.38 Y168.149 E7.35308
G1 X159.422 Y168.069 E7.41768
G1 X181.533 Y166.717 E8.787
G1 X182.363 Y166.678 E8.83836
G1 X182.997 Y166.664 E8.87756
G1 X183.139 Y166.664 E8.88634
G1 X183.963 Y166.689 E8.9373
G1 X184.282 Y166.708 E8.95705
G1 X185.126 Y166.786 E9.00944
G1 X185.357 Y166.815 E9.02383
G1 X185.944 Y166.903 E9.06052
G1 X186.448 Y166.993 E9.09217
G1 X186.574 Y167.019 E9.10012
G1 X187.282 Y167.181 E9.14502
G1 X187.89 Y167.339 E9.18385
G1 X188.219 Y167.435 E9.20504
G1 X188.889 Y167.657 E9.24867
G1 X189.63 Y167.932 E9.29752
G1 X190.243 Y168.192 E9.33868
G1 X190.704 Y168.408 E9.37015
G1 X191.162 Y168.637 E9.4018
G1 X191.839 Y169.004 E9.4494
G1 X192.275 Y169.262 E9.48072
G1 X192.762 Y169.573 E9.51644
G1 X193.205 Y169.871 E9.54944
G1 X193.937 Y170.416 E9.60585
G1 X194.455 Y170.836 E9.64708
G1 X194.545 Y170.912 E9.65436
G1 X194.92 Y171.245 E9.68536
G1 X195.506 Y171.804 E9.73542
G1 X195.911 Y172.224 E9.77148
G1 X196.462 Y172.831 E9.82216
G1 X196.893 Y173.357 E9.86419
G1 X197.218 Y173.783 E9.89731
G1 X197.61 Y174.345 E9.93967
G1 X197.9 Y174.773 E9.97163
G1 X198.243 Y175.324 E10.01175
G1 X198.65 Y176.181 E10.07039
G1 X198.791 Y176.706 E10.10399
G1 X198.827 Y176.907 E10.11662
G1 X198.869 Y177.414 E10.14806
G1 X198.866 Y177.685 E10.16482
G1 X198.809 Y178.207 E10.19727
G1 X198.64 Y178.843 E10.23795
G1 X198.399 Y179.401 E10.27552
G1 X197.995 Y180.086 E10.32468
G1 X197.703 Y180.534 E10.35774
G1 X197.386 Y180.997 E10.39242
G1 X196.91 Y181.621 E10.44094
G1 X196.453 Y182.186 E10.48586
G1 X196.076 Y182.608 E10.52083
G1 X195.51 Y183.196 E10.57128
G1 X195.427 Y183.279 E10.57854
G1 X194.968 Y183.715 E10.61767
G1 X194.616 Y184.028 E10.64679
G1 X194.067 Y184.484 E10.6909
G1 X193.587 Y184.854 E10.72837
G1 X192.903 Y185.336 E10.78009
G1 X192.173 Y185.803 E10.83366
G1 X191.682 Y186.087 E10.86872
G1 X191.391 Y186.244 E10.88916
G1 X190.733 Y186.579 E10.9348
G1 X190.216 Y186.821 E10.97009
G1 X189.75 Y187.021 E11.00143
G1 X189.288 Y187.203 E11.03213
G1 X188.609 Y187.445 E11.07668
G1 X188.294 Y187.544 E11.09709
G1 X187.765 Y187.695 E11.1311
G1 X186.919 Y187.91 E11.18506
G1 X186.808 Y187.934 E11.19208
G1 X186.069 Y188.078 E11.23862
G1 X185.549 Y188.161 E11.27117
G1 X184.801 Y188.25 E11.31773
G1 X184.108 Y188.308 E11.36072
G1 X183.604 Y188.33 E11.3919
G1 X183.152 Y188.336 E11.41984
G1 X182.488 Y188.331 E11.46089
G1 X181.61 Y188.288 E11.51523
G1 X160.936 Y187.026 E12.79555
G1 X159.187 Y186.916 E12.90387
G1 X158.487 Y186.861 E12.94728
G1 X157.737 Y186.732 E12.99432
G1 X157.347 Y186.614 E13.0195
G1 X156.876 Y186.422 E13.05095
G1 X156.344 Y186.115 E13.08891
G1 X155.83 Y185.706 E13.12952
G1 X155.302 Y185.123 E13.17814
G1 X154.995 Y184.65 E13.21299
G1 X154.889 Y184.452 E13.22688
G1 X154.69 Y183.978 E13.25865
G1 X154.525 Y183.402 E13.29569
G1 X154.418 Y182.656 E13.34228
G1 X154.395 Y181.374 E13.42153
G1 X154.396 Y173.232 E13.92482
G1 X154.406 Y172.535 E13.96791
G1 X154.475 Y171.845 E14.01078
G1 X154.633 Y171.183 E14.05285
G1 X154.874 Y170.579 E14.09304
G1 X155.175 Y170.056 E14.13034
G1 X155.528 Y169.609 E14.16555
G1 X155.681 Y169.461 E14.17871
G0 F1620 X156.005 Y169.148
M204 S500
G0 F3600 X156.011 Y169.788
M204 S550
G1 F1800 X156.66 Y169.243 E14.2311
G1 X157.116 Y168.985 E14.26348
G1 X157.629 Y168.784 E14.29754
G1 X158.173 Y168.65 E14.33217
G1 X158.416 Y168.62 E14.34731
G1 X159.451 Y168.54 E14.41148
G1 X181.556 Y167.189 E15.78042
G1 X182.374 Y167.15 E15.83104
G1 X183.008 Y167.136 E15.87024
G1 X183.125 Y167.136 E15.87748
G1 X184.011 Y167.164 E15.93227
G1 X184.239 Y167.178 E15.94639
G1 X185.07 Y167.255 E15.99798
G1 X185.288 Y167.282 E16.01156
G1 X185.861 Y167.368 E16.04737
G1 X186.365 Y167.458 E16.07902
G1 X186.469 Y167.479 E16.08558
G1 X187.164 Y167.638 E16.12965
G1 X187.761 Y167.793 E16.16778
G1 X188.07 Y167.883 E16.18767
G1 X188.74 Y168.105 E16.2313
G1 X189.465 Y168.374 E16.2791
G1 X190.053 Y168.624 E16.31859
G1 X190.493 Y168.83 E16.34863
G1 X190.943 Y169.055 E16.37973
G1 X191.608 Y169.416 E16.4265
G1 X192.226 Y169.789 E16.47112
G1 X192.94 Y170.263 E16.52409
G1 X193.651 Y170.791 E16.57884
G1 X194.157 Y171.202 E16.61913
G1 X194.232 Y171.265 E16.62519
G1 X194.607 Y171.598 E16.65619
G1 X195.18 Y172.145 E16.70515
G1 X195.569 Y172.55 E16.73987
G1 X196.105 Y173.14 E16.78914
G1 X196.469 Y173.582 E16.82453
G1 X196.836 Y174.06 E16.86179
G1 X197.223 Y174.615 E16.90361
G1 X197.506 Y175.033 E16.93481
G1 X197.842 Y175.573 E16.97413
G1 X198.199 Y176.321 E17.02536
G1 X198.362 Y176.99 E17.06792
G1 X198.394 Y177.68 E17.11062
G1 X198.302 Y178.327 E17.15102
G1 X198.115 Y178.895 E17.18798
G1 X197.864 Y179.394 E17.22251
G1 X197.593 Y179.839 E17.25471
G1 X197.289 Y180.305 E17.28911
G1 X196.799 Y180.992 E17.34127
G1 X196.336 Y181.583 E17.38768
G1 X195.788 Y182.225 E17.43985
G1 X195.17 Y182.869 E17.49502
G1 X194.7 Y183.319 E17.53525
G1 X194.314 Y183.665 E17.56729
G1 X193.773 Y184.115 E17.61079
G1 X193.302 Y184.478 E17.64754
G1 X192.638 Y184.945 E17.69772
G1 X191.919 Y185.405 E17.75049
G1 X191.451 Y185.676 E17.78391
G1 X191.176 Y185.824 E17.80322
G1 X190.518 Y186.159 E17.84886
G1 X190.017 Y186.393 E17.88304
G1 X189.198 Y186.732 E17.93783
G1 X189.128 Y186.759 E17.94247
G1 X188.54 Y186.97 E17.98109
G1 X188.164 Y187.09 E18.00548
G1 X187.643 Y187.239 E18.03898
G1 X186.808 Y187.451 E18.09223
G1 X186.717 Y187.471 E18.09799
G1 X185.991 Y187.613 E18.14372
G1 X185.48 Y187.695 E18.17571
G1 X184.751 Y187.781 E18.22108
G1 X184.069 Y187.837 E18.26338
G1 X183.526 Y187.86 E18.29698
G1 X183.154 Y187.864 E18.31997
G1 X182.508 Y187.859 E18.35991
G1 X181.636 Y187.817 E18.41387
G1 X171.585 Y187.202 E19.03632
G1 X160.961 Y186.555 E19.69425
G1 X159.224 Y186.445 E19.80184
G1 X158.539 Y186.392 E19.84431
G1 X157.873 Y186.28 E19.88605
G1 X157.095 Y186.003 E19.9371
G1 X156.618 Y185.73 E19.97108
G1 X156.161 Y185.369 E20.00707
G1 X155.689 Y184.852 E20.05035
G1 X155.411 Y184.427 E20.08174
G1 X155.141 Y183.838 E20.12179
G1 X154.987 Y183.307 E20.15597
G1 X154.89 Y182.647 E20.1972
G1 X154.867 Y181.374 E20.2759
G1 X154.868 Y173.239 E20.77876
G1 X154.878 Y172.542 E20.82185
G1 X154.937 Y171.938 E20.85936
G1 X155.079 Y171.338 E20.89748
G1 X155.292 Y170.798 E20.93336
G1 X155.56 Y170.329 E20.96675
G1 X155.723 Y170.134 E20.98246
G0 F1620 X156.011 Y169.788
M204 S500
G1 F2400 E19.78246
@Object 3DBenchy.stl
G0 F3600 X174.749 Y175.166
G0 X175.855 Y176.611
G0 X176.083 Y178.558
G0 X176.102 Y178.656
M204 S550
;TYPE:WALL-INNER
G1 F2400 E21.00325
G1 F900 X176.037 Y178.669 E21.00734
G1 X175.84 Y178.675 E21.01953
G1 X175.833 Y178.37 E21.03144
G1 X175.833 Y178.303 E21.03559
G1 X175.835 Y176.677 E21.1361
G1 X175.835 Y176.611 E21.14018
G1 X175.833 Y176.262 E21.16175
G1 X175.863 Y176.264
G1 X175.928 Y176.269 E21.16539
G1 X176.464 Y176.314 E21.19864
G1 X176.622 Y176.382 E21.20927
G1 X176.766 Y176.587 E21.22476
G1 X176.897 Y177.132 E21.25941
G1 X176.852 Y178.029 E21.31492
G1 X176.684 Y178.444 E21.3426
G1 X176.557 Y178.565 E21.35344
G1 X176.316 Y178.614 E21.36864
G0 F1620 X176.102 Y178.656
M204 S500
G0 F3600 X176.426 Y179.104
M204 S550
;TYPE:WALL-OUTER
G1 F1800 X176.07 Y179.14 E21.39076
G1 X175.698 Y179.153 E21.41377
G1 X175.548 Y179.157 E21.42304
G1 X175.376 Y179.12 E21.43392
G1 X175.374 Y178.97 E21.44319
G1 X175.364 Y178.47 E21.47411
G1 X175.361 Y178.369 E21.48035
G1 X175.363 Y176.612 E21.58896
G1 X175.359 Y176.026 E21.62518
G1 X175.359 Y175.842 E21.63656
G1 X175.452 Y175.787 E21.64324
G1 X175.636 Y175.788 E21.65461
G1 X176.07 Y175.792 E21.68144
G1 X176.588 Y175.853 E21.71368
G1 X176.931 Y176.002 E21.73679
G1 X177.204 Y176.391 E21.76617
G1 X177.368 Y177.07 E21.80935
G1 X177.381 Y177.59 E21.8415
G1 X177.314 Y178.146 E21.87612
G1 X177.083 Y178.715 E21.91408
G1 X176.843 Y178.945 E21.93463
G0 F1620 X176.805 Y178.981
G0 X176.426 Y179.104
M204 S500
G0 F3600 X176.227 Y179.124
G0 X176.176 Y178.607
G0 X176.321 Y178.037
M204 S550
;TYPE:SKIN
G1 F900 X176.323 Y176.829 E22.01768
G1 X176.405 Y177.174 E22.04207
G1 X176.368 Y177.921 E22.09349
G1 X176.354 Y177.954 E22.09595
G0 F1620 X176.321 Y178.037
M204 S500
G0 F3600 X176.368 Y178.277
M204 S550
;TYPE:SKIN
G1 F1800 X176.116 Y178.344 E22.11386
M204 S500
G0 F3600 X176.013 Y178.24
G0 X176.11 Y176.746
G0 X176.062 Y176.698
M204 S550
G1 F1800 X176.272 Y176.591 E22.12805
M204 S500
G0 F3600 X176.315 Y176.774
G1 F2400 E20.92805
G0 F3600 X173.642 Y176.818
G0 X173.417 Y176.814
M204 S550
;TYPE:WALL-INNER
G1 F2400 E22.14883
G1 F1800 X173.417 Y177.557 E22.19476
G1 X173.417 Y178.216 E22.2355
G1 X173.417 Y178.802 E22.27172
G1 X173.364 Y178.216 E22.27385
G1 X173.176 Y177.557 E22.2879
G1 X172.858 Y176.965 E22.32944
G1 X172.903 Y176.926 E22.33313
G1 X172.994 Y176.666 E22.35015
G1 X173.117 Y176.319 E22.37291
G1 X173.133 Y176.273 E22.37592
G1 X173.18 Y175.611 E22.41694
G1 X173.177 Y175.592 E22.41813
G1 X173.075 Y174.975 E22.45679
G1 X173.064 Y174.956 E22.45815
G1 X173.02 Y174.883 E22.46342
G1 X172.736 Y174.407 E22.49768
G1 X172.187 Y173.97 E22.54105
G1 X171.493 Y173.727 E22.58651
G1 X170.79 Y173.661 E22.63015
G1 X170.182 Y173.705 E22.66783
G1 X169.591 Y173.861 E22.70562
G1 X168.979 Y174.21 E22.74917
G1 X168.845 Y174.376 E22.76235
G1 X168.742 Y174.503 E22.77246
G1 X168.674 Y174.334 E22.77622
G1 X168.616 Y174.191 E22.78155
G1 X168.082 Y173.867 E22.82016
G1 X167.443 Y173.838 E22.8597
G1 X165.793 Y173.84 E22.96169
G1 X164.988 Y173.838 E23.01145
G1 X164.447 Y173.846 E23.0449
G1 X163.774 Y173.801 E23.08659
G1 X163.159 Y174.007 E23.12668
G1 X162.772 Y174.522 E23.1665
G1 X162.756 Y174.625 E23.17295
G1 X162.713 Y174.57
G1 X162.532 Y174.34 E23.18997
G1 X161.959 Y173.949 E23.23285
G1 X161.318 Y173.729 E23.27474
G1 X160.608 Y173.663 E23.31881
G1 X159.95 Y173.719 E23.35963
G1 X159.365 Y173.887 E23.39726
G1 X158.738 Y174.227 E23.44135
G1 X158.276 Y174.639 E23.47961
G1 X158.245 Y174.667 E23.48219
G1 X157.893 Y175.145 E23.51889
G1 X157.812 Y175.316 E23.53058
G1 X157.812 Y175.145 E23.53124
G1 X157.812 Y174.667 E23.54649
G1 X157.812 Y174.625 E23.54899
G1 X157.812 Y172.642 E23.67157
G1 X157.88 Y172.218 E23.69811
G1 X158.059 Y171.892 E23.7211
G1 X158.3 Y171.682 E23.74086
G1 X158.815 Y171.528 E23.77409
G1 X182.312 Y170.092 E25.22924
G1 X183.055 Y170.073 E25.27518
G1 X183.927 Y170.1 E25.32911
G1 X184.754 Y170.175 E25.38044
G1 X185.56 Y170.296 E25.43082
G1 X186.231 Y170.432 E25.47314
G1 X187.017 Y170.636 E25.52334
G1 X187.507 Y170.786 E25.55501
G1 X187.961 Y170.947 E25.58479
G1 X188.563 Y171.181 E25.62471
G1 X189.099 Y171.419 E25.66096
G1 X189.745 Y171.742 E25.70561
G1 X190.193 Y171.991 E25.73729
G1 X190.666 Y172.278 E25.77149
G1 X191.126 Y172.58 E25.80551
G1 X191.675 Y172.976 E25.84735
G1 X192.302 Y173.482 E25.89715
G1 X192.923 Y174.045 E25.94897
G1 X193.349 Y174.476 E25.98643
