;FLAVOR:Marlin
;TIME:4143
;Filament used: 4.6872m
;Layer height: 0.2
;MINX:62.022
;MINY:145.752
;MINZ:0.3
;MAXX:208.082
;MAXY:282.066
;MAXZ:11.003
;LINEARADVANCEPROCESSED
;Generated with Cura_SteamEngine 4.10.0
M140 S80
M105
M190 S80
M104 S260
M105
M109 S260
M82 ;absolute extrusion mode
; Script based on an original created by tjjfvi (https://github.com/tjjfvi)
; An up-to-date version of the tjjfvi's original script can be found
; here:  https://csi.t6.fyi/
; Note - This script will only work in Cura V4.2 and above!
; --- Global Settings
; layer_height = 0.2
; smooth_spiralized_contours = True
; magic_mesh_surface_mode = normal
; machine_extruder_count = 1
; --- Single Extruder Settings
; speed_z_hop = 10
; retraction_amount = 1
; retraction_hop = 1
; retraction_hop_enabled = False
; retraction_enable = True
; retraction_speed = 40.0
; retraction_retract_speed = 40.0
; retraction_prime_speed = 40.0
; speed_travel = 120

M201 X500.00 Y500.00 Z100.00 E5000.00 ;Setup machine max acceleration
M203 X500.00 Y500.00 Z10.00 E50.00 ;Setup machine max feedrate
M204 P500.00 R1000.00 T500.00 ;Setup Print/Retract/Travel acceleration
M205 X8.00 Y8.00 Z0.40 E5.00 ;Setup Jerk
M220 S100 ;Reset Feedrate
M221 S100 ;Reset Flowrate

G28 ;Home
G29 ;Automatic Leveling

G92 E0 ;Reset Extruder
G1 Z2.0 F3000 ;Move Z Axis up
G1 X10.1 Y20 Z0.28 F5000.0 ;Move to start position
G1 X10.1 Y200.0 Z0.28 F1500.0 E15 ;Draw the first line
G1 X10.4 Y200.0 Z0.28 F5000.0 ;Move to side a little
G1 X10.4 Y20 Z0.28 F1500.0 E30 ;Draw the second line
G92 E0 ;Reset Extruder
G1 Z2.0 F3000 ;Move Z Axis up
G92 E0
G92 E0
G1 F2400 E-1
;LAYER_COUNT:30
M900 K0.000000 T0 ;added by LinearAdvanceSettingPlugin
;LAYER:0
M117 INDICATOR-Layer0
M107
M204 S500
M205 X15 Y15
G0 F3600 X66.258 Y250.809 Z0.3
M204 S650
;TYPE:SKIRT
G1 F2400 E0.02079
G1 F1800 X66.758 Y250.716 E0.05222
G1 X67.347 Y250.671 E0.08874
G1 X67.794 Y250.666 E0.11637
G1 X202.844 Y250.666 E8.46435
G1 X203.495 Y250.675 E8.50459
G1 X204.05 Y250.728 E8.53905
G1 X204.546 Y250.83 E8.57036
G1 X205.243 Y251.066 E8.61584
G1 X205.837 Y251.366 E8.65698
G1 X206.305 Y251.701 E8.69255
G1 X206.599 Y251.957 E8.71665
G1 X206.967 Y252.347 E8.7498
G1 X207.298 Y252.796 E8.78428
G1 X207.639 Y253.391 E8.82667
G1 X207.855 Y253.959 E8.86423
G1 X208.011 Y254.591 E8.90447
G1 X208.075 Y255.395 E8.95433
G1 X208.082 Y265.595 E9.58483
G1 X208.07 Y266.365 E9.63243
G1 X208.032 Y266.98 E9.67052
G1 X207.983 Y267.519 E9.70398
G1 X207.961 Y267.693 E9.71482
G1 X207.797 Y268.722 E9.77923
G1 X207.714 Y269.126 E9.80472
G1 X207.453 Y270.128 E9.86872
G1 X207.314 Y270.58 E9.89796
G1 X206.98 Y271.488 E9.95776
G1 X206.771 Y271.988 E9.99126
G1 X206.339 Y272.883 E10.05269
G1 X206.101 Y273.328 E10.08388
G1 X205.59 Y274.169 E10.14471
G1 X205.298 Y274.608 E10.1773
G1 X204.753 Y275.341 E10.23377
G1 X204.357 Y275.834 E10.27285
G1 X203.821 Y276.431 E10.32245
G1 X203.437 Y276.834 E10.35686
G1 X203.326 Y276.944 E10.36652
G1 X202.703 Y277.523 E10.41909
G1 X202.3 Y277.875 E10.45217
G1 X202.181 Y277.973 E10.46169
G1 X201.533 Y278.475 E10.51236
G1 X201.073 Y278.81 E10.54754
G1 X200.947 Y278.896 E10.55697
G1 X200.285 Y279.322 E10.60563
G1 X199.779 Y279.627 E10.64215
G1 X199.645 Y279.703 E10.65167
G1 X198.961 Y280.063 E10.69945
G1 X198.355 Y280.36 E10.74117
G1 X198.22 Y280.421 E10.75033
G1 X197.605 Y280.681 E10.7916
G1 X196.948 Y280.938 E10.83521
G1 X196.804 Y280.99 E10.84467
G1 X196.118 Y281.213 E10.88926
G1 X195.433 Y281.415 E10.93341
G1 X195.241 Y281.465 E10.94567
G1 X194.62 Y281.611 E10.9851
G1 X193.938 Y281.753 E11.02816
G1 X193.751 Y281.786 E11.0399
G1 X193.13 Y281.88 E11.07873
G1 X192.416 Y281.97 E11.12321
G1 X192.164 Y281.994 E11.13886
G1 X191.528 Y282.036 E11.17826
G1 X190.856 Y282.064 E11.21983
G1 X190.712 Y282.066 E11.22873
G1 X190.026 Y282.057 E11.27114
G1 X189.304 Y282.029 E11.31581
G1 X189.161 Y282.02 E11.32466
G1 X188.477 Y281.956 E11.36713
G1 X187.78 Y281.872 E11.41052
G1 X187.639 Y281.851 E11.41934
G1 X186.934 Y281.727 E11.46358
G1 X186.185 Y281.572 E11.51086
G1 X186.052 Y281.54 E11.51932
G1 X185.435 Y281.378 E11.55875
G1 X184.849 Y281.207 E11.59648
G1 X184.165 Y280.984 E11.64096
G1 X184.01 Y280.927 E11.65116
G1 X182.807 Y280.45 E11.73116
G1 X180.161 Y279.339 E11.90855
G1 X177.558 Y278.29 E12.08203
G1 X174.787 Y277.267 E12.26461
G1 X173.895 Y276.953 E12.32307
G1 X171.262 Y276.068 E12.49477
G1 X168.414 Y275.203 E12.67876
G1 X167.395 Y274.91 E12.7443
G1 X164.724 Y274.183 E12.91541
G1 X162.033 Y273.534 E13.08652
G1 X160.911 Y273.279 E13.15765
G1 X158.222 Y272.709 E13.32756
G1 X155.428 Y272.201 E13.5031
G1 X154.286 Y272.01 E13.57467
G1 X151.562 Y271.595 E13.74499
G1 X148.628 Y271.235 E13.92771
G1 X147.53 Y271.116 E13.99598
G1 X144.759 Y270.858 E14.16801
G1 X142.029 Y270.679 E14.33713
G1 X140.853 Y270.619 E14.40991
G1 X138.074 Y270.516 E14.58181
G1 X135.802 Y270.49 E14.72226
G1 X134.971 Y270.49 E14.77363
G1 X132.172 Y270.53 E14.94667
G1 X129.919 Y270.619 E15.08604
G1 X128.737 Y270.679 E15.1592
G1 X125.958 Y270.861 E15.33135
G1 X123.231 Y271.117 E15.50066
G1 X122.135 Y271.235 E15.5688
G1 X119.36 Y271.573 E15.7416
G1 X116.494 Y272.008 E15.92078
G1 X115.332 Y272.202 E15.99361
G1 X112.629 Y272.692 E16.16341
G1 X109.853 Y273.279 E16.3388
G1 X108.744 Y273.53 E16.40909
G1 X106.067 Y274.177 E16.57933
G1 X103.333 Y274.921 E16.75447
G1 X102.387 Y275.192 E16.8153
G1 X99.725 Y275.997 E16.98721
G1 X96.849 Y276.961 E17.17471
G1 X95.99 Y277.263 E17.23099
G1 X93.375 Y278.226 E17.40325
G1 X90.648 Y279.321 E17.5849
G1 X87.659 Y280.575 E17.78526
G1 X87.204 Y280.757 E17.81555
G1 X86.256 Y281.101 E17.87789
G1 X86.098 Y281.151 E17.88813
G1 X85.233 Y281.403 E17.94383
G1 X84.671 Y281.55 E17.97973
G1 X84.411 Y281.61 E17.99623
G1 X83.856 Y281.723 E18.03124
G1 X83.063 Y281.86 E18.08098
G1 X82.924 Y281.88 E18.08966
G1 X82.288 Y281.955 E18.12925
G1 X81.528 Y282.025 E18.17643
G1 X81.381 Y282.034 E18.18553
G1 X80.72 Y282.058 E18.22642
G1 X80.023 Y282.065 E18.2695
G1 X79.884 Y282.063 E18.2781
G1 X79.256 Y282.037 E18.31695
G1 X78.478 Y281.982 E18.36516
G1 X78.259 Y281.96 E18.37877
G1 X77.632 Y281.879 E18.41785
G1 X76.86 Y281.76 E18.46613
G1 X76.721 Y281.734 E18.47487
G1 X76.109 Y281.604 E18.51354
G1 X75.379 Y281.428 E18.55996
G1 X75.24 Y281.39 E18.56887
G1 X74.591 Y281.195 E18.61076
G1 X73.941 Y280.982 E18.65304
G1 X73.793 Y280.929 E18.66276
G1 X73.112 Y280.66 E18.70802
G1 X72.486 Y280.394 E18.75006
G1 X72.352 Y280.333 E18.75916
G1 X71.741 Y280.032 E18.80126
G1 X71.17 Y279.732 E18.84114
G1 X71.026 Y279.651 E18.85135
G1 X70.377 Y279.256 E18.89831
G1 X69.851 Y278.918 E18.93696
G1 X69.722 Y278.83 E18.94661
G1 X69.13 Y278.398 E18.99191
G1 X68.658 Y278.033 E19.0288
G1 X68.536 Y277.933 E19.03855
G1 X67.918 Y277.393 E19.08928
G1 X67.54 Y277.044 E19.12108
G1 X67.422 Y276.928 E19.13131
G1 X66.908 Y276.392 E19.17721
G1 X66.504 Y275.945 E19.21446
G1 X66.4 Y275.823 E19.22437
G1 X65.87 Y275.158 E19.27693
G1 X65.528 Y274.694 E19.31256
G1 X65.025 Y273.93 E19.3691
G1 X64.723 Y273.429 E19.40526
G1 X64.291 Y272.614 E19.46228
G1 X64.043 Y272.098 E19.49767
G1 X63.7 Y271.268 E19.55318
G1 X63.508 Y270.745 E19.58762
G1 X63.202 Y269.736 E19.6528
G1 X63.106 Y269.355 E19.67708
G1 X62.897 Y268.317 E19.74254
G1 X62.831 Y267.891 E19.76918
G1 X62.731 Y266.888 E19.83149
G1 X62.696 Y266.355 E19.86451
G1 X62.685 Y265.744 E19.90228
G1 X62.692 Y255.802 E20.51684
G1 X62.702 Y255.12 E20.559
G1 X62.76 Y254.564 E20.59355
G1 X62.986 Y253.755 E20.64547
G1 X63.184 Y253.281 E20.67723
G1 X63.509 Y252.721 E20.71725
G1 X63.937 Y252.184 E20.7597
G1 X64.373 Y251.774 E20.79669
G1 X64.811 Y251.453 E20.83026
G1 X65.05 Y251.302 E20.84774
G1 X65.533 Y251.06 E20.88113
G1 X65.832 Y250.956 E20.9007
G0 F1620 X66.258 Y250.809
M204 S500
G0 F3600 X66.367 Y251.268
M204 S650
G1 F1800 X67.1 Y251.153 E20.94656
G1 X67.799 Y251.138 E20.98978
G1 X202.838 Y251.138 E29.33708
G1 X203.489 Y251.147 E29.37732
G1 X203.991 Y251.196 E29.4085
G1 X204.618 Y251.341 E29.44828
G1 X205.291 Y251.605 E29.49297
G1 X205.736 Y251.862 E29.52473
G1 X206.289 Y252.313 E29.56884
G1 X206.78 Y252.878 E29.61511
G1 X207.208 Y253.582 E29.66604
G1 X207.399 Y254.08 E29.69901
G1 X207.545 Y254.668 E29.73646
G1 X207.603 Y255.409 E29.7824
G1 X207.61 Y265.589 E30.41167
G1 X207.598 Y266.348 E30.45859
G1 X207.561 Y266.948 E30.49575
G1 X207.513 Y267.476 E30.52852
G1 X207.495 Y267.619 E30.53743
G1 X207.346 Y268.562 E30.59645
G1 X207.257 Y269.007 E30.6245
G1 X206.974 Y270.088 E30.69357
G1 X206.871 Y270.417 E30.71488
G1 X206.537 Y271.325 E30.77468
G1 X206.346 Y271.783 E30.80536
G1 X205.952 Y272.602 E30.86154
G1 X205.697 Y273.083 E30.89519
G1 X205.195 Y273.911 E30.95504
G1 X204.919 Y274.326 E30.98585
G1 X204.332 Y275.115 E31.04664
G1 X204.006 Y275.519 E31.07873
G1 X203.47 Y276.116 E31.12832
G1 X203.096 Y276.508 E31.16181
G1 X203.004 Y276.599 E31.16981
G1 X202.393 Y277.167 E31.22138
G1 X201.99 Y277.519 E31.25446
G1 X201.892 Y277.6 E31.26231
G1 X201.312 Y278.051 E31.30773
G1 X200.795 Y278.428 E31.34728
G1 X200.691 Y278.5 E31.3551
G1 X200.041 Y278.918 E31.40287
G1 X199.535 Y279.223 E31.43939
G1 X199.425 Y279.285 E31.4472
G1 X198.753 Y279.639 E31.49415
G1 X198.147 Y279.936 E31.53586
G1 X198.036 Y279.987 E31.54341
G1 X197.433 Y280.241 E31.58386
G1 X196.776 Y280.498 E31.62747
G1 X196.657 Y280.541 E31.63529
G1 X195.983 Y280.761 E31.67912
G1 X195.311 Y280.959 E31.72242
G1 X195.133 Y281.006 E31.7338
G1 X194.523 Y281.149 E31.77253
G1 X193.854 Y281.289 E31.81478
G1 X193.68 Y281.32 E31.8257
G1 X193.071 Y281.411 E31.86377
G1 X192.292 Y281.509 E31.9123
G1 X192.133 Y281.523 E31.92217
G1 X191.508 Y281.564 E31.96088
G1 X190.836 Y281.592 E32.00246
G1 X190.717 Y281.594 E32.00981
G1 X190.044 Y281.585 E32.05142
G1 X189.322 Y281.557 E32.09608
G1 X189.204 Y281.55 E32.10339
G1 X188.533 Y281.487 E32.14505
G1 X187.836 Y281.403 E32.18844
G1 X187.72 Y281.386 E32.19569
G1 X187.094 Y281.277 E32.23497
G1 X186.293 Y281.113 E32.28551
G1 X186.171 Y281.083 E32.29327
G1 X185.568 Y280.924 E32.33182
G1 X184.917 Y280.733 E32.37376
G1 X184.325 Y280.54 E32.41225
G1 X184.184 Y280.488 E32.42154
G1 X182.989 Y280.015 E32.50098
G1 X180.307 Y278.889 E32.68079
G1 X177.758 Y277.862 E32.85066
G1 X174.91 Y276.809 E33.03835
G1 X174.066 Y276.513 E33.09364
G1 X171.39 Y275.614 E33.26814
G1 X168.544 Y274.749 E33.45201
G1 X167.525 Y274.456 E33.51755
G1 X164.885 Y273.737 E33.68668
G1 X162.109 Y273.067 E33.8632
G1 X161.015 Y272.818 E33.93256
G1 X158.333 Y272.25 E34.10202
G1 X155.48 Y271.731 E34.28127
G1 X154.369 Y271.545 E34.3509
G1 X151.624 Y271.127 E34.52253
G1 X148.707 Y270.769 E34.7042
G1 X147.556 Y270.645 E34.77576
G1 X144.798 Y270.387 E34.94698
G1 X142.087 Y270.21 E35.11492
G1 X140.839 Y270.146 E35.19216
G1 X138.097 Y270.044 E35.36178
G1 X135.808 Y270.018 E35.50328
G1 X134.965 Y270.018 E35.55539
G1 X132.147 Y270.058 E35.7296
G1 X129.927 Y270.146 E35.86693
G1 X128.679 Y270.21 E35.94418
G1 X125.919 Y270.391 E36.11515
G1 X123.204 Y270.645 E36.28371
G1 X122.078 Y270.767 E36.35372
G1 X119.299 Y271.105 E36.52676
G1 X116.383 Y271.548 E36.70908
G1 X115.285 Y271.731 E36.77789
G1 X112.546 Y272.228 E36.94996
G1 X109.733 Y272.823 E37.12769
G1 X108.628 Y273.073 E37.19772
G1 X105.972 Y273.714 E37.36661
G1 X103.209 Y274.465 E37.5436
G1 X102.251 Y274.74 E37.60521
G1 X99.568 Y275.552 E37.77849
G1 X96.714 Y276.508 E37.96454
G1 X95.827 Y276.82 E38.02266
G1 X93.206 Y277.786 E38.19533
G1 X90.484 Y278.878 E38.37662
G1 X87.482 Y280.138 E38.57787
G1 X87.043 Y280.313 E38.60708
G1 X86.108 Y280.652 E38.66856
G1 X85.965 Y280.698 E38.67784
G1 X85.114 Y280.946 E38.73264
G1 X84.479 Y281.111 E38.77319
G1 X84.317 Y281.147 E38.78345
G1 X83.694 Y281.273 E38.82274
G1 X82.983 Y281.395 E38.86733
G1 X82.868 Y281.411 E38.87451
G1 X82.245 Y281.485 E38.91329
G1 X81.485 Y281.555 E38.96047
G1 X81.364 Y281.562 E38.96796
G1 X80.715 Y281.586 E39.0081
G1 X80.018 Y281.593 E39.05119
G1 X79.904 Y281.591 E39.05824
G1 X79.208 Y281.561 E39.1013
G1 X78.446 Y281.506 E39.14853
G1 X78.319 Y281.492 E39.15642
G1 X77.703 Y281.412 E39.19482
G1 X76.944 Y281.296 E39.24228
G1 X76.819 Y281.272 E39.25015
G1 X76.22 Y281.145 E39.288
G1 X75.49 Y280.969 E39.33442
G1 X75.375 Y280.938 E39.34178
G1 X74.738 Y280.747 E39.38289
G1 X74.088 Y280.534 E39.42517
G1 X73.966 Y280.49 E39.43318
G1 X73.297 Y280.226 E39.47764
G1 X72.671 Y279.96 E39.51969
G1 X72.56 Y279.909 E39.52724
G1 X71.961 Y279.614 E39.56851
G1 X71.39 Y279.314 E39.60838
G1 X71.271 Y279.247 E39.61682
G1 X70.632 Y278.859 E39.66303
G1 X70.106 Y278.521 E39.70168
G1 X70 Y278.448 E39.70964
G1 X69.419 Y278.025 E39.75406
G1 X68.947 Y277.66 E39.79094
G1 X68.846 Y277.577 E39.79902
G1 X68.238 Y277.046 E39.84892
G1 X67.86 Y276.697 E39.88072
G1 X67.763 Y276.602 E39.88912
G1 X67.202 Y276.015 E39.93931
G1 X66.854 Y275.629 E39.97143
G1 X66.769 Y275.528 E39.97959
G1 X66.247 Y274.875 E40.03127
G1 X65.922 Y274.435 E40.06508
G1 X65.419 Y273.671 E40.12162
G1 X65.14 Y273.208 E40.15504
G1 X64.708 Y272.393 E40.21206
G1 X64.48 Y271.918 E40.24463
G1 X64.11 Y271.022 E40.30455
G1 X63.959 Y270.607 E40.33185
G1 X63.658 Y269.615 E40.39593
G1 X63.569 Y269.261 E40.41849
G1 X63.345 Y268.141 E40.48909
G1 X63.301 Y267.844 E40.50765
G1 X63.201 Y266.841 E40.56996
G1 X63.168 Y266.337 E40.60118
G1 X63.157 Y265.739 E40.63815
G1 X63.164 Y255.809 E41.25196
G1 X63.174 Y255.127 E41.29412
G1 X63.321 Y254.241 E41.34964
G1 X63.51 Y253.709 E41.38454
G1 X63.788 Y253.156 E41.4228
G1 X64.129 Y252.684 E41.45879
G1 X64.482 Y252.301 E41.49099
G1 X64.896 Y251.968 E41.52383
G1 X65.701 Y251.501 E41.58136
G1 X65.941 Y251.417 E41.59708
G0 F1620 X66.367 Y251.268
M204 S500
G1 F2400 E40.59708
@Object Spool_Holder_V2.5.stl(2)
G0 F3600 X67.311 Y254.101
G0 X101.39 Y255.613
G0 X103.479 Y255.943
G0 X105.362 Y256.904
G0 X106.858 Y258.4
G0 X107.818 Y260.283
G0 X108.21 Y262.372
G0 X108.11 Y262.372
M204 S650
;TYPE:WALL-INNER
G1 F2400 E41.61786
G1 F1800 X107.78 Y260.295 E41.74786
G1 X106.826 Y258.423 E41.87774
G1 X105.339 Y256.936 E42.00773
G1 X103.467 Y255.981 E42.13763
G1 X101.39 Y255.653 E42.26761
G1 X99.313 Y255.981 E42.39759
G1 X97.441 Y256.936 E42.52749
G1 X95.954 Y258.423 E42.65748
G1 X94.999 Y260.295 E42.78739
G1 X94.671 Y262.372 E42.91737
G1 X94.999 Y264.449 E43.04734
G1 X95.954 Y266.321 E43.17725
G1 X97.441 Y267.808 E43.30724
G1 X99.313 Y268.762 E43.43711
G1 X101.39 Y269.092 E43.56711
G1 X103.467 Y268.762 E43.69711
G1 X105.339 Y267.808 E43.82699
G1 X106.826 Y266.321 E43.95698
G1 X107.78 Y264.449 E44.08685
G1 X108.04 Y262.817 E44.189
G0 F1620 X108.11 Y262.372
M204 S500
G0 F3600 X107.632 Y262.372
M204 S650
;TYPE:WALL-OUTER
G1 F1800 X107.326 Y260.443 E44.30973
G1 X106.439 Y258.704 E44.4304
G1 X105.058 Y257.323 E44.55113
G1 X103.319 Y256.436 E44.6718
G1 X101.39 Y256.131 E44.79252
G1 X99.461 Y256.436 E44.91324
G1 X97.722 Y257.323 E45.03391
G1 X96.341 Y258.704 E45.15463
G1 X95.454 Y260.443 E45.2753
G1 X95.149 Y262.372 E45.39602
G1 X95.454 Y264.301 E45.51675
G1 X96.341 Y266.04 E45.63742
G1 X97.722 Y267.421 E45.75814
G1 X99.461 Y268.308 E45.87881
G1 X101.39 Y268.614 E45.99954
G1 X103.319 Y268.308 E46.12027
G1 X105.058 Y267.421 E46.24094
G1 X106.439 Y266.04 E46.36166
G1 X107.326 Y264.301 E46.48233
G1 X107.562 Y262.817 E46.57522
G0 F1620 X107.632 Y262.372
M204 S500
G0 F3600 X107.601 Y262.175
G0 X108.113 Y262.095
G1 F2400 E45.57522
G0 F3600 X108.166 Y262.088
G0 X117.61 Y266.849
G0 X119.39 Y267.192
G0 X119.39 Y267.092
M204 S650
;TYPE:WALL-INNER
G1 F2400 E46.59601
G1 F1800 X121.158 Y266.811 E46.70667
G1 X122.751 Y265.999 E46.81719
G1 X124.017 Y264.733 E46.92786
G1 X124.829 Y263.14 E47.03839
G1 X125.11 Y261.372 E47.14904
G1 X124.829 Y259.604 E47.2597
G1 X124.017 Y258.011 E47.37023
G1 X122.751 Y256.745 E47.4809
G1 X121.158 Y255.932 E47.59145
G1 X119.39 Y255.653 E47.70209
G1 X117.622 Y255.932 E47.81273
G1 X116.029 Y256.745 E47.92328
G1 X114.763 Y258.011 E48.03395
G1 X113.95 Y259.604 E48.14451
G1 X113.671 Y261.372 E48.25515
G1 X113.95 Y263.14 E48.36579
G1 X114.763 Y264.733 E48.47634
G1 X116.029 Y265.999 E48.58701
G1 X117.622 Y266.811 E48.69753
G1 X118.945 Y267.022 E48.78035
G0 F1620 X119.39 Y267.092
M204 S500
G0 F3600 X119.39 Y266.614
M204 S650
;TYPE:WALL-OUTER
G1 F1800 X121.01 Y266.357 E48.88174
