; generated by PrusaSlicer 2.3.3+win64 on 2021-08-14 at 03:25:06 UTC

; 

; external perimeters extrusion width = 0.45mm
; perimeters extrusion width = 0.45mm
; infill extrusion width = 0.45mm
; solid infill extrusion width = 0.45mm
; top infill extrusion width = 0.40mm
; first layer extrusion width = 0.45mm

M201 X550 Y550 Z100 E1000 ; sets maximum accelerations, mm/sec^2
M203 X300 Y300 Z5 E25 ; sets maximum feedrates, mm/sec
M204 P500 R500 T500 ; sets acceleration (P, T) and retract acceleration (R), mm/sec^2
M205 X10.00 Y10.00 Z0.40 E5.00 ; sets the jerk limits, mm/sec
M205 S0 T0 ; sets the minimum extruding and travel feed rate, mm/sec
M107
;TYPE:Custom
//M85 S180 ; For use with raspberry only, it kills the printer if it loses the USB connection and remains inactive for 3 minutes. It works in Marlin 1.1.6
M140 S75 ; set bed temp
M190 S75 ; wait for bed temp
G28 ; Home all axes
G29 ; Auto bed-level (BL-Touch) // Comment if you don't like the automatic level in each print
M104 S260 ; set extruder temp
G92 E0 ; Reset Extruder
G1 X5 Y20 Z2.0 F3000.0 ; Move to start position
M109 S260 ; wait for extruder temp
G1 X5 Y200.0 Z0.3 F1500.0 E15 ; Draw the first line
G1 X5 Y200.0 Z0.3 F5000.0 ; Move to side a little
G1 X5.4 Y20 Z0.3 F1500.0 E30 ; Draw the second line
G92 E0 ; Reset Extruder
G1 Z1.0 F3000 ; Move Z Axis up little to prevent scratching of Heat Bed
G21 ; set units to millimeters
G90 ; use absolute coordinates
M82 ; use absolute distances for extrusion
G92 E0
; Filament gcode
;LAYER_CHANGE
;Z:0.25
;HEIGHT:0.25
G1 Z0.250 F9000.000
G1 E-1.20000 F2400.000
G92 E0
G1 X146.960 Y166.135 F9000.000
G1 E1.30000 F2400.000
;TYPE:Skirt
;WIDTH:0.45
G1 F1200.000
G1 X147.892 Y165.404 E1.34880
G1 X148.849 Y164.928 E1.39285
G1 X150.440 Y164.557 E1.46013
G1 X175.070 Y163.091 E2.47658
G1 X177.458 Y163.245 E2.57517
G1 X179.887 Y163.726 E2.67717
G1 X182.239 Y164.525 E2.77948
G1 X184.492 Y165.645 E2.88315
G1 X186.558 Y167.044 E2.98592
G1 X188.427 Y168.715 E3.08922
G1 X190.008 Y170.556 E3.18918
G1 X191.394 Y172.702 E3.29441
G1 X191.837 Y174.078 E3.35400
G1 X191.942 Y174.984 E3.39157
G1 X191.703 Y176.464 E3.45332
G1 X191.365 Y177.352 E3.49246
G1 X190.381 Y178.931 E3.56910
G1 X189.236 Y180.401 E3.64586
G1 X188.191 Y181.522 E3.70900
G1 X187.008 Y182.590 E3.77465
G1 X185.540 Y183.695 E3.85033
G1 X183.977 Y184.644 E3.92569
G1 X182.003 Y185.568 E4.01546
G1 X179.651 Y186.332 E4.11734
G1 X177.157 Y186.791 E4.22181
G1 X174.753 Y186.907 E4.32096
G1 X150.249 Y185.422 E5.33227
G1 X149.138 Y185.187 E5.37904
G1 X147.970 Y184.656 E5.43192
G1 X146.945 Y183.850 E5.48563
G1 X146.242 Y182.981 E5.53166
G1 X145.922 Y182.422 E5.55819
G1 X145.566 Y181.526 E5.59792
G1 X145.332 Y180.139 E5.65588
G1 X145.343 Y169.662 E6.08748
G1 X145.562 Y168.487 E6.13670
G1 X146.117 Y167.211 E6.19404
G1 X146.923 Y166.182 E6.24787
G1 X147.233 Y166.427 F9000.000
G1 F1200.000
G1 X148.145 Y165.712 E6.29558
G1 X148.993 Y165.298 E6.33446
G1 X150.484 Y164.951 E6.39755
G1 X175.072 Y163.487 E7.41225
G1 X177.405 Y163.638 E7.50858
G1 X179.783 Y164.109 E7.60842
G1 X182.086 Y164.890 E7.70860
G1 X184.291 Y165.987 E7.81005
G1 X186.314 Y167.356 E7.91068
G1 X188.140 Y168.988 E8.01159
G1 X189.687 Y170.788 E8.10937
G1 X191.036 Y172.872 E8.21160
G1 X191.451 Y174.168 E8.26770
G1 X191.545 Y174.990 E8.30175
G1 X191.315 Y176.384 E8.35998
G1 X190.999 Y177.197 E8.39589
G1 X190.056 Y178.704 E8.46914
G1 X188.939 Y180.138 E8.54403
G1 X187.913 Y181.239 E8.60602
G1 X186.740 Y182.298 E8.67110
G1 X185.284 Y183.390 E8.74612
G1 X183.789 Y184.295 E8.81807
G1 X181.834 Y185.209 E8.90699
G1 X179.535 Y185.953 E9.00653
G1 X177.104 Y186.398 E9.10835
G1 X174.761 Y186.511 E9.20499
G1 X150.311 Y185.030 E10.21406
G1 X149.267 Y184.812 E10.25801
G1 X148.169 Y184.313 E10.30769
G1 X147.208 Y183.553 E10.35815
G1 X146.547 Y182.725 E10.40182
G1 X145.936 Y181.383 E10.46255
G1 X145.726 Y180.096 E10.51627
G1 X145.738 Y169.699 E10.94457
G1 X145.940 Y168.604 E10.99044
G1 X146.463 Y167.405 E11.04431
G1 X147.196 Y166.474 E11.09315
@Object 3DBenchy.stl id:0 copy 0
G1 E9.89315 F2400.000
G92 E0
G1 X173.534 Y173.391 F9000.000
G1 E1.30000 F2400.000
;TYPE:External perimeter
G1 F1200.000
G1 X174.085 Y173.150 E1.32474
G1 X174.464 Y173.235 E1.34075
G1 X174.768 Y173.529 E1.35821
G1 X175.067 Y174.149 E1.38654
G1 X175.183 Y174.289 E1.39405
G1 X175.303 Y174.133 E1.40218
G1 X175.501 Y173.643 E1.42394
G1 X175.895 Y173.238 E1.44723
G1 X176.437 Y173.172 E1.46972
G1 X176.887 Y173.584 E1.49485
G1 X176.969 Y173.931 E1.50957
G1 X176.884 Y174.278 E1.52429
G1 X176.198 Y175.439 E1.57984
G1 X176.115 Y175.703 E1.59119
G1 X176.163 Y175.906 E1.59981
G1 X176.986 Y177.350 E1.66828
G1 X176.996 Y177.911 E1.69137
G1 X176.637 Y178.336 E1.71429
G1 X176.187 Y178.433 E1.73325
G1 X175.722 Y178.252 E1.75384
G1 X175.265 Y177.366 E1.79489
G1 X175.119 Y177.188 E1.80441
G1 X174.452 Y178.269 E1.85675
G1 X173.969 Y178.411 E1.87751
G1 X173.417 Y178.057 E1.90451
G1 X173.364 Y177.684 E1.92004
G1 X173.464 Y177.165 E1.94182
G1 X174.239 Y175.788 E2.00691
G1 X173.496 Y174.447 E2.07007
G1 X173.348 Y174.010 E2.08908
G1 X173.362 Y173.692 E2.10219
G1 X173.505 Y173.443 E2.11400
G1 X173.464 Y172.998 F9000.000
G1 E0.91400 F2400.000
G92 E0
G1 X172.379 Y178.542 F9000.000
G1 E1.30000 F2400.000
G1 F1200.000
G1 X171.805 Y178.693 E1.32448
G1 X171.334 Y178.620 E1.34409
G1 X170.923 Y178.385 E1.36362
G1 X170.636 Y178.009 E1.38309
G1 X170.518 Y177.563 E1.40211
G1 X170.585 Y177.033 E1.42411
G1 X170.828 Y176.575 E1.44545
G1 X171.225 Y176.207 E1.46777
G1 X171.729 Y176.054 E1.48946
G1 X172.142 Y176.094 E1.50655
G1 X172.565 Y176.305 E1.52600
G1 X172.875 Y176.664 E1.54556
G1 X173.020 Y177.111 E1.56493
G1 X172.939 Y177.822 E1.59441
G1 X172.800 Y178.155 E1.60931
G1 X172.424 Y178.502 E1.63036
G1 X172.360 Y178.942 F9000.000
G1 E0.43036 F2400.000
G92 E0
G1 X166.074 Y171.861 F9000.000
G1 E1.30000 F2400.000
G1 F1200.000
G1 X166.711 Y171.708 E1.32697
G1 X168.355 Y171.746 E1.39474
G1 X169.405 Y171.972 E1.43898
G1 X170.110 Y172.463 E1.47435
G1 X170.654 Y173.306 E1.51571
G1 X170.858 Y173.982 E1.54478
G1 X170.937 Y174.631 E1.57172
G1 X170.924 Y175.346 E1.60119
G1 X170.820 Y175.858 E1.62271
G1 X170.456 Y176.764 E1.66292
G1 X169.982 Y177.486 E1.69851
G1 X169.286 Y177.983 E1.73374
G1 X168.387 Y178.182 E1.77167
G1 X166.490 Y178.243 E1.84986
G1 X166.125 Y178.129 E1.86562
G1 X165.883 Y177.813 E1.88202
G1 X165.788 Y177.283 E1.90420
G1 X165.774 Y172.313 E2.10894
G1 X166.041 Y171.911 E2.12880
G1 X166.018 Y171.465 F9000.000
G1 X165.381 Y173.343
;TYPE:Perimeter
G1 F1200.000
G1 X165.385 Y175.130 E2.20245
G1 X165.194 Y175.169 E2.21049
G1 X165.027 Y174.769 E2.22833
G1 X164.720 Y174.479 E2.24574
G1 X165.057 Y174.081 E2.26723
G1 X165.159 Y173.328 E2.29854
G1 X165.321 Y173.339 E2.30521
G1 X164.680 Y173.913 F9000.000
;TYPE:External perimeter
G1 F1200.000
G1 X164.326 Y174.331 E2.32777
G1 X164.021 Y174.508 E2.34229
G1 X164.308 Y174.635 E2.35520
G1 X164.694 Y175.000 E2.37708
G1 X164.911 Y175.520 E2.40031
G1 X165.037 Y176.126 E2.42581
G1 X164.891 Y176.997 E2.46219
G1 X164.448 Y177.714 E2.49691
G1 X163.698 Y178.223 E2.53426
G1 X162.867 Y178.382 E2.56909
G1 X162.054 Y178.322 E2.60267
G1 X161.453 Y178.108 E2.62895
G1 X161.041 Y177.736 E2.65182
G1 X160.871 Y177.234 E2.67367
G1 X160.980 Y176.711 E2.69567
G1 X161.442 Y176.383 E2.71902
G1 X162.112 Y176.423 E2.74665
G1 X162.671 Y176.800 E2.77443
G1 X162.811 Y176.834 E2.78037
G1 X163.100 Y176.719 E2.79321
G1 X163.275 Y176.444 E2.80662
G1 X163.255 Y176.097 E2.82096
G1 X163.029 Y175.762 E2.83760
G1 X162.712 Y175.558 E2.85311
G1 X161.857 Y175.343 E2.88943
G1 X161.556 Y174.905 E2.91130
G1 X161.620 Y174.371 E2.93346
G1 X161.884 Y173.991 E2.95254
G1 X162.698 Y173.763 E2.98733
G1 X162.933 Y173.585 E2.99949
G1 X162.997 Y173.424 E3.00661
G1 X162.952 Y173.231 E3.01478
G1 X162.829 Y173.126 E3.02146
G1 X162.655 Y173.115 E3.02863
G1 X161.977 Y173.475 E3.06024
G1 X161.593 Y173.559 E3.07643
G1 X161.137 Y173.301 E3.09801
G1 X160.876 Y172.809 E3.12094
G1 X160.982 Y172.269 E3.14361
G1 X161.388 Y171.893 E3.16642
G1 X162.007 Y171.631 E3.19410
G1 X162.624 Y171.547 E3.21975
G1 X163.286 Y171.582 E3.24706
G1 X163.844 Y171.731 E3.27085
G1 X164.298 Y172.015 E3.29292
G1 X164.670 Y172.503 E3.31821
G1 X164.793 Y173.079 E3.34246
G1 X164.688 Y173.854 E3.37467
G1 X164.900 Y174.248 F9000.000
G1 E2.17467 F2400.000
G92 E0
G1 X179.704 Y181.012 F9000.000
G1 E1.30000 F2400.000
;TYPE:Perimeter
G1 F1200.000
G1 X180.173 Y180.334 E1.33397
G1 X181.021 Y178.237 E1.42714
G1 X181.201 Y178.259 E1.43463
G1 X181.212 Y178.334 E1.43778
G1 X181.809 Y179.027 E1.47545
G1 X182.533 Y179.223 E1.50637
G1 X183.071 Y179.209 E1.52854
G1 X183.127 Y179.376 E1.53580
G1 X182.570 Y179.772 E1.56396
G1 X181.576 Y180.359 E1.61150
G1 X179.896 Y181.120 E1.68749
G1 X179.804 Y181.148 E1.69146
G1 X179.739 Y181.060 E1.69597
G1 E0.49597 F2400.000
G92 E0
G1 X177.230 Y181.614 F9000.000
G1 E1.30000 F2400.000
G1 F1200.000
G1 X177.218 Y181.800 E1.30769
G1 X176.587 Y181.912 E1.33407
G1 X174.829 Y181.996 E1.40660
G1 X150.952 Y180.556 E2.39201
G1 X150.538 Y180.431 E2.40983
G1 X150.316 Y180.205 E2.42287
G1 X150.268 Y180.087 E2.42814
G1 X150.233 Y179.813 E2.43949
G1 X150.217 Y178.285 E2.50245
G1 X150.485 Y178.530 E2.51742
G1 X151.072 Y178.867 E2.54529
G1 X151.762 Y179.095 E2.57522
G1 X152.644 Y179.180 E2.61172
G1 X153.612 Y179.058 E2.65192
G1 X154.464 Y178.676 E2.69036
G1 X155.135 Y178.020 E2.72904
G1 X155.591 Y176.929 E2.77774
G1 X155.002 Y175.791 E2.83055
G1 X153.818 Y175.373 E2.88224
G1 X152.951 Y175.610 E2.91926
G1 X152.646 Y175.926 E2.93734
G1 X152.505 Y175.926 E2.94315
G1 X152.364 Y175.842 E2.94990
G1 X152.281 Y175.705 E2.95651
G1 X152.199 Y175.307 E2.97324
G1 X152.203 Y174.586 E3.00296
G1 X152.284 Y174.217 E3.01851
G1 X152.371 Y174.074 E3.02541
G1 X152.447 Y174.025 E3.02914
G1 X152.538 Y174.011 E3.03295
G1 X153.196 Y174.390 E3.06423
G1 X154.060 Y174.556 E3.10047
G1 X154.909 Y174.179 E3.13875
G1 X155.058 Y173.942 E3.15025
G1 X155.362 Y174.140 E3.16518
G1 X156.158 Y174.112 E3.19798
G1 X156.152 Y177.834 E3.35131
G1 X156.428 Y178.475 E3.38002
G1 X157.074 Y178.950 E3.41308
G1 X158.289 Y179.012 E3.46321
G1 X159.113 Y178.346 E3.50686
G1 X159.359 Y177.501 E3.54312
G1 X159.374 Y174.121 E3.68236
G1 X159.565 Y174.124 E3.69023
G1 X160.496 Y173.954 E3.72925
G1 X160.559 Y173.884 E3.73310
G1 X160.860 Y174.055 E3.74738
G1 X160.733 Y175.108 E3.79108
G1 X161.106 Y175.650 E3.81818
G1 X160.267 Y176.245 E3.86055
G1 X160.051 Y177.284 E3.90427
G1 X160.356 Y178.187 E3.94354
G1 X161.039 Y178.802 E3.98140
G1 X161.889 Y179.105 E4.01857
G1 X162.913 Y179.180 E4.06087
G1 X164.008 Y178.971 E4.10677
G1 X165.033 Y178.274 E4.15783
G1 X165.125 Y178.126 E4.16502
G1 X165.648 Y178.810 E4.20050
G1 X166.381 Y179.040 E4.23216
G1 X168.486 Y178.972 E4.31891
G1 X169.615 Y178.722 E4.36655
G1 X169.982 Y178.460 E4.38515
G1 X170.391 Y178.993 E4.41282
G1 X171.067 Y179.381 E4.44495
G1 X171.846 Y179.502 E4.47742
G1 X172.771 Y179.259 E4.51683
G1 X173.203 Y178.861 E4.54100
G1 X173.845 Y179.274 E4.57243
G1 X174.967 Y178.944 E4.62063
G1 X175.034 Y178.836 E4.62587
G1 X176.122 Y179.258 E4.67397
G1 X176.255 Y179.230 E4.67954
G1 X176.157 Y180.269 E4.72253
G1 X176.438 Y181.010 E4.75519
G1 X176.934 Y181.521 E4.78452
G1 X177.173 Y181.596 E4.79484
G1 E3.59484 F2400.000
G92 E0
G1 X173.907 Y178.843 F9000.000
G1 E1.30000 F2400.000
G1 F1200.000
G1 X174.710 Y178.607 E1.33448
G1 X175.118 Y177.945 E1.36650
G1 X175.438 Y178.567 E1.39533
G1 X176.155 Y178.846 E1.42702
G1 X176.853 Y178.695 E1.45644
G1 X177.395 Y178.052 E1.49107
G1 X177.380 Y177.242 E1.52446
G1 X176.521 Y175.734 E1.59594
G1 X176.563 Y175.602 E1.60167
G1 X177.138 Y174.627 E1.64831
G1 X178.282 Y177.716 E1.78403
G1 X177.815 Y178.825 E1.83359
G1 X177.725 Y178.895 E1.83829
G1 X177.036 Y179.123 E1.86819
G1 X176.620 Y179.582 E1.89372
G1 X176.560 Y180.214 E1.91990
G1 X176.779 Y180.793 E1.94539
G1 X177.148 Y181.173 E1.96720
G1 X177.729 Y181.355 E1.99228
G1 X178.450 Y181.250 E2.02229
G1 X179.061 Y180.989 E2.04965
G1 X179.461 Y180.666 E2.07084
G1 X179.823 Y180.145 E2.09698
G1 X180.636 Y178.132 E2.18643
G1 X181.778 Y174.811 E2.33110
G1 X182.577 Y175.145 E2.36677
G1 X182.911 Y175.124 E2.38056
G1 X181.720 Y176.659 E2.46064
G1 X181.466 Y177.342 E2.49063
G1 X181.588 Y178.163 E2.52481
G1 X182.030 Y178.676 E2.55273
G1 X182.581 Y178.825 E2.57626
G1 X184.304 Y178.781 E2.64725
G1 X184.362 Y178.943 E2.65433
G1 X183.760 Y179.413 E2.68578
G1 X182.786 Y180.105 E2.73502
G1 X181.759 Y180.711 E2.78413
G1 X180.036 Y181.492 E2.86205
G1 X178.398 Y181.994 E2.93262
G1 X176.631 Y182.306 E3.00654
G1 X174.826 Y182.393 E3.08100
G1 X150.882 Y180.949 E4.06919
G1 X150.326 Y180.782 E4.09311
G1 X149.978 Y180.426 E4.11360
G1 X149.881 Y180.187 E4.12421
G1 X149.837 Y179.840 E4.13862
G1 X149.812 Y177.466 E4.23644
G1 X149.982 Y177.414 E4.24374
G1 X150.187 Y177.720 E4.25893
G1 X150.721 Y178.208 E4.28873
G1 X151.235 Y178.503 E4.31315
G1 X151.844 Y178.705 E4.33959
G1 X152.638 Y178.781 E4.37245
G1 X153.504 Y178.673 E4.40840
G1 X154.237 Y178.344 E4.44148
G1 X154.800 Y177.792 E4.47395
G1 X155.154 Y176.947 E4.51171
G1 X154.722 Y176.112 E4.55042
G1 X153.803 Y175.788 E4.59055
G1 X153.161 Y175.964 E4.61799
G1 X152.863 Y176.272 E4.63565
G1 X152.799 Y176.304 E4.63858
G1 X152.576 Y176.336 E4.64787
G1 X152.371 Y176.307 E4.65639
G1 X152.076 Y176.133 E4.67049
G1 X151.907 Y175.851 E4.68403
G1 X151.803 Y175.346 E4.70527
G1 X151.807 Y174.542 E4.73842
G1 X151.911 Y174.068 E4.75839
G1 X152.079 Y173.790 E4.77178
G1 X152.304 Y173.645 E4.78282
G1 X152.572 Y173.606 E4.79394
G1 X152.683 Y173.637 E4.79870
G1 X153.337 Y174.014 E4.82978
G1 X154.013 Y174.144 E4.85815
G1 X154.638 Y173.865 E4.88635
G1 X154.937 Y173.392 E4.90942
G1 X155.473 Y173.739 E4.93575
G1 X156.555 Y173.702 E4.98033
G1 X156.549 Y177.753 E5.14721
G1 X156.749 Y178.219 E5.16812
G1 X157.213 Y178.561 E5.19184
G1 X158.158 Y178.608 E5.23082
G1 X158.768 Y178.116 E5.26310
G1 X158.963 Y177.444 E5.29195
G1 X158.979 Y173.718 E5.44543
G1 X159.532 Y173.727 E5.46821
G1 X160.291 Y173.588 E5.50000
G1 X160.636 Y173.202 E5.52134
G1 X160.842 Y173.589 E5.53939
G1 X161.444 Y173.930 E5.56792
G1 X161.239 Y174.226 E5.58277
G1 X161.145 Y175.007 E5.61514
G1 X161.615 Y175.690 E5.64934
G1 X162.082 Y175.808 E5.66917
G1 X162.049 Y176.022 E5.67809
G1 X161.326 Y175.979 E5.70791
G1 X160.623 Y176.478 E5.74342
G1 X160.461 Y177.259 E5.77628
G1 X160.699 Y177.961 E5.80683
G1 X161.246 Y178.455 E5.83720
G1 X161.972 Y178.713 E5.86892
G1 X162.890 Y178.781 E5.90686
G1 X163.853 Y178.597 E5.94723
G1 X164.740 Y177.994 E5.99144
G1 X165.339 Y177.027 E6.03827
G1 X165.510 Y177.977 E6.07803
G1 X165.886 Y178.469 E6.10356
G1 X166.435 Y178.641 E6.12727
G1 X168.436 Y178.577 E6.20974
G1 X169.451 Y178.353 E6.25253
G1 X170.179 Y177.832 E6.28942
G1 X170.273 Y178.187 E6.30456
G1 X170.657 Y178.689 E6.33059
G1 X171.201 Y179.001 E6.35642
G1 X171.825 Y179.098 E6.38246
G1 X172.575 Y178.901 E6.41440
G1 X173.160 Y178.362 E6.44713
G1 X173.856 Y178.810 E6.48124
G1 E5.28124 F2400.000
G92 E0
G1 X162.857 Y176.215 F9000.000
G1 E1.30000 F2400.000
G1 F1200.000
G1 X162.718 Y176.354 E1.30808
G1 X162.287 Y176.063 E1.32952
G1 X162.368 Y175.880 E1.33775
G1 X162.552 Y175.927 E1.34557
G1 X162.746 Y176.051 E1.35505
G1 X162.823 Y176.166 E1.36074
G1 E0.16074 F2400.000
G92 E0
G1 X160.086 Y173.223 F9000.000
G1 E1.30000 F2400.000
;TYPE:External perimeter
G1 F1200.000
G1 X159.499 Y173.330 E1.32457
G1 X158.584 Y173.315 E1.36226
G1 X158.567 Y177.386 E1.52997
G1 X158.422 Y177.886 E1.55140
G1 X158.027 Y178.205 E1.57233
G1 X157.352 Y178.171 E1.60016
G1 X157.071 Y177.964 E1.61454
G1 X156.945 Y177.672 E1.62764
G1 X156.952 Y173.426 E1.80255
G1 X156.882 Y173.351 E1.80677
G1 X156.725 Y173.300 E1.81355
G1 X155.584 Y173.339 E1.86059
G1 X155.300 Y173.154 E1.87456
G1 X155.124 Y172.863 E1.88856
G1 X155.070 Y172.430 E1.90654
G1 X155.213 Y172.022 E1.92438
G1 X155.472 Y171.778 E1.93903
G1 X155.845 Y171.688 E1.95480
G1 X159.822 Y171.721 E2.11867
G1 X160.193 Y171.839 E2.13471
G1 X160.439 Y172.172 E2.15175
G1 X160.446 Y172.818 E2.17838
G1 X160.126 Y173.178 E2.19823
G1 X160.091 Y173.623 F9000.000
G1 E0.99823 F2400.000
G92 E0
G1 X154.655 Y173.095 F9000.000
G1 E1.30000 F2400.000
