; generated by PrusaSlicer 2.3.3+win64 on 2021-08-21 at 19:45:57 UTC

; 

; external perimeters extrusion width = 0.45mm
; perimeters extrusion width = 0.45mm
; infill extrusion width = 0.45mm
; solid infill extrusion width = 0.45mm
; top infill extrusion width = 0.40mm
; support material extrusion width = 0.35mm
; first layer extrusion width = 0.45mm

M201 X550 Y550 Z100 E1000 ; sets maximum accelerations, mm/sec^2
M203 X300 Y300 Z5 E25 ; sets maximum feedrates, mm/sec
M204 P500 R500 T500 ; sets acceleration (P, T) and retract acceleration (R), mm/sec^2
M205 X10.00 Y10.00 Z0.40 E5.00 ; sets the jerk limits, mm/sec
M205 S0 T0 ; sets the minimum extruding and travel feed rate, mm/sec
M107 ; disable fan
;TYPE:Custom
//M85 S180 ; For use with raspberry only, it kills the printer if it loses the USB connection and remains inactive for 3 minutes. It works in Marlin 1.1.6
M140 S75 ; set bed temp
M190 S75 ; wait for bed temp
G28 ; Home all axes
G29 ; Auto bed-level (BL-Touch) // Comment if you don't like the automatic level in each print
M104 S260 ; set extruder temp
G92 E0 ; Reset Extruder
G1 X5 Y20 Z2.0 F3000.0 ; Move to start position
M109 S260 ; wait for extruder temp
G1 X5 Y200.0 Z0.3 F1500.0 E15 ; Draw the first line
G1 X5 Y200.0 Z0.3 F5000.0 ; Move to side a little
G1 X5.4 Y20 Z0.3 F1500.0 E30 ; Draw the second line
G92 E0 ; Reset Extruder
G1 Z1.0 F3000 ; Move Z Axis up little to prevent scratching of Heat Bed
G21 ; set units to millimeters
G90 ; use absolute coordinates
M82 ; use absolute distances for extrusion
G92 E0 ; reset extrusion distance
; Filament gcode
;LAYER_CHANGE
;Z:0.25
;HEIGHT:0.25
G1 E-1.20000 F2400.000 ; retract
G92 E0 ; reset extrusion distance
G1 Z0.250 F9000.000 ; move to next layer (0)
G1 X137.738 Y131.895 ; move to first skirt point
G1 E1.25000 F2400.000 ; unretract
;TYPE:Skirt
;WIDTH:0.45
G1 F1200.000
G1 X139.429 Y130.152 E1.35004 ; skirt
G1 X141.150 Y128.538 E1.44725 ; skirt
G1 X143.485 Y126.575 E1.57293 ; skirt
G1 X145.707 Y124.909 E1.68734 ; skirt
G1 X147.642 Y123.607 E1.78340 ; skirt
G1 X149.694 Y122.362 E1.88227 ; skirt
G1 X151.761 Y121.235 E1.97927 ; skirt
G1 X153.879 Y120.206 E2.07627 ; skirt
G1 X156.072 Y119.265 E2.17457 ; skirt
G1 X159.316 Y118.087 E2.31676 ; skirt
G1 X161.575 Y117.411 E2.41389 ; skirt
G1 X163.904 Y116.831 E2.51276 ; skirt
G1 X166.193 Y116.373 E2.60893 ; skirt
G1 X168.541 Y116.016 E2.70678 ; skirt
G1 X170.913 Y115.768 E2.80501 ; skirt
G1 X173.263 Y115.633 E2.90201 ; skirt
G1 X176.228 Y115.622 E3.02415 ; skirt
G1 X179.093 Y115.768 E3.14231 ; skirt
G1 X181.432 Y116.012 E3.23919 ; skirt
G1 X183.785 Y116.369 E3.33725 ; skirt
G1 X186.074 Y116.826 E3.43341 ; skirt
G1 X188.379 Y117.398 E3.53125 ; skirt
G1 X190.636 Y118.071 E3.62825 ; skirt
G1 X192.858 Y118.848 E3.72525 ; skirt
G1 X195.066 Y119.738 E3.82329 ; skirt
G1 X197.188 Y120.710 E3.91946 ; skirt
G1 X199.308 Y121.802 E4.01771 ; skirt
G1 X201.349 Y122.978 E4.11471 ; skirt
G1 X203.906 Y124.641 E4.24039 ; skirt
G1 X206.150 Y126.286 E4.35501 ; skirt
G1 X207.977 Y127.775 E4.45211 ; skirt
G1 X209.742 Y129.356 E4.54974 ; skirt
G1 X211.439 Y131.025 E4.64778 ; skirt
G1 X213.022 Y132.734 E4.74374 ; skirt
G1 X214.542 Y134.536 E4.84083 ; skirt
G1 X215.977 Y136.406 E4.93794 ; skirt
G1 X217.347 Y138.377 E5.03682 ; skirt
G1 X219.141 Y141.303 E5.17822 ; skirt
G1 X220.257 Y143.379 E5.27535 ; skirt
G1 X221.292 Y145.541 E5.37408 ; skirt
G1 X222.209 Y147.714 E5.47122 ; skirt
G1 X223.025 Y149.928 E5.56844 ; skirt
G1 X223.746 Y152.212 E5.66710 ; skirt
G1 X224.351 Y154.493 E5.76431 ; skirt
G1 X225.040 Y157.851 E5.90553 ; skirt
G1 X225.387 Y160.233 E6.00471 ; skirt
G1 X225.617 Y162.571 E6.10151 ; skirt
G1 X225.738 Y164.928 E6.19872 ; skirt
G1 X225.751 Y167.252 E6.29447 ; skirt
G1 X225.653 Y169.635 E6.39272 ; skirt
G1 X225.452 Y171.930 E6.48764 ; skirt
G1 X224.934 Y175.472 E6.63508 ; skirt
G1 X223.991 Y179.628 E6.81064 ; skirt
G1 X222.820 Y183.381 E6.97259 ; skirt
G1 X221.488 Y186.740 E7.12145 ; skirt
G1 X219.629 Y190.535 E7.29555 ; skirt
G1 X217.611 Y193.944 E7.45875 ; skirt
G1 X215.571 Y196.865 E7.60553 ; skirt
G1 X212.826 Y200.204 E7.78359 ; skirt
G1 X185.630 Y229.569 E9.43240 ; skirt
G1 X184.299 Y230.900 E9.50995 ; skirt
G1 X182.946 Y231.938 E9.58020 ; skirt
G1 X181.604 Y232.750 E9.64482 ; skirt
G1 X179.539 Y233.641 E9.73748 ; skirt
G1 X177.999 Y234.063 E9.80325 ; skirt
G1 X176.230 Y234.338 E9.87701 ; skirt
G1 X174.952 Y234.393 E9.92970 ; skirt
G1 X173.753 Y234.336 E9.97915 ; skirt
G1 X171.984 Y234.060 E10.05292 ; skirt
G1 X170.445 Y233.635 E10.11869 ; skirt
G1 X168.389 Y232.747 E10.21094 ; skirt
G1 X166.781 Y231.756 E10.28877 ; skirt
G1 X165.685 Y230.884 E10.34645 ; skirt
G1 X164.679 Y229.904 E10.40432 ; skirt
G1 X136.715 Y199.687 E12.10037 ; skirt
G1 X135.145 Y197.794 E12.20171 ; skirt
G1 X133.769 Y195.965 E12.29600 ; skirt
G1 X131.771 Y192.965 E12.44448 ; skirt
G1 X130.005 Y189.854 E12.59184 ; skirt
G1 X128.479 Y186.664 E12.73753 ; skirt
G1 X127.604 Y184.529 E12.83258 ; skirt
G1 X126.800 Y182.273 E12.93124 ; skirt
G1 X125.809 Y178.876 E13.07702 ; skirt
G1 X125.290 Y176.628 E13.17206 ; skirt
G1 X124.868 Y174.311 E13.26906 ; skirt
G1 X124.433 Y170.759 E13.41650 ; skirt
G1 X124.285 Y168.457 E13.51155 ; skirt
G1 X124.242 Y166.082 E13.60938 ; skirt
G1 X124.309 Y163.749 E13.70555 ; skirt
G1 X124.488 Y161.370 E13.80380 ; skirt
G1 X124.773 Y159.033 E13.90080 ; skirt
G1 X125.307 Y156.029 E14.02648 ; skirt
G1 X125.944 Y153.326 E14.14089 ; skirt
G1 X126.602 Y151.063 E14.23799 ; skirt
G1 X127.370 Y148.816 E14.33583 ; skirt
G1 X128.237 Y146.621 E14.43303 ; skirt
G1 X129.201 Y144.478 E14.52983 ; skirt
G1 X130.268 Y142.373 E14.62704 ; skirt
G1 X131.428 Y140.325 E14.72404 ; skirt
G1 X132.708 Y138.294 E14.82291 ; skirt
G1 X134.028 Y136.400 E14.91804 ; skirt
G1 X135.495 Y134.490 E15.01723 ; skirt
G1 X137.699 Y131.941 E15.15606 ; skirt
G1 X137.998 Y132.200 F9000.000 ; move to first skirt point
G1 F1200.000
G1 X139.702 Y130.440 E15.25697 ; skirt
G1 X141.413 Y128.835 E15.35361 ; skirt
G1 X143.733 Y126.885 E15.47844 ; skirt
G1 X145.937 Y125.231 E15.59196 ; skirt
G1 X147.861 Y123.938 E15.68747 ; skirt
G1 X149.891 Y122.705 E15.78530 ; skirt
G1 X151.943 Y121.588 E15.88154 ; skirt
G1 X154.048 Y120.565 E15.97798 ; skirt
G1 X156.218 Y119.633 E16.07526 ; skirt
G1 X159.442 Y118.463 E16.21657 ; skirt
G1 X161.681 Y117.793 E16.31283 ; skirt
G1 X163.990 Y117.218 E16.41086 ; skirt
G1 X166.267 Y116.762 E16.50651 ; skirt
G1 X168.591 Y116.409 E16.60336 ; skirt
G1 X170.938 Y116.164 E16.70058 ; skirt
G1 X173.275 Y116.029 E16.79702 ; skirt
G1 X176.229 Y116.018 E16.91868 ; skirt
G1 X179.062 Y116.164 E17.03558 ; skirt
G1 X181.387 Y116.406 E17.13186 ; skirt
G1 X183.716 Y116.759 E17.22891 ; skirt
G1 X185.988 Y117.213 E17.32436 ; skirt
G1 X188.275 Y117.780 E17.42139 ; skirt
G1 X190.513 Y118.448 E17.51764 ; skirt
G1 X192.719 Y119.219 E17.61388 ; skirt
G1 X194.908 Y120.101 E17.71112 ; skirt
G1 X197.015 Y121.066 E17.80657 ; skirt
G1 X199.113 Y122.147 E17.90380 ; skirt
G1 X201.141 Y123.316 E18.00024 ; skirt
G1 X203.681 Y124.968 E18.12507 ; skirt
G1 X205.908 Y126.599 E18.23880 ; skirt
G1 X207.720 Y128.077 E18.33509 ; skirt
G1 X209.471 Y129.645 E18.43193 ; skirt
G1 X211.153 Y131.300 E18.52916 ; skirt
G1 X212.724 Y132.997 E18.62442 ; skirt
G1 X214.232 Y134.784 E18.72075 ; skirt
G1 X215.656 Y136.639 E18.81710 ; skirt
G1 X217.015 Y138.593 E18.91513 ; skirt
G1 X218.798 Y141.502 E19.05568 ; skirt
G1 X219.905 Y143.560 E19.15196 ; skirt
G1 X220.930 Y145.703 E19.24984 ; skirt
G1 X221.840 Y147.859 E19.34622 ; skirt
G1 X222.649 Y150.056 E19.44267 ; skirt
G1 X223.365 Y152.320 E19.54050 ; skirt
G1 X223.964 Y154.578 E19.63674 ; skirt
G1 X224.650 Y157.921 E19.77732 ; skirt
G1 X224.994 Y160.280 E19.87554 ; skirt
G1 X225.222 Y162.606 E19.97179 ; skirt
G1 X225.342 Y164.939 E20.06803 ; skirt
G1 X225.354 Y167.246 E20.16309 ; skirt
G1 X225.257 Y169.609 E20.26052 ; skirt
G1 X225.057 Y171.894 E20.35498 ; skirt
G1 X224.544 Y175.403 E20.50108 ; skirt
G1 X223.608 Y179.528 E20.67535 ; skirt
G1 X222.445 Y183.252 E20.83608 ; skirt
G1 X221.127 Y186.577 E20.98340 ; skirt
G1 X219.279 Y190.350 E21.15648 ; skirt
G1 X217.276 Y193.732 E21.31840 ; skirt
G1 X215.256 Y196.624 E21.46374 ; skirt
G1 X212.533 Y199.937 E21.64038 ; skirt
G1 X185.340 Y229.299 E23.28906 ; skirt
G1 X184.035 Y230.604 E23.36507 ; skirt
G1 X182.719 Y231.613 E23.43340 ; skirt
G1 X181.404 Y232.409 E23.49671 ; skirt
G1 X179.398 Y233.271 E23.58663 ; skirt
G1 X177.933 Y233.672 E23.64924 ; skirt
G1 X176.192 Y233.944 E23.72181 ; skirt
G1 X174.961 Y233.996 E23.77256 ; skirt
G1 X173.798 Y233.942 E23.82055 ; skirt
G1 X172.052 Y233.670 E23.89332 ; skirt
G1 X170.588 Y233.265 E23.95592 ; skirt
G1 X168.591 Y232.405 E24.04549 ; skirt
G1 X167.009 Y231.432 E24.12201 ; skirt
G1 X165.951 Y230.590 E24.17771 ; skirt
G1 X164.969 Y229.633 E24.23418 ; skirt
G1 X137.007 Y199.419 E25.93012 ; skirt
G1 X135.456 Y197.549 E26.03021 ; skirt
G1 X134.086 Y195.728 E26.12408 ; skirt
G1 X132.110 Y192.759 E26.27097 ; skirt
G1 X130.359 Y189.675 E26.41710 ; skirt
G1 X128.844 Y186.510 E26.56165 ; skirt
G1 X127.974 Y184.388 E26.65614 ; skirt
G1 X127.177 Y182.151 E26.75397 ; skirt
G1 X126.194 Y178.783 E26.89848 ; skirt
G1 X125.679 Y176.548 E26.99297 ; skirt
G1 X125.259 Y174.250 E27.08922 ; skirt
G1 X124.828 Y170.730 E27.23532 ; skirt
G1 X124.681 Y168.441 E27.32981 ; skirt
G1 X124.639 Y166.086 E27.42684 ; skirt
G1 X124.705 Y163.770 E27.52229 ; skirt
G1 X124.881 Y161.416 E27.61953 ; skirt
G1 X125.165 Y159.092 E27.71597 ; skirt
G1 X125.695 Y156.109 E27.84080 ; skirt
G1 X126.329 Y153.422 E27.95452 ; skirt
G1 X126.981 Y151.177 E28.05082 ; skirt
G1 X127.742 Y148.953 E28.14766 ; skirt
G1 X128.602 Y146.776 E28.24410 ; skirt
G1 X129.559 Y144.649 E28.34014 ; skirt
G1 X130.617 Y142.561 E28.43659 ; skirt
G1 X131.768 Y140.528 E28.53283 ; skirt
G1 X133.037 Y138.515 E28.63086 ; skirt
G1 X134.348 Y136.634 E28.72532 ; skirt
G1 X135.799 Y134.745 E28.82346 ; skirt
G1 X137.959 Y132.245 E28.95956 ; skirt
G1 X138.259 Y132.504 F9000.000 ; move to first skirt point
G1 F1200.000
G1 X139.979 Y130.723 E29.06156 ; skirt
G1 X141.673 Y129.134 E29.15723 ; skirt
G1 X143.980 Y127.195 E29.28140 ; skirt
G1 X146.168 Y125.554 E29.39404 ; skirt
G1 X148.076 Y124.271 E29.48879 ; skirt
G1 X150.088 Y123.049 E29.58577 ; skirt
G1 X152.124 Y121.940 E29.68126 ; skirt
G1 X154.209 Y120.927 E29.77675 ; skirt
G1 X156.360 Y120.003 E29.87322 ; skirt
G1 X159.569 Y118.839 E30.01382 ; skirt
G1 X161.792 Y118.173 E30.10943 ; skirt
G1 X164.077 Y117.604 E30.20642 ; skirt
G1 X166.336 Y117.153 E30.30134 ; skirt
G1 X168.642 Y116.802 E30.39740 ; skirt
G1 X170.969 Y116.559 E30.49381 ; skirt
G1 X173.288 Y116.425 E30.58948 ; skirt
G1 X176.224 Y116.415 E30.71046 ; skirt
G1 X179.032 Y116.559 E30.82630 ; skirt
G1 X181.338 Y116.799 E30.92177 ; skirt
G1 X183.648 Y117.150 E31.01803 ; skirt
G1 X185.903 Y117.600 E31.11276 ; skirt
G1 X188.170 Y118.163 E31.20900 ; skirt
G1 X190.391 Y118.825 E31.30448 ; skirt
G1 X192.583 Y119.592 E31.40016 ; skirt
G1 X194.750 Y120.465 E31.49639 ; skirt
G1 X196.841 Y121.422 E31.59113 ; skirt
G1 X198.922 Y122.495 E31.68755 ; skirt
G1 X200.930 Y123.651 E31.78304 ; skirt
G1 X203.457 Y125.295 E31.90720 ; skirt
G1 X205.666 Y126.913 E32.02004 ; skirt
G1 X207.463 Y128.378 E32.11553 ; skirt
G1 X209.199 Y129.934 E32.21158 ; skirt
G1 X210.868 Y131.576 E32.30800 ; skirt
G1 X212.428 Y133.259 E32.40255 ; skirt
G1 X213.924 Y135.032 E32.49811 ; skirt
G1 X215.336 Y136.873 E32.59371 ; skirt
G1 X216.680 Y138.806 E32.69070 ; skirt
G1 X218.456 Y141.701 E32.83060 ; skirt
G1 X219.554 Y143.745 E32.92621 ; skirt
G1 X220.569 Y145.866 E33.02305 ; skirt
G1 X221.472 Y148.005 E33.11867 ; skirt
G1 X222.274 Y150.184 E33.21435 ; skirt
G1 X222.984 Y152.429 E33.31134 ; skirt
G1 X223.578 Y154.669 E33.40682 ; skirt
G1 X224.260 Y157.992 E33.54655 ; skirt
G1 X224.600 Y160.328 E33.64383 ; skirt
G1 X224.827 Y162.635 E33.73932 ; skirt
G1 X224.946 Y164.950 E33.83481 ; skirt
G1 X224.958 Y167.245 E33.92936 ; skirt
G1 X224.862 Y169.584 E34.02578 ; skirt
G1 X224.663 Y171.852 E34.11958 ; skirt
G1 X224.155 Y175.329 E34.26436 ; skirt
G1 X223.225 Y179.424 E34.43732 ; skirt
G1 X222.070 Y183.124 E34.59702 ; skirt
G1 X220.765 Y186.414 E34.74282 ; skirt
G1 X218.931 Y190.160 E34.91466 ; skirt
G1 X216.943 Y193.516 E35.07530 ; skirt
G1 X214.941 Y196.384 E35.21941 ; skirt
G1 X212.240 Y199.670 E35.39463 ; skirt
G1 X185.049 Y229.030 E37.04317 ; skirt
G1 X183.770 Y230.309 E37.11768 ; skirt
G1 X182.492 Y231.289 E37.18404 ; skirt
G1 X181.203 Y232.067 E37.24604 ; skirt
G1 X179.262 Y232.899 E37.33305 ; skirt
G1 X177.870 Y233.281 E37.39253 ; skirt
G1 X176.153 Y233.549 E37.46409 ; skirt
G1 X174.965 Y233.600 E37.51309 ; skirt
G1 X173.837 Y233.548 E37.55961 ; skirt
G1 X172.121 Y233.279 E37.63117 ; skirt
G1 X170.729 Y232.895 E37.69065 ; skirt
G1 X168.791 Y232.063 E37.77755 ; skirt
G1 X167.233 Y231.104 E37.85291 ; skirt
G1 X166.216 Y230.296 E37.90641 ; skirt
G1 X165.259 Y229.363 E37.96149 ; skirt
G1 X137.299 Y199.151 E39.65730 ; skirt
G1 X135.767 Y197.303 E39.75617 ; skirt
G1 X134.401 Y195.487 E39.84978 ; skirt
G1 X132.447 Y192.550 E39.99512 ; skirt
G1 X130.712 Y189.495 E40.13983 ; skirt
G1 X129.209 Y186.355 E40.28323 ; skirt
G1 X128.344 Y184.246 E40.37715 ; skirt
G1 X127.554 Y182.028 E40.47414 ; skirt
G1 X126.579 Y178.690 E40.61742 ; skirt
G1 X126.067 Y176.468 E40.71134 ; skirt
G1 X125.651 Y174.188 E40.80682 ; skirt
G1 X125.223 Y170.700 E40.95160 ; skirt
G1 X125.077 Y168.425 E41.04552 ; skirt
G1 X125.035 Y166.093 E41.14157 ; skirt
G1 X125.100 Y163.790 E41.23649 ; skirt
G1 X125.276 Y161.456 E41.33292 ; skirt
G1 X125.557 Y159.155 E41.42840 ; skirt
G1 X126.084 Y156.188 E41.55257 ; skirt
G1 X126.712 Y153.522 E41.66540 ; skirt
G1 X127.360 Y151.296 E41.76090 ; skirt
G1 X128.114 Y149.090 E41.85694 ; skirt
G1 X128.967 Y146.930 E41.95262 ; skirt
G1 X129.916 Y144.820 E42.04792 ; skirt
G1 X130.966 Y142.749 E42.14359 ; skirt
G1 X132.108 Y140.732 E42.23908 ; skirt
G1 X133.363 Y138.740 E42.33606 ; skirt
G1 X134.667 Y136.868 E42.43005 ; skirt
G1 X136.103 Y134.999 E42.52715 ; skirt
G1 X138.220 Y132.549 E42.66050 ; skirt
@Object Funnel.stl id:0 copy 0
G1 E41.46050 F2400.000 ; retract
G92 E0 ; reset extrusion distance
G1 X171.974 Y213.750 F9000.000 ; move to first perimeter point
G1 E1.25000 F2400.000 ; unretract
;TYPE:Perimeter
G1 F1200.000
G1 X173.282 Y213.290 E1.30710 ; perimeter
G1 X174.653 Y213.090 E1.36419 ; perimeter
G1 X176.037 Y213.157 E1.42129 ; perimeter
G1 X177.383 Y213.488 E1.47839 ; perimeter
G1 X178.640 Y214.073 E1.53549 ; perimeter
G1 X179.761 Y214.887 E1.59258 ; perimeter
G1 X180.705 Y215.902 E1.64968 ; perimeter
G1 X181.437 Y217.079 E1.70678 ; perimeter
G1 X181.928 Y218.375 E1.76387 ; perimeter
G1 X182.161 Y219.742 E1.82097 ; perimeter
G1 X182.128 Y221.127 E1.87807 ; perimeter
G1 X181.829 Y222.480 E1.93516 ; perimeter
G1 X181.277 Y223.748 E1.99214 ; perimeter
G1 X180.488 Y224.892 E2.04935 ; perimeter
G1 X179.496 Y225.860 E2.10646 ; perimeter
G1 X178.337 Y226.620 E2.16355 ; perimeter
G1 X177.053 Y227.142 E2.22065 ; perimeter
G1 X175.693 Y227.408 E2.27775 ; perimeter
G1 X174.307 Y227.408 E2.33484 ; perimeter
G1 X172.947 Y227.142 E2.39194 ; perimeter
G1 X171.663 Y226.620 E2.44904 ; perimeter
G1 X170.504 Y225.860 E2.50614 ; perimeter
G1 X169.512 Y224.892 E2.56324 ; perimeter
G1 X168.723 Y223.748 E2.62046 ; perimeter
G1 X168.181 Y222.503 E2.67641 ; perimeter
G1 X167.986 Y221.786 E2.70701 ; perimeter
G1 X167.822 Y220.435 E2.76308 ; perimeter
G1 X167.922 Y219.053 E2.82018 ; perimeter
G1 X168.286 Y217.716 E2.87728 ; perimeter
G1 X168.901 Y216.473 E2.93438 ; perimeter
G1 X169.742 Y215.372 E2.99147 ; perimeter
G1 X170.780 Y214.453 E3.04857 ; perimeter
G1 X171.923 Y213.780 E3.10320 ; perimeter
G1 X172.123 Y214.122 F9000.000 ; move to first perimeter point
G1 F1200.000
G1 X173.377 Y213.677 E3.15800 ; perimeter
G1 X174.672 Y213.488 E3.21193 ; perimeter
G1 X175.980 Y213.551 E3.26586 ; perimeter
G1 X177.251 Y213.864 E3.31979 ; perimeter
G1 X178.438 Y214.416 E3.37372 ; perimeter
G1 X179.497 Y215.185 E3.42765 ; perimeter
G1 X180.389 Y216.144 E3.48158 ; perimeter
