; generated by PrusaSlicer 2.3.3+win64 on 2021-08-21 at 21:41:51 UTC

; 

; external perimeters extrusion width = 0.45mm
; perimeters extrusion width = 0.45mm
; infill extrusion width = 0.45mm
; solid infill extrusion width = 0.45mm
; top infill extrusion width = 0.40mm
; first layer extrusion width = 0.45mm

M201 X550 Y550 Z100 E1000 ; sets maximum accelerations, mm/sec^2
M203 X300 Y300 Z5 E25 ; sets maximum feedrates, mm/sec
M204 P500 R500 T500 ; sets acceleration (P, T) and retract acceleration (R), mm/sec^2
M205 X10.00 Y10.00 Z0.40 E5.00 ; sets the jerk limits, mm/sec
M205 S0 T0 ; sets the minimum extruding and travel feed rate, mm/sec
M107 ; disable fan
;TYPE:Custom
//M85 S180 ; For use with raspberry only, it kills the printer if it loses the USB connection and remains inactive for 3 minutes. It works in Marlin 1.1.6
M140 S75 ; set bed temp
M190 S75 ; wait for bed temp
G28 ; Home all axes
G29 ; Auto bed-level (BL-Touch) // Comment if you don't like the automatic level in each print
M104 S260 ; set extruder temp
G92 E0 ; Reset Extruder
G1 X5 Y20 Z2.0 F3000.0 ; Move to start position
M109 S260 ; wait for extruder temp
G1 X5 Y200.0 Z0.3 F1500.0 E15 ; Draw the first line
G1 X5 Y200.0 Z0.3 F5000.0 ; Move to side a little
G1 X5.4 Y20 Z0.3 F1500.0 E30 ; Draw the second line
G92 E0 ; Reset Extruder
G1 Z1.0 F3000 ; Move Z Axis up little to prevent scratching of Heat Bed
G21 ; set units to millimeters
G90 ; use absolute coordinates
M82 ; use absolute distances for extrusion
G92 E0 ; reset extrusion distance
; Filament gcode
;LAYER_CHANGE
;Z:0.25
;HEIGHT:0.25
G1 E-1.20000 F2400.000 ; retract
G92 E0 ; reset extrusion distance
G1 Z0.250 F9000.000 ; move to next layer (0)
G1 X162.013 Y169.684 ; move to first skirt point
G1 E1.25000 F2400.000 ; unretract
;TYPE:Skirt
;WIDTH:0.45
G1 F1200.000
G1 X165.455 Y167.031 E1.42902 ; skirt
G1 X169.008 Y165.506 E1.58831 ; skirt
G1 X169.965 Y165.238 E1.62925 ; skirt
G1 X173.973 Y164.736 E1.79565 ; skirt
G1 X178.257 Y165.294 E1.97364 ; skirt
G1 X181.845 Y166.727 E2.13280 ; skirt
G1 X182.707 Y167.211 E2.17353 ; skirt
G1 X185.881 Y169.674 E2.33902 ; skirt
G1 X188.349 Y172.850 E2.50471 ; skirt
G1 X188.836 Y173.716 E2.54565 ; skirt
G1 X190.267 Y177.292 E2.70433 ; skirt
G1 X190.829 Y181.605 E2.88349 ; skirt
G1 X190.329 Y185.596 E3.04922 ; skirt
G1 X190.060 Y186.553 E3.09016 ; skirt
G1 X188.543 Y190.093 E3.24883 ; skirt
G1 X185.892 Y193.541 E3.42799 ; skirt
G1 X182.715 Y196.009 E3.59372 ; skirt
G1 X181.849 Y196.496 E3.63466 ; skirt
G1 X178.268 Y197.928 E3.79354 ; skirt
G1 X173.960 Y198.489 E3.97249 ; skirt
G1 X169.969 Y197.989 E4.13822 ; skirt
G1 X169.012 Y197.720 E4.17916 ; skirt
G1 X165.471 Y196.203 E4.33783 ; skirt
G1 X162.024 Y193.552 E4.51699 ; skirt
G1 X159.556 Y190.375 E4.68272 ; skirt
G1 X159.069 Y189.509 E4.72366 ; skirt
G1 X157.638 Y185.933 E4.88233 ; skirt
G1 X157.075 Y181.620 E5.06150 ; skirt
G1 X157.576 Y177.629 E5.22722 ; skirt
G1 X157.844 Y176.672 E5.26816 ; skirt
G1 X159.362 Y173.131 E5.42684 ; skirt
G1 X161.977 Y169.732 E5.60353 ; skirt
G1 X162.288 Y169.971 F9000.000 ; move to first skirt point
G1 F1200.000
G1 X165.661 Y167.370 E5.77900 ; skirt
G1 X169.160 Y165.872 E5.93579 ; skirt
G1 X170.034 Y165.629 E5.97316 ; skirt
G1 X173.975 Y165.132 E6.13679 ; skirt
G1 X178.163 Y165.679 E6.31082 ; skirt
G1 X181.694 Y167.093 E6.46749 ; skirt
G1 X182.480 Y167.536 E6.50466 ; skirt
G1 X185.602 Y169.955 E6.66738 ; skirt
G1 X188.026 Y173.079 E6.83025 ; skirt
G1 X188.471 Y173.869 E6.86762 ; skirt
G1 X189.882 Y177.388 E7.02381 ; skirt
G1 X190.433 Y181.606 E7.19903 ; skirt
G1 X189.938 Y185.530 E7.36195 ; skirt
G1 X189.695 Y186.399 E7.39913 ; skirt
G1 X188.203 Y189.890 E7.55552 ; skirt
G1 X185.614 Y193.258 E7.73054 ; skirt
G1 X182.486 Y195.686 E7.89366 ; skirt
G1 X181.695 Y196.131 E7.93103 ; skirt
G1 X178.177 Y197.542 E8.08722 ; skirt
G1 X173.959 Y198.093 E8.26245 ; skirt
G1 X170.035 Y197.598 E8.42537 ; skirt
G1 X169.162 Y197.353 E8.46274 ; skirt
G1 X165.675 Y195.863 E8.61893 ; skirt
G1 X162.307 Y193.274 E8.79396 ; skirt
G1 X159.879 Y190.146 E8.95708 ; skirt
G1 X159.434 Y189.355 E8.99445 ; skirt
G1 X158.023 Y185.836 E9.15064 ; skirt
G1 X157.472 Y181.619 E9.32586 ; skirt
G1 X157.967 Y177.695 E9.48879 ; skirt
G1 X158.211 Y176.822 E9.52616 ; skirt
G1 X159.701 Y173.335 E9.68235 ; skirt
G1 X162.252 Y170.019 E9.85469 ; skirt
G1 X162.563 Y170.258 F9000.000 ; move to first skirt point
G1 F1200.000
G1 X165.868 Y167.708 E10.02664 ; skirt
G1 X169.307 Y166.240 E10.18071 ; skirt
G1 X170.095 Y166.020 E10.21439 ; skirt
G1 X173.973 Y165.529 E10.37542 ; skirt
G1 X178.066 Y166.063 E10.54547 ; skirt
G1 X181.538 Y167.458 E10.69962 ; skirt
G1 X182.250 Y167.859 E10.73330 ; skirt
G1 X185.321 Y170.235 E10.89324 ; skirt
G1 X187.703 Y173.309 E11.05344 ; skirt
G1 X188.104 Y174.021 E11.08712 ; skirt
G1 X189.497 Y177.482 E11.24080 ; skirt
G1 X190.037 Y181.604 E11.41207 ; skirt
G1 X189.547 Y185.464 E11.57236 ; skirt
G1 X189.327 Y186.251 E11.60604 ; skirt
G1 X187.865 Y189.683 E11.75971 ; skirt
G1 X185.332 Y192.980 E11.93098 ; skirt
G1 X182.256 Y195.363 E12.09127 ; skirt
G1 X181.544 Y195.764 E12.12495 ; skirt
G1 X178.083 Y197.157 E12.27863 ; skirt
G1 X173.961 Y197.697 E12.44990 ; skirt
G1 X170.101 Y197.207 E12.61019 ; skirt
G1 X169.313 Y196.987 E12.64387 ; skirt
G1 X165.882 Y195.525 E12.79754 ; skirt
G1 X162.585 Y192.992 E12.96881 ; skirt
G1 X160.202 Y189.916 E13.12910 ; skirt
G1 X159.800 Y189.204 E13.16278 ; skirt
G1 X158.408 Y185.743 E13.31646 ; skirt
G1 X157.868 Y181.621 E13.48773 ; skirt
G1 X158.358 Y177.761 E13.64802 ; skirt
G1 X158.578 Y176.973 E13.68170 ; skirt
G1 X160.040 Y173.542 E13.83537 ; skirt
G1 X162.526 Y170.306 E14.00349 ; skirt
@Object Locking_Bolt.stl id:0 copy 0
G1 E12.80349 F2400.000 ; retract
G92 E0 ; reset extrusion distance
G1 X166.194 Y173.854 F9000.000 ; move to first perimeter point
G1 E1.25000 F2400.000 ; unretract
;TYPE:Perimeter
G1 F1200.000
G1 X167.084 Y173.691 E1.28726 ; perimeter
G1 X168.079 Y172.928 E1.33891 ; perimeter
G1 X168.467 Y172.110 E1.37621 ; perimeter
G1 X169.368 Y172.184 E1.41347 ; perimeter
G1 X170.499 Y171.715 E1.46388 ; perimeter
G1 X171.136 Y171.024 E1.50263 ; perimeter
G1 X171.967 Y171.318 E1.53891 ; perimeter
G1 X173.208 Y171.155 E1.59048 ; perimeter
G1 X173.953 Y170.640 E1.62778 ; perimeter
G1 X174.697 Y171.155 E1.66503 ; perimeter
G1 X175.940 Y171.318 E1.71669 ; perimeter
G1 X176.793 Y171.014 E1.75399 ; perimeter
G1 X177.378 Y171.704 E1.79125 ; perimeter
G1 X178.508 Y172.172 E1.84165 ; perimeter
G1 X179.448 Y172.134 E1.88041 ; perimeter
G1 X179.827 Y172.929 E1.91669 ; perimeter
G1 X180.821 Y173.691 E1.96826 ; perimeter
G1 X181.711 Y173.854 E2.00556 ; perimeter
G1 X181.873 Y174.744 E2.04281 ; perimeter
G1 X182.637 Y175.739 E2.09447 ; perimeter
G1 X183.430 Y176.115 E2.13064 ; perimeter
G1 X183.393 Y177.057 E2.16949 ; perimeter
G1 X183.862 Y178.190 E2.22000 ; perimeter
G1 X184.551 Y178.769 E2.25704 ; perimeter
G1 X184.247 Y179.627 E2.29453 ; perimeter
G1 X184.410 Y180.868 E2.34609 ; perimeter
G1 X184.925 Y181.613 E2.38339 ; perimeter
G1 X184.410 Y182.357 E2.42065 ; perimeter
G1 X184.246 Y183.600 E2.47230 ; perimeter
G1 X184.541 Y184.427 E2.50847 ; perimeter
G1 X183.849 Y185.067 E2.54733 ; perimeter
G1 X183.380 Y186.200 E2.59783 ; perimeter
G1 X183.457 Y187.096 E2.63488 ; perimeter
G1 X182.636 Y187.487 E2.67236 ; perimeter
G1 X181.874 Y188.480 E2.72393 ; perimeter
G1 X181.711 Y189.371 E2.76123 ; perimeter
G1 X180.821 Y189.533 E2.79848 ; perimeter
G1 X179.826 Y190.297 E2.85014 ; perimeter
G1 X179.450 Y191.090 E2.88631 ; perimeter
G1 X178.507 Y191.053 E2.92516 ; perimeter
G1 X177.375 Y191.522 E2.97567 ; perimeter
G1 X176.796 Y192.211 E3.01271 ; perimeter
G1 X175.938 Y191.907 E3.05020 ; perimeter
G1 X174.697 Y192.070 E3.10176 ; perimeter
G1 X173.952 Y192.585 E3.13906 ; perimeter
G1 X173.208 Y192.070 E3.17632 ; perimeter
G1 X171.965 Y191.906 E3.22797 ; perimeter
G1 X171.138 Y192.201 E3.26414 ; perimeter
G1 X170.498 Y191.509 E3.30300 ; perimeter
G1 X169.365 Y191.040 E3.35350 ; perimeter
G1 X168.469 Y191.117 E3.39055 ; perimeter
G1 X168.077 Y190.296 E3.42803 ; perimeter
G1 X167.084 Y189.534 E3.47960 ; perimeter
G1 X166.194 Y189.371 E3.51690 ; perimeter
G1 X166.032 Y188.481 E3.55415 ; perimeter
G1 X165.268 Y187.486 E3.60581 ; perimeter
G1 X164.475 Y187.110 E3.64198 ; perimeter
G1 X164.512 Y186.167 E3.68083 ; perimeter
G1 X164.042 Y185.035 E3.73134 ; perimeter
G1 X163.354 Y184.456 E3.76838 ; perimeter
G1 X163.658 Y183.598 E3.80587 ; perimeter
G1 X163.495 Y182.357 E3.85743 ; perimeter
G1 X162.980 Y181.612 E3.89473 ; perimeter
G1 X163.495 Y180.868 E3.93199 ; perimeter
G1 X163.658 Y179.625 E3.98364 ; perimeter
G1 X163.363 Y178.798 E4.01981 ; perimeter
G1 X164.056 Y178.158 E4.05867 ; perimeter
G1 X164.525 Y177.025 E4.10917 ; perimeter
G1 X164.448 Y176.129 E4.14622 ; perimeter
G1 X165.269 Y175.737 E4.18370 ; perimeter
G1 X166.031 Y174.744 E4.23527 ; perimeter
G1 X166.183 Y173.913 E4.27010 ; perimeter
G1 X165.854 Y173.513 F9000.000 ; move to first perimeter point
G1 F1200.000
G1 X166.919 Y173.319 E4.31469 ; perimeter
G1 X167.762 Y172.672 E4.35846 ; perimeter
G1 X168.226 Y171.693 E4.40311 ; perimeter
G1 X169.305 Y171.781 E4.44770 ; perimeter
G1 X170.266 Y171.383 E4.49057 ; perimeter
G1 X171.022 Y170.563 E4.53650 ; perimeter
G1 X172.009 Y170.913 E4.57964 ; perimeter
G1 X173.061 Y170.774 E4.62334 ; perimeter
G1 X173.953 Y170.158 E4.66799 ; perimeter
G1 X174.843 Y170.774 E4.71258 ; perimeter
G1 X175.897 Y170.913 E4.75635 ; perimeter
G1 X176.917 Y170.549 E4.80100 ; perimeter
G1 X177.618 Y171.374 E4.84559 ; perimeter
G1 X178.580 Y171.772 E4.88847 ; perimeter
G1 X179.694 Y171.728 E4.93440 ; perimeter
G1 X180.144 Y172.673 E4.97753 ; perimeter
G1 X180.986 Y173.318 E5.02123 ; perimeter
G1 X182.052 Y173.514 E5.06588 ; perimeter
G1 X182.246 Y174.579 E5.11047 ; perimeter
G1 X182.893 Y175.421 E5.15424 ; perimeter
G1 X183.836 Y175.869 E5.19725 ; perimeter
G1 X183.793 Y176.986 E5.24330 ; perimeter
G1 X184.192 Y177.949 E5.28624 ; perimeter
G1 X185.016 Y178.642 E5.33062 ; perimeter
G1 X184.652 Y179.669 E5.37549 ; perimeter
G1 X184.791 Y180.721 E5.41920 ; perimeter
G1 X185.406 Y181.613 E5.46385 ; perimeter
G1 X184.791 Y182.503 E5.50844 ; perimeter
G1 X184.652 Y183.557 E5.55221 ; perimeter
G1 X185.003 Y184.540 E5.59521 ; perimeter
G1 X184.182 Y185.299 E5.64127 ; perimeter
G1 X183.783 Y186.262 E5.68421 ; perimeter
G1 X183.876 Y187.335 E5.72858 ; perimeter
G1 X182.892 Y187.804 E5.77346 ; perimeter
G1 X182.246 Y188.646 E5.81717 ; perimeter
G1 X182.051 Y189.712 E5.86181 ; perimeter
G1 X180.986 Y189.906 E5.90641 ; perimeter
G1 X180.143 Y190.553 E5.95017 ; perimeter
G1 X179.696 Y191.496 E5.99318 ; perimeter
G1 X178.579 Y191.453 E6.03923 ; perimeter
G1 X177.616 Y191.852 E6.08218 ; perimeter
G1 X176.922 Y192.676 E6.12655 ; perimeter
G1 X175.896 Y192.312 E6.17143 ; perimeter
G1 X174.844 Y192.451 E6.21513 ; perimeter
G1 X173.952 Y193.066 E6.25978 ; perimeter
G1 X173.062 Y192.451 E6.30437 ; perimeter
G1 X172.008 Y192.312 E6.34814 ; perimeter
G1 X171.025 Y192.663 E6.39115 ; perimeter
G1 X170.266 Y191.842 E6.43720 ; perimeter
G1 X169.303 Y191.443 E6.48014 ; perimeter
G1 X168.230 Y191.535 E6.52451 ; perimeter
G1 X167.761 Y190.552 E6.56939 ; perimeter
G1 X166.919 Y189.906 E6.61310 ; perimeter
G1 X165.853 Y189.711 E6.65774 ; perimeter
G1 X165.659 Y188.646 E6.70234 ; perimeter
G1 X165.012 Y187.803 E6.74611 ; perimeter
G1 X164.069 Y187.356 E6.78911 ; perimeter
G1 X164.112 Y186.239 E6.83517 ; perimeter
G1 X163.713 Y185.276 E6.87811 ; perimeter
G1 X162.889 Y184.582 E6.92248 ; perimeter
G1 X163.253 Y183.556 E6.96736 ; perimeter
G1 X163.114 Y182.504 E7.01106 ; perimeter
G1 X162.499 Y181.612 E7.05571 ; perimeter
G1 X163.114 Y180.722 E7.10031 ; perimeter
G1 X163.253 Y179.668 E7.14407 ; perimeter
G1 X162.902 Y178.685 E7.18708 ; perimeter
G1 X163.723 Y177.926 E7.23313 ; perimeter
G1 X164.122 Y176.963 E7.27608 ; perimeter
G1 X164.029 Y175.889 E7.32045 ; perimeter
G1 X165.013 Y175.421 E7.36533 ; perimeter
G1 X165.659 Y174.579 E7.40903 ; perimeter
G1 X165.843 Y173.572 E7.45121 ; perimeter
G1 X165.509 Y173.193 F9000.000 ; move to first perimeter point
G1 F1200.000
G1 X165.590 Y173.158 E7.45485 ; perimeter
G1 X166.753 Y172.946 E7.50354 ; perimeter
G1 X167.444 Y172.416 E7.53943 ; perimeter
G1 X167.955 Y171.340 E7.58848 ; perimeter
G1 X168.006 Y171.277 E7.59183 ; perimeter
G1 X169.242 Y171.378 E7.64288 ; perimeter
G1 X170.034 Y171.050 E7.67822 ; perimeter
G1 X170.908 Y170.102 E7.73133 ; perimeter
G1 X172.052 Y170.507 E7.78131 ; perimeter
G1 X172.915 Y170.394 E7.81716 ; perimeter
G1 X173.896 Y169.716 E7.86629 ; perimeter
G1 X173.955 Y169.694 E7.86888 ; perimeter
G1 X174.990 Y170.394 E7.92036 ; perimeter
G1 X175.854 Y170.507 E7.95624 ; perimeter
G1 X176.975 Y170.108 E8.00530 ; perimeter
G1 X177.056 Y170.100 E8.00865 ; perimeter
G1 X177.858 Y171.045 E8.05970 ; perimeter
G1 X178.651 Y171.373 E8.09504 ; perimeter
G1 X179.939 Y171.321 E8.14815 ; perimeter
G1 X180.461 Y172.416 E8.19812 ; perimeter
G1 X181.151 Y172.946 E8.23397 ; perimeter
G1 X182.372 Y173.169 E8.28508 ; perimeter
G1 X182.407 Y173.250 E8.28872 ; perimeter
G1 X182.619 Y174.413 E8.33742 ; perimeter
G1 X183.149 Y175.104 E8.37330 ; perimeter
G1 X184.242 Y175.623 E8.42315 ; perimeter
G1 X184.192 Y176.915 E8.47640 ; perimeter
G1 X184.521 Y177.708 E8.51178 ; perimeter
G1 X185.377 Y178.428 E8.55787 ; perimeter
G1 X185.472 Y178.541 E8.56395 ; perimeter
G1 X185.057 Y179.712 E8.61512 ; perimeter
G1 X185.171 Y180.575 E8.65097 ; perimeter
G1 X185.876 Y181.596 E8.70209 ; perimeter
G1 X185.843 Y181.678 E8.70572 ; perimeter
G1 X185.171 Y182.650 E8.75442 ; perimeter
G1 X185.057 Y183.514 E8.79031 ; perimeter
G1 X185.464 Y184.653 E8.84015 ; perimeter
G1 X184.515 Y185.531 E8.89340 ; perimeter
G1 X184.186 Y186.325 E8.92878 ; perimeter
G1 X184.282 Y187.439 E8.97487 ; perimeter
G1 X184.270 Y187.586 E8.98095 ; perimeter
G1 X183.149 Y188.121 E9.03213 ; perimeter
G1 X182.619 Y188.811 E9.06797 ; perimeter
G1 X182.396 Y190.032 E9.11909 ; perimeter
G1 X182.314 Y190.067 E9.12273 ; perimeter
G1 X181.152 Y190.279 E9.17142 ; perimeter
G1 X180.460 Y190.809 E9.20731 ; perimeter
G1 X179.942 Y191.902 E9.25715 ; perimeter
G1 X178.650 Y191.852 E9.31040 ; perimeter
G1 X177.857 Y192.181 E9.34578 ; perimeter
G1 X177.137 Y193.037 E9.39187 ; perimeter
G1 X177.024 Y193.132 E9.39795 ; perimeter
G1 X175.853 Y192.717 E9.44913 ; perimeter
G1 X174.990 Y192.831 E9.48497 ; perimeter
G1 X173.969 Y193.536 E9.53609 ; perimeter
G1 X173.887 Y193.503 E9.53973 ; perimeter
G1 X172.915 Y192.831 E9.58842 ; perimeter
G1 X172.051 Y192.717 E9.62431 ; perimeter
G1 X170.912 Y193.124 E9.67415 ; perimeter
G1 X170.034 Y192.175 E9.72740 ; perimeter
G1 X169.240 Y191.846 E9.76278 ; perimeter
G1 X168.126 Y191.942 E9.80887 ; perimeter
G1 X167.979 Y191.930 E9.81496 ; perimeter
G1 X167.444 Y190.809 E9.86613 ; perimeter
G1 X166.754 Y190.279 E9.90198 ; perimeter
G1 X165.533 Y190.056 E9.95309 ; perimeter
G1 X165.498 Y189.974 E9.95673 ; perimeter
G1 X165.286 Y188.812 E10.00543 ; perimeter
G1 X164.756 Y188.120 E10.04131 ; perimeter
G1 X163.663 Y187.602 E10.09115 ; perimeter
G1 X163.713 Y186.310 E10.14441 ; perimeter
G1 X163.384 Y185.517 E10.17979 ; perimeter
G1 X162.528 Y184.797 E10.22588 ; perimeter
G1 X162.433 Y184.684 E10.23196 ; perimeter
G1 X162.847 Y183.513 E10.28313 ; perimeter
G1 X162.734 Y182.650 E10.31898 ; perimeter
G1 X162.029 Y181.629 E10.37009 ; perimeter
G1 X162.061 Y181.547 E10.37373 ; perimeter
G1 X162.734 Y180.575 E10.42243 ; perimeter
G1 X162.848 Y179.711 E10.45831 ; perimeter
G1 X162.441 Y178.572 E10.50816 ; perimeter
G1 X163.390 Y177.694 E10.56141 ; perimeter
G1 X163.719 Y176.900 E10.59679 ; perimeter
G1 X163.623 Y175.786 E10.64288 ; perimeter
G1 X163.635 Y175.638 E10.64896 ; perimeter
G1 X164.756 Y175.104 E10.70013 ; perimeter
G1 X165.286 Y174.413 E10.73598 ; perimeter
G1 X165.499 Y173.252 E10.78462 ; perimeter
G1 X165.219 Y172.887 F9000.000 ; move to first perimeter point
;TYPE:External perimeter
G1 F1200.000
G1 X165.475 Y172.776 E10.79611 ; perimeter
G1 X166.588 Y172.573 E10.84272 ; perimeter
