;FLAVOR:Marlin
;TIME:2916
;Filament used: 1.92009m
;Layer height: 0.2
;MINX:150.415
;MINY:167.848
;MINZ:0.3
;MAXX:199.585
;MAXY:182.152
;MAXZ:58.9
;POSTPROCESSED
;LINEARADVANCEPROCESSED
;Generated with Cura_SteamEngine 4.10.0
M140 S75
M105
M190 S75
M104 S260
M105
M109 S260
M82 ;absolute extrusion mode
; Script based on an original created by tjjfvi (https://github.com/tjjfvi)
; An up-to-date version of the tjjfvi's original script can be found
; here:  https://csi.t6.fyi/
; Note - This script will only work in Cura V4.2 and above!
; --- Global Settings
; layer_height = 0.2
; smooth_spiralized_contours = True
; magic_mesh_surface_mode = normal
; machine_extruder_count = 1
; --- Single Extruder Settings
; speed_z_hop = 10
; retraction_amount = 1
; retraction_hop = 1
; retraction_hop_enabled = False
; retraction_enable = True
; retraction_speed = 40.0
; retraction_retract_speed = 40.0
; retraction_prime_speed = 40.0
; speed_travel = 120

M201 X500.00 Y500.00 Z100.00 E5000.00 ;Setup machine max acceleration
M203 X500.00 Y500.00 Z10.00 E50.00 ;Setup machine max feedrate
M204 P500.00 R1000.00 T500.00 ;Setup Print/Retract/Travel acceleration
M205 X8.00 Y8.00 Z0.40 E5.00 ;Setup Jerk
M220 S100 ;Reset Feedrate
M221 S100 ;Reset Flowrate

G28 ;Home
G29 ;Automatic Leveling

G92 E0 ;Reset Extruder
G1 Z2.0 F3000 ;Move Z Axis up
G1 X10.1 Y20 Z0.28 F5000.0 ;Move to start position
G1 X10.1 Y200.0 Z0.28 F1500.0 E15 ;Draw the first line
G1 X10.4 Y200.0 Z0.28 F5000.0 ;Move to side a little
G1 X10.4 Y20 Z0.28 F1500.0 E30 ;Draw the second line
G92 E0 ;Reset Extruder
G1 Z2.0 F3000 ;Move Z Axis up
G92 E0
G92 E0
G1 F2400 E-1
;LAYER_COUNT:294
M900 K0.000000 T0 ;added by LinearAdvanceSettingPlugin
;LAYER:0
M117 INDICATOR-Layer0
;TYPE:CUSTOM LAYER
M104 S260
M107
M204 S500
M205 X15 Y15
G0 F3600 X151.025 Y168.586 Z0.3
M204 S600
;TYPE:SKIRT
G1 F2400 E0.02079
G1 F1500 X151.705 Y168.103 E0.0624
G1 X152.525 Y167.865 E0.105
G1 X152.794 Y167.848 E0.11845
G1 X197.274 Y167.848 E2.33756
G1 X198.093 Y168.006 E2.37918
G1 X198.794 Y168.458 E2.42079
G1 X199.162 Y168.903 E2.4496
G1 X199.517 Y169.657 E2.49118
G1 X199.585 Y170.2 E2.51848
G1 X199.585 Y179.8 E2.99742
G1 X199.427 Y180.619 E3.03904
G1 X199.162 Y181.097 E3.0663
G1 X198.772 Y181.563 E3.09662
G1 X198.44 Y181.818 E3.11751
G1 X197.661 Y182.118 E3.15915
G1 X197.274 Y182.152 E3.17853
G1 X152.79 Y182.151 E5.39785
G1 X152.119 Y182.046 E5.43173
G1 X151.559 Y181.825 E5.46177
G1 X150.917 Y181.293 E5.50337
G1 X150.682 Y180.946 E5.52428
G1 X150.43 Y180.151 E5.56588
G1 X150.415 Y179.895 E5.57868
G1 X150.415 Y170.106 E6.06705
G1 X150.573 Y169.287 E6.10867
G1 X150.737 Y169.033 E6.12375
G0 F1350 X151.025 Y168.586
M204 S500
G0 F3600 X151.418 Y168.761
M204 S600
G1 F1500 X152.06 Y168.394 E6.16064
G1 X152.239 Y168.336 E6.17003
G1 X152.794 Y168.248 E6.19807
G1 X197.274 Y168.248 E8.41718
G1 X198.011 Y168.406 E8.45479
G1 X198.338 Y168.596 E8.47365
G1 X198.728 Y168.986 E8.50117
G1 X199.029 Y169.466 E8.52944
G1 X199.185 Y170.2 E8.56687
G1 X199.185 Y179.8 E9.04582
G1 X199.027 Y180.537 E9.08342
G1 X198.728 Y181.014 E9.11151
G1 X198.166 Y181.516 E9.14911
G1 X197.818 Y181.668 E9.16805
G1 X197.274 Y181.752 E9.19551
G1 X152.79 Y181.751 E11.41483
G1 X152.241 Y181.665 E11.44255
G1 X151.72 Y181.457 E11.47054
G1 X151.159 Y180.953 E11.50817
G1 X150.853 Y180.264 E11.54578
G1 X150.815 Y179.895 E11.56428
G1 X150.815 Y170.106 E12.05266
G1 X150.973 Y169.369 E12.09026
G1 X151.104 Y169.19 E12.10133
G0 F1350 X151.418 Y168.761
M204 S500
G0 F3600 X151.56 Y169.185
M204 S600
G1 F1500 X151.808 Y168.962 E12.11797
G1 X152.362 Y168.716 E12.14821
G1 X152.794 Y168.648 E12.17003
G1 X197.274 Y168.648 E14.38915
G1 X197.918 Y168.805 E14.42222
G1 X198.405 Y169.222 E14.4542
G1 X198.679 Y169.666 E14.48023
G1 X198.785 Y170.2 E14.50739
G1 X198.785 Y179.8 E14.98634
G1 X198.628 Y180.444 E15.01941
G1 X198.177 Y181.022 E15.05599
G1 X197.583 Y181.317 E15.08907
G1 X197.274 Y181.352 E15.10459
G1 X152.79 Y181.351 E17.3239
G1 X152.188 Y181.228 E17.35456
G1 X151.622 Y180.882 E17.38765
G1 X151.279 Y180.315 E17.42072
G1 X151.215 Y179.895 E17.44191
G1 X151.215 Y170.106 E17.93029
G1 X151.326 Y169.654 E17.95351
G0 F1350 X151.372 Y169.462
G0 X151.56 Y169.185
M204 S500
G0 F3600 X151.954 Y169.355
M204 S600
G1 F1500 X152.486 Y169.097 E17.983
G1 X152.794 Y169.048 E17.99856
G1 X197.274 Y169.048 E20.21768
G1 X197.81 Y169.204 E20.24553
G1 X198.193 Y169.61 E20.27338
G1 X198.325 Y169.859 E20.28744
G1 X198.385 Y170.2 E20.30471
G1 X198.385 Y179.8 E20.78366
G1 X198.345 Y180.079 E20.79772
G1 X198.082 Y180.542 E20.82428
G1 X197.639 Y180.883 E20.85218
G1 X197.274 Y180.952 E20.87071
G1 X152.79 Y180.951 E23.09002
G1 X152.31 Y180.847 E23.11453
G1 X151.847 Y180.535 E23.14238
G1 X151.699 Y180.295 E23.15645
G1 X151.615 Y179.895 E23.17684
G1 X151.615 Y170.106 E23.66521
G1 X151.702 Y169.81 E23.68061
G0 F1350 X151.771 Y169.57
G0 X151.954 Y169.355
M204 S500
G0 F3600 X152.168 Y169.705
M204 S600
G1 F1500 X152.609 Y169.477 E23.70538
G1 X152.794 Y169.448 E23.71472
G1 X197.274 Y169.448 E25.93383
G1 X197.675 Y169.601 E25.95525
G1 X197.964 Y170.043 E25.98159
G1 X197.985 Y170.2 E25.9895
G1 X197.985 Y179.8 E26.46844
G1 X197.87 Y180.154 E26.48701
G1 X197.6 Y180.456 E26.50722
G1 X197.274 Y180.552 E26.52418
G1 X152.79 Y180.551 E28.74349
G1 X152.432 Y180.466 E28.76185
G1 X152.097 Y180.198 E28.78325
G1 X152.015 Y179.895 E28.79891
G1 X152.015 Y170.209 E29.28215
G0 F1350 X152.015 Y170.106
G0 X152.168 Y169.705
M204 S500
G0 F3600 X152.553 Y169.916
M204 S600
G1 F1500 X152.794 Y169.848 E29.29464
G1 X197.274 Y169.848 E31.51376
G1 X197.436 Y169.93 E31.52282
G1 X197.585 Y170.2 E31.5382
G1 X197.585 Y179.8 E32.01715
G1 X197.436 Y180.07 E32.03253
G1 X197.274 Y180.152 E32.04159
G1 X152.79 Y180.151 E34.26091
G1 X152.453 Y180.012 E34.2791
G1 X152.415 Y179.895 E34.28523
G1 X152.415 Y170.404 E34.75874
G0 F1350 X152.415 Y170.106
G0 X152.553 Y169.916
M204 S500
@Object PETGTempTower
G0 F3600 X152.815 Y170.251
M204 S600
;TYPE:WALL-OUTER
G1 F1500 X152.825 Y170.248 E34.75926
G1 X197.172 Y170.248 E36.97174
G1 X197.185 Y170.266 E36.97285
G1 X197.185 Y179.545 E37.43578
G1 X197.185 Y179.734 E37.44521
G1 X197.172 Y179.752 E37.44632
G1 X196.983 Y179.752 E37.45575
G1 X152.821 Y179.751 E39.659
G1 X152.815 Y179.749 E39.65931
G1 X152.815 Y170.783 E40.10663
G0 F1350 X152.815 Y170.251
M204 S500
G0 F3600 X152.825 Y170.248
G0 X153.015 Y170.248
G0 X153.255 Y170.688
G1 F2400 E39.10663
G0 F3600 X153.255 Y170.748
G0 X196.715 Y179.282
G0 X196.785 Y179.352
M204 S600
;TYPE:WALL-INNER
G1 F2400 E40.12742
G1 F1500 X196.586 Y179.352 E40.13735
G1 X153.215 Y179.351 E42.30113
G1 X153.215 Y170.648 E42.73533
G1 X196.785 Y170.648 E44.90904
G1 X196.785 Y179.153 E45.33336
G1 X196.785 Y179.352 E45.33978
M204 S500
G0 F3600 X196.395 Y178.962
M204 S600
;TYPE:SKIN
G1 F1500 X153.605 Y178.961 E47.47459
G1 X153.605 Y171.038 E47.86987
G1 X196.395 Y171.038 E50.00467
G1 X196.395 Y178.43 E50.37346
G0 F1350 X196.395 Y178.962
M204 S500
G1 F2400 E49.37346
G0 F3600 X196.054 Y171.73
M204 S600
G1 F2400 E50.39424
G1 F1500 X195.702 Y171.377 E50.41911
G1 X196.054 Y171.377 E50.43668
M204 S500
G0 F3600 X195.702 Y171.377
M204 S600
G1 F1500 X195.136 Y171.377 E50.46491
G1 X196.054 Y172.295 E50.52968
G1 X196.054 Y172.861 E50.55792
G1 X194.571 Y171.377 E50.66259
G1 X194.005 Y171.377 E50.69083
G1 X196.054 Y173.427 E50.83543
G1 X196.054 Y173.992 E50.86362
G1 X193.439 Y171.377 E51.04812
G1 X192.873 Y171.377 E51.07636
G1 X196.054 Y174.558 E51.3008
G1 X196.054 Y175.124 E51.32903
G1 X192.308 Y171.377 E51.59337
G1 X191.742 Y171.377 E51.62161
G1 X196.054 Y175.689 E51.92584
G1 X196.054 Y176.255 E51.95408
G1 X191.176 Y171.377 E52.29825
G1 X190.611 Y171.377 E52.32644
G1 X196.054 Y176.821 E52.71051
G1 X196.054 Y177.386 E52.73869
G1 X190.045 Y171.377 E53.16266
G1 X189.479 Y171.377 E53.1909
G1 X196.054 Y177.952 E53.6548
G1 X196.054 Y178.518 E53.68304
G1 X188.914 Y171.377 E54.18684
G1 X188.348 Y171.377 E54.21508
G1 X195.592 Y178.621 E54.72618
G1 X195.026 Y178.621 E54.75442
G1 X187.782 Y171.377 E55.26552
G1 X187.217 Y171.377 E55.29371
G1 X194.46 Y178.621 E55.80478
G1 X193.895 Y178.621 E55.83297
G1 X186.651 Y171.377 E56.34407
G1 X186.085 Y171.377 E56.37231
G1 X193.329 Y178.621 E56.88341
G1 X192.763 Y178.621 E56.91165
G1 X185.52 Y171.377 E57.42272
G1 X184.954 Y171.377 E57.45095
G1 X192.197 Y178.621 E57.96202
G1 X191.632 Y178.621 E57.99021
G1 X184.388 Y171.377 E58.50131
G1 X183.823 Y171.377 E58.5295
G1 X191.066 Y178.621 E59.04057
G1 X190.5 Y178.621 E59.06881
G1 X183.257 Y171.377 E59.57988
G1 X182.691 Y171.377 E59.60811
G1 X189.935 Y178.621 E60.11922
G1 X189.369 Y178.621 E60.14745
G1 X182.125 Y171.377 E60.65856
G1 X181.56 Y171.377 E60.68675
G1 X188.803 Y178.621 E61.19781
G1 X188.238 Y178.621 E61.226
G1 X180.994 Y171.377 E61.73711
G1 X180.428 Y171.377 E61.76534
G1 X187.672 Y178.621 E62.27645
G1 X187.106 Y178.621 E62.30468
G1 X179.863 Y171.377 E62.81575
G1 X179.297 Y171.377 E62.84399
G1 X186.541 Y178.621 E63.35509
G1 X185.975 Y178.621 E63.38333
G1 X178.731 Y171.377 E63.89443
G1 X178.166 Y171.377 E63.92262
G1 X185.409 Y178.621 E64.43369
G1 X184.844 Y178.621 E64.46188
G1 X177.6 Y171.377 E64.97298
G1 X177.034 Y171.377 E65.00122
G1 X184.278 Y178.621 E65.51232
G1 X183.712 Y178.621 E65.54056
G1 X176.469 Y171.377 E66.05163
G1 X175.903 Y171.377 E66.07987
G1 X183.147 Y178.621 E66.59097
G1 X182.581 Y178.621 E66.61921
G1 X175.337 Y171.377 E67.13031
G1 X174.772 Y171.377 E67.1585
G1 X182.014 Y178.62 E67.6695
G1 X181.449 Y178.62 E67.69768
G1 X174.206 Y171.377 E68.20872
G1 X173.64 Y171.377 E68.23696
G1 X180.883 Y178.62 E68.74799
G1 X180.317 Y178.62 E68.77623
G1 X173.074 Y171.377 E69.28726
G1 X172.509 Y171.377 E69.31545
G1 X179.752 Y178.62 E69.82648
G1 X179.186 Y178.62 E69.85472
G1 X171.943 Y171.377 E70.36575
G1 X171.377 Y171.377 E70.39399
G1 X178.62 Y178.62 E70.90502
G1 X178.055 Y178.62 E70.93321
G1 X170.812 Y171.377 E71.44424
G1 X170.246 Y171.377 E71.47248
G1 X177.489 Y178.62 E71.98351
G1 X176.923 Y178.62 E72.01175
G1 X169.68 Y171.377 E72.52278
G1 X169.115 Y171.377 E72.55097
G1 X176.358 Y178.62 E73.062
G1 X175.792 Y178.62 E73.09024
G1 X168.549 Y171.377 E73.60127
G1 X167.983 Y171.377 E73.62951
G1 X175.226 Y178.62 E74.14054
G1 X174.661 Y178.62 E74.16873
G1 X167.418 Y171.377 E74.67977
G1 X166.852 Y171.377 E74.708
G1 X174.095 Y178.62 E75.21904
G1 X173.529 Y178.62 E75.24727
G1 X166.286 Y171.377 E75.75831
G1 X165.721 Y171.377 E75.78649
G1 X172.963 Y178.62 E76.29749
G1 X172.398 Y178.62 E76.32568
G1 X165.155 Y171.377 E76.83671
G1 X164.589 Y171.377 E76.86495
G1 X171.832 Y178.62 E77.37598
G1 X171.266 Y178.62 E77.40422
G1 X164.024 Y171.377 E77.91522
G1 X163.458 Y171.377 E77.94346
G1 X170.701 Y178.62 E78.45449
G1 X170.135 Y178.62 E78.48273
G1 X162.892 Y171.377 E78.99376
G1 X162.326 Y171.377 E79.022
G1 X169.569 Y178.62 E79.53303
G1 X169.004 Y178.62 E79.56122
G1 X161.761 Y171.377 E80.07225
G1 X161.195 Y171.377 E80.10049
G1 X168.438 Y178.62 E80.61152
G1 X167.872 Y178.62 E80.63976
G1 X160.629 Y171.377 E81.15079
G1 X160.064 Y171.377 E81.17898
G1 X167.306 Y178.62 E81.68998
G1 X166.74 Y178.62 E81.71822
G1 X159.498 Y171.377 E82.22921
G1 X158.932 Y171.377 E82.25745
G1 X166.175 Y178.62 E82.76848
G1 X165.609 Y178.62 E82.79672
G1 X158.367 Y171.377 E83.30772
G1 X157.801 Y171.377 E83.33596
G1 X165.043 Y178.62 E83.84696
G1 X164.477 Y178.62 E83.87519
G1 X157.235 Y171.377 E84.38619
G1 X156.67 Y171.377 E84.41438
G1 X163.912 Y178.62 E84.92538
G1 X163.346 Y178.62 E84.95361
G1 X156.104 Y171.377 E85.46461
G1 X155.538 Y171.377 E85.49285
G1 X162.78 Y178.62 E86.00385
G1 X162.215 Y178.62 E86.03203
G1 X154.973 Y171.377 E86.54303
G1 X154.407 Y171.377 E86.57127
G1 X161.649 Y178.62 E87.08227
G1 X161.083 Y178.62 E87.11051
G1 X153.944 Y171.481 E87.6142
G1 X153.944 Y172.046 E87.64239
G1 X160.518 Y178.62 E88.10622
G1 X159.952 Y178.62 E88.13446
G1 X153.944 Y172.612 E88.55835
G1 X153.944 Y173.178 E88.58659
G1 X159.386 Y178.62 E88.97055
G1 X158.821 Y178.62 E88.99874
G1 X153.944 Y173.743 E89.34284
G1 X153.944 Y174.309 E89.37108
G1 X158.255 Y178.62 E89.67524
G1 X157.689 Y178.62 E89.70348
G1 X153.944 Y174.875 E89.96771
G1 X153.944 Y175.44 E89.9959
G1 X157.124 Y178.62 E90.22027
G1 X156.558 Y178.62 E90.2485
G1 X153.944 Y176.006 E90.43293
G1 X153.944 Y176.572 E90.46117
G1 X155.992 Y178.62 E90.60567
G1 X155.427 Y178.62 E90.63386
G1 X153.944 Y177.138 E90.73846
G1 X153.944 Y177.703 E90.76664
G1 X154.861 Y178.62 E90.83134
G1 X154.295 Y178.62 E90.85958
G1 X153.944 Y178.269 E90.88435
M204 S500
G0 F3600 X153.944 Y178.62
M204 S600
G1 F1500 X154.295 Y178.62 E90.90186
M204 S500
@Object NONMESH
G0 F600 X154.295 Y178.62 Z0.5
G0 F3600 X153.285 Y179.281
G0 X153.215 Y179.352
;TIME_ELAPSED:83.216697
;LAYER:1
M117 INDICATOR-Layer1
M106 S12.8
M204 S600
;TYPE:WALL-INNER
@Object PETGTempTower
G1 F2760 X153.215 Y170.648 E91.19135
G1 X196.785 Y170.648 E92.6405
G1 X196.785 Y179.352 E92.92999
G1 X154.015 Y179.352 E94.35253
G0 F2484 X153.215 Y179.352
M204 S500
G0 F5400 X152.825 Y179.752
M204 S600
;TYPE:WALL-OUTER
G1 F1770 X152.815 Y179.749 E94.35288
G1 X152.815 Y170.251 E94.66878
G1 X152.825 Y170.248 E94.66913
G1 X197.172 Y170.248 E96.14412
G1 X197.185 Y170.266 E96.14486
G1 X197.185 Y179.734 E96.45976
G1 X197.172 Y179.752 E96.4605
G1 X153.625 Y179.752 E97.90888
G0 F1593 X152.825 Y179.752
M204 S500
G0 F5400 X152.815 Y179.749
G0 X152.815 Y179.559
G0 X153.255 Y179.312
G0 X153.605 Y178.962
M204 S600
;TYPE:SKIN
G1 F1500 X153.605 Y171.038 E98.17243
G1 X196.395 Y171.038 E99.59563
G1 X196.395 Y178.962 E99.85919
G1 X154.405 Y178.962 E101.25578
G0 F1350 X153.605 Y178.962
M204 S500
G1 F2400 E100.25578
G0 F5400 X153.945 Y171.377
M204 S600
G1 F2400 E101.27657
G1 F1500 X153.945 Y171.889 E101.2936
G1 X154.457 Y171.377 E101.31768
G1 X155.023 Y171.377 E101.33651
G1 X153.945 Y172.454 E101.38719
G1 X153.945 Y173.02 E101.40601
G1 X155.588 Y171.377 E101.4833
G1 X156.154 Y171.377 E101.50212
G1 X153.945 Y173.586 E101.60602
G1 X153.945 Y174.151 E101.62482
G1 X156.72 Y171.377 E101.75532
G1 X157.286 Y171.377 E101.77415
G1 X153.945 Y174.717 E101.93127
G1 X153.945 Y175.283 E101.9501
G1 X157.851 Y171.377 E102.13382
G1 X158.417 Y171.377 E102.15265
G1 X153.945 Y175.848 E102.36298
G1 X153.945 Y176.414 E102.3818
G1 X158.983 Y171.377 E102.61875
G1 X159.548 Y171.377 E102.63754
G1 X153.945 Y176.98 E102.90109
G1 X153.945 Y177.546 E102.91991
G1 X160.114 Y171.377 E103.21009
G1 X160.68 Y171.377 E103.22891
G1 X153.945 Y178.111 E103.54568
G1 X153.944 Y178.621 E103.56264
G1 X154 Y178.622 E103.56451
G1 X161.245 Y171.377 E103.90529
G1 X161.811 Y171.377 E103.92411
G1 X154.566 Y178.622 E104.2649
G1 X155.132 Y178.622 E104.28372
G1 X162.377 Y171.377 E104.6245
G1 X162.942 Y171.377 E104.6433
G1 X155.697 Y178.622 E104.98408
G1 X156.263 Y178.622 E105.0029
G1 X163.508 Y171.377 E105.34369
G1 X164.074 Y171.377 E105.36251
G1 X156.829 Y178.622 E105.70329
G1 X157.394 Y178.622 E105.72209
G1 X164.639 Y171.377 E106.06287
G1 X165.205 Y171.377 E106.08169
G1 X157.96 Y178.622 E106.42248
G1 X158.526 Y178.622 E106.4413
G1 X165.771 Y171.377 E106.78208
G1 X166.336 Y171.377 E106.80088
G1 X159.091 Y178.622 E107.14166
G1 X159.657 Y178.622 E107.16048
G1 X166.902 Y171.377 E107.50127
G1 X167.468 Y171.377 E107.52009
G1 X160.223 Y178.622 E107.86088
G1 X160.789 Y178.622 E107.8797
G1 X168.034 Y171.377 E108.22048
G1 X168.599 Y171.377 E108.23927
G1 X161.354 Y178.622 E108.58006
G1 X161.92 Y178.622 E108.59888
G1 X169.165 Y171.377 E108.93967
G1 X169.731 Y171.377 E108.95849
G1 X162.486 Y178.622 E109.29927
G1 X163.051 Y178.622 E109.31807
G1 X170.296 Y171.377 E109.65885
G1 X170.862 Y171.377 E109.67767
G1 X163.617 Y178.622 E110.01846
G1 X164.183 Y178.622 E110.03728
G1 X171.428 Y171.377 E110.37806
G1 X171.993 Y171.377 E110.39686
G1 X164.748 Y178.622 E110.73764
G1 X165.314 Y178.622 E110.75646
G1 X172.559 Y171.377 E111.09725
G1 X173.125 Y171.377 E111.11607
G1 X165.88 Y178.622 E111.45685
G1 X166.445 Y178.622 E111.47565
G1 X173.69 Y171.377 E111.81643
G1 X174.256 Y171.377 E111.83525
G1 X167.011 Y178.622 E112.17604
G1 X167.577 Y178.622 E112.19486
G1 X174.822 Y171.377 E112.53564
G1 X175.387 Y171.377 E112.55444
G1 X168.142 Y178.622 E112.89522
G1 X168.708 Y178.622 E112.91404
