; generated by SuperSlicer 2.3.56 on 2021-09-26 at 04:13:33 UTC

; 

; external perimeters extrusion width = 0.42mm
; perimeters extrusion width = 0.46mm
; infill extrusion width = 0.44mm
; solid infill extrusion width = 0.46mm
; top infill extrusion width = 0.44mm
; first layer extrusion width = 0.60mm

@Objectinfo xyzCalibration_cube id:0 copy 0 X175.0 Y175.0
; plater:{"center":[175.000000,175.000000,0.000000],"boundingbox_center":[175.000000,175.000000,10.000000],"boundingbox_size":[20.000000,20.000000,20.000000]}

;TYPE:Custom
M140 S75;
G28 x y ; home X and Y axes
M190 S75;
G28 Z ; home z axis
G1 Z5 F5000 ; lift nozzle
M107
G21 ; set units to millimeters
G90 ; use absolute coordinates
M82 ; use absolute distances for extrusion
G92 E0
; Filament gcode
M104 S240 ; set temperature
M109 S240 ; set temperature and wait for it to be reached
;LAYER_CHANGE
;Z:0.3
;HEIGHT:0.3
G1 Z0.300000 F7800
G1 E-1.00000 F2400
G1 X160.949 Y160.322 F7800
G1 E0.05000 F2400
;TYPE:Skirt
;WIDTH:0.44
G1 F1800
G1 X161.989 Y159.594 E0.10949
G1 X163.156 Y159.093 E0.16899
G1 X164.401 Y158.841 E0.22848
G1 X185.006 Y158.812 E1.19381
G1 X186.088 Y158.909 E1.24471
G1 X187.143 Y159.195 E1.29589
G1 X188.125 Y159.659 E1.34678
G1 X189.011 Y160.288 E1.39768
G1 X189.773 Y161.062 E1.44858
G1 X190.388 Y161.957 E1.49947
G1 X190.837 Y162.946 E1.55037
G1 X191.106 Y163.999 E1.60126
G1 X191.188 Y164.978 E1.64728
G1 X191.181 Y185.295 E2.59912
G1 X191.066 Y186.221 E2.64284
G1 X190.811 Y187.125 E2.68685
G1 X190.426 Y187.975 E2.73057
G1 X189.917 Y188.757 E2.77429
G1 X188.981 Y189.737 E2.83779
G1 X187.854 Y190.491 E2.90129
G1 X186.590 Y190.980 E2.96479
G1 X185.249 Y191.183 E3.02829
G1 X164.674 Y191.179 E3.99222
G1 X163.755 Y191.061 E4.03566
G1 X162.863 Y190.807 E4.07909
G1 X162.020 Y190.423 E4.12252
G1 X161.243 Y189.917 E4.16596
G1 X160.263 Y188.981 E4.22946
G1 X159.509 Y187.854 E4.29296
G1 X159.020 Y186.590 E4.35646
G1 X158.817 Y185.249 E4.41996
G1 X158.821 Y164.674 E5.38389
G1 X158.939 Y163.755 E5.42732
G1 X159.193 Y162.863 E5.47076
G1 X159.577 Y162.020 E5.51419
G1 X160.083 Y161.243 E5.55763
G1 X160.908 Y160.366 E5.61402
; INIT printing object xyzCalibration_cube id:0 copy 0
G92 E0
G1 E-1.00000 F2400
@Object xyzCalibration_cube id:0 copy 0
G1 X166.381 Y166.381 F7800
G1 E0.05000 F2400
;TYPE:Internal perimeter
;WIDTH:0.604
G1 F1800
G1 X183.619 Y166.381 E1.21016
G1 X183.619 Y183.619 E2.37032
G1 X166.381 Y183.619 E3.53048
G1 X166.381 Y166.441 E4.68660
G1 X165.842 Y165.842 F7800
G1 F1800
G1 X184.158 Y165.842 E5.91940
G1 X184.158 Y184.158 E7.15219
G1 X165.842 Y184.158 E8.38499
G1 X165.842 Y165.902 E9.61375
G1 X165.302 Y165.302 F7800
;TYPE:External perimeter
G1 F1800
G1 X184.698 Y165.302 E10.91919
G1 X184.698 Y184.698 E12.22462
G1 X165.302 Y184.698 E13.53005
G1 X165.302 Y165.362 E14.83145
G1 X165.648 Y165.502 F7800
G92 E0
G1 E-1.00000 F2400
G1 X182.366 Y166.543 F7800
G1 E0.05000 F2400
;TYPE:Solid infill
;WIDTH:0.600738
G1 F1800
G1 X183.214 Y167.391 E0.13028
G1 X183.214 Y168.154 E0.18136
G1 X181.846 Y166.786 E0.31090
G1 X181.083 Y166.786 E0.36198
G1 X183.214 Y168.917 E0.56376
G1 X183.214 Y169.681 E0.61485
G1 X180.319 Y166.786 E0.88887
G1 X179.556 Y166.786 E0.93996
G1 X183.214 Y170.444 E1.28623
G1 X183.214 Y171.207 E1.33731
G1 X178.793 Y166.786 E1.75583
G1 X178.030 Y166.786 E1.80691
G1 X183.214 Y171.970 E2.29767
G1 X183.214 Y172.733 E2.34875
G1 X177.267 Y166.786 E2.91176
G1 X176.504 Y166.786 E2.96284
G1 X183.214 Y173.496 E3.59809
G1 X183.214 Y174.259 E3.64918
G1 X175.741 Y166.786 E4.35667
G1 X174.978 Y166.786 E4.40776
G1 X183.214 Y175.022 E5.18750
G1 X183.214 Y175.786 E5.23858
G1 X174.214 Y166.786 E6.09057
G1 X173.451 Y166.786 E6.14165
G1 X183.214 Y176.549 E7.06588
G1 X183.214 Y177.312 E7.11697
G1 X172.688 Y166.786 E8.11344
G1 X171.925 Y166.786 E8.16453
G1 X183.214 Y178.075 E9.23325
G1 X183.214 Y178.838 E9.28433
G1 X171.162 Y166.786 E10.42530
G1 X170.399 Y166.786 E10.47638
G1 X183.214 Y179.601 E11.68959
G1 X183.214 Y180.364 E11.74068
G1 X169.636 Y166.786 E13.02613
G1 X168.872 Y166.786 E13.07722
G1 X183.214 Y181.128 E14.43492
G1 X183.214 Y181.891 E14.48600
G1 X168.109 Y166.786 E15.91595
G1 X167.346 Y166.786 E15.96703
G1 X183.214 Y182.654 E17.46922
G1 X183.214 Y183.214 E17.50673
G1 X183.011 Y183.214 E17.52031
G1 X166.786 Y166.989 E19.05633
G1 X166.786 Y167.752 E19.10741
G1 X182.248 Y183.214 E20.57118
G1 X181.485 Y183.214 E20.62227
G1 X166.786 Y168.515 E22.01379
G1 X166.786 Y169.278 E22.06488
G1 X180.722 Y183.214 E23.38416
G1 X179.959 Y183.214 E23.43525
G1 X166.786 Y170.041 E24.68228
G1 X166.786 Y170.805 E24.73337
G1 X179.195 Y183.214 E25.90816
G1 X178.432 Y183.214 E25.95925
G1 X166.786 Y171.568 E27.06179
G1 X166.786 Y172.331 E27.11288
G1 X177.669 Y183.214 E28.14318
G1 X176.906 Y183.214 E28.19427
G1 X166.786 Y173.094 E29.15232
G1 X166.786 Y173.857 E29.20341
G1 X176.143 Y183.214 E30.08922
G1 X175.380 Y183.214 E30.14030
G1 X166.786 Y174.620 E30.95387
G1 X166.786 Y175.383 E31.00496
G1 X174.617 Y183.214 E31.74628
G1 X173.854 Y183.214 E31.79736
G1 X166.786 Y176.146 E32.46644
G1 X166.786 Y176.910 E32.51752
G1 X173.090 Y183.214 E33.11436
G1 X172.327 Y183.214 E33.16544
G1 X166.786 Y177.673 E33.69003
G1 X166.786 Y178.436 E33.74111
G1 X171.564 Y183.214 E34.19346
G1 X170.801 Y183.214 E34.24454
G1 X166.786 Y179.199 E34.62464
G1 X166.786 Y179.962 E34.67572
G1 X170.038 Y183.214 E34.98357
G1 X169.275 Y183.214 E35.03466
G1 X166.786 Y180.725 E35.27027
G1 X166.786 Y181.488 E35.32135
G1 X168.512 Y183.214 E35.48471
G1 X167.748 Y183.214 E35.53580
G1 X166.786 Y182.252 E35.62691
G1 X166.786 Y183.015 E35.67800
G1 X167.228 Y183.457 E35.71986
; INIT stop printing object xyzCalibration_cube id:0 copy 0
;LAYER_CHANGE
;Z:0.5
;HEIGHT:0.2
@Objectstop xyzCalibration_cube id:0 copy 0
G1 Z0.500000 F7800
M140 S70 ; set bed temperature
; INIT printing object xyzCalibration_cube id:0 copy 0
@Object xyzCalibration_cube id:0 copy 0
G1 X166.030 Y183.970
;TYPE:Internal perimeter
;WIDTH:0.464
G1 F4500
G1 X166.030 Y166.030 E36.34798
G1 X183.970 Y166.030 E36.97610
G1 X183.970 Y183.970 E37.60422
G1 X166.090 Y183.970 E38.23024
G1 X165.609 Y184.391 F7800
G1 F4500
G1 X165.609 Y165.609 E38.88785
G1 X184.391 Y165.609 E39.54545
G1 X184.391 Y184.391 E40.20306
G1 X165.669 Y184.391 E40.85857
G1 X165.210 Y184.790 F7800
;TYPE:External perimeter
;WIDTH:0.42
G1 F2250
G1 X165.210 Y165.210 E41.47248
G1 X184.790 Y165.210 E42.08640
G1 X184.790 Y184.790 E42.70032
G1 X165.270 Y184.790 E43.31236
G1 X165.410 Y184.444 F7800
G1 X166.156 Y166.736
;TYPE:Solid infill
;WIDTH:0.464492
G1 F1800
G1 X166.547 Y166.346 E43.33170
G1 X167.142 Y166.346 E43.35257
G1 X166.346 Y167.142 E43.39203
G1 X166.346 Y167.738 E43.41290
G1 X167.738 Y166.346 E43.48189
G1 X168.333 Y166.346 E43.50276
G1 X166.346 Y168.333 E43.60126
G1 X166.346 Y168.929 E43.62213
G1 X168.929 Y166.346 E43.75015
G1 X169.524 Y166.346 E43.77102
G1 X166.346 Y169.524 E43.92856
G1 X166.346 Y170.120 E43.94943
G1 X170.120 Y166.346 E44.13649
G1 X170.715 Y166.346 E44.15736
G1 X166.346 Y170.715 E44.37393
G1 X166.346 Y171.311 E44.39480
G1 X171.311 Y166.346 E44.64089
G1 X171.906 Y166.346 E44.66176
G1 X166.346 Y171.906 E44.93737
G1 X166.346 Y172.502 E44.95824
G1 X172.502 Y166.346 E45.26337
G1 X173.097 Y166.346 E45.28424
G1 X166.346 Y173.097 E45.61888
G1 X166.346 Y173.693 E45.63975
G1 X173.693 Y166.346 E46.00391
G1 X174.288 Y166.346 E46.02479
G1 X166.346 Y174.288 E46.41846
G1 X166.346 Y174.884 E46.43934
G1 X174.884 Y166.346 E46.86253
G1 X175.479 Y166.346 E46.88340
G1 X166.346 Y175.479 E47.33612
G1 X166.346 Y176.075 E47.35699
G1 X176.075 Y166.346 E47.83922
G1 X176.670 Y166.346 E47.86009
G1 X166.346 Y176.670 E48.37184
G1 X166.346 Y177.266 E48.39271
G1 X177.266 Y166.346 E48.93398
G1 X177.861 Y166.346 E48.95485
G1 X166.346 Y177.861 E49.52563
G1 X166.346 Y178.457 E49.54651
G1 X178.457 Y166.346 E50.14681
G1 X179.052 Y166.346 E50.16768
G1 X166.346 Y179.052 E50.79750
G1 X166.346 Y179.648 E50.81837
G1 X179.648 Y166.346 E51.47771
G1 X180.243 Y166.346 E51.49858
G1 X166.346 Y180.243 E52.18744
G1 X166.346 Y180.839 E52.20831
G1 X180.839 Y166.346 E52.92668
G1 X181.434 Y166.346 E52.94755
G1 X166.346 Y181.434 E53.69544
G1 X166.346 Y182.030 E53.71631
G1 X182.030 Y166.346 E54.49372
G1 X182.625 Y166.346 E54.51459
G1 X166.346 Y182.625 E55.32152
G1 X166.346 Y183.221 E55.34239
G1 X183.221 Y166.346 E56.17883
G1 X183.654 Y166.346 E56.19403
G1 X183.654 Y166.508 E56.19971
G1 X166.508 Y183.654 E57.04961
G1 X167.103 Y183.654 E57.07048
G1 X183.654 Y167.103 E57.89087
G1 X183.654 Y167.699 E57.91174
G1 X167.699 Y183.654 E58.70261
G1 X168.294 Y183.654 E58.72348
G1 X183.654 Y168.294 E59.48483
G1 X183.654 Y168.890 E59.50570
G1 X168.890 Y183.654 E60.23754
G1 X169.485 Y183.654 E60.25841
G1 X183.654 Y169.485 E60.96072
G1 X183.654 Y170.081 E60.98160
G1 X170.081 Y183.654 E61.65439
G1 X170.676 Y183.654 E61.67526
G1 X183.654 Y170.676 E62.31854
G1 X183.654 Y171.272 E62.33942
G1 X171.272 Y183.654 E62.95318
G1 X171.867 Y183.654 E62.97405
G1 X183.654 Y171.867 E63.55829
G1 X183.654 Y172.463 E63.57917
G1 X172.463 Y183.654 E64.13389
G1 X173.058 Y183.654 E64.15477
G1 X183.654 Y173.058 E64.67997
G1 X183.654 Y173.654 E64.70085
G1 X173.654 Y183.654 E65.19654
G1 X174.249 Y183.654 E65.21741
G1 X183.654 Y174.249 E65.68358
G1 X183.654 Y174.845 E65.70446
G1 X174.845 Y183.654 E66.14111
G1 X175.440 Y183.654 E66.16198
G1 X183.654 Y175.440 E66.56912
G1 X183.654 Y176.036 E66.58999
G1 X176.036 Y183.654 E66.96761
G1 X176.631 Y183.654 E66.98849
G1 X183.654 Y176.631 E67.33659
G1 X183.654 Y177.227 E67.35746
G1 X177.227 Y183.654 E67.67605
G1 X177.822 Y183.654 E67.69692
G1 X183.654 Y177.822 E67.98598
G1 X183.654 Y178.418 E68.00686
G1 X178.418 Y183.654 E68.26641
G1 X179.013 Y183.654 E68.28728
G1 X183.654 Y179.013 E68.51731
G1 X183.654 Y179.609 E68.53818
G1 X179.609 Y183.654 E68.73870
G1 X180.204 Y183.654 E68.75957
G1 X183.654 Y180.204 E68.93057
G1 X183.654 Y180.800 E68.95144
G1 X180.800 Y183.654 E69.09292
G1 X181.395 Y183.654 E69.11379
G1 X183.654 Y181.395 E69.22575
G1 X183.654 Y181.991 E69.24662
G1 X181.991 Y183.654 E69.32906
G1 X182.586 Y183.654 E69.34994
G1 X183.654 Y182.586 E69.40286
G1 X183.654 Y183.182 E69.42373
G1 X182.992 Y183.844 E69.45654
; INIT stop printing object xyzCalibration_cube id:0 copy 0
M106 S71.4
;LAYER_CHANGE
;Z:0.7
;HEIGHT:0.2
@Objectstop xyzCalibration_cube id:0 copy 0
G1 Z0.700000 F7800
; INIT printing object xyzCalibration_cube id:0 copy 0
@Object xyzCalibration_cube id:0 copy 0
G1 X183.970 Y183.970
;TYPE:Internal perimeter
;WIDTH:0.464
G1 F4500
G1 X166.030 Y183.970 E70.08466
G1 X166.030 Y166.030 E70.71278
G1 X183.970 Y166.030 E71.34090
G1 X183.970 Y183.910 E71.96692
G1 X184.391 Y184.391 F7800
G1 F4500
G1 X165.609 Y184.391 E72.62452
G1 X165.609 Y165.609 E73.28213
G1 X184.391 Y165.609 E73.93974
G1 X184.391 Y184.331 E74.59524
G1 X184.790 Y184.790 F7800
;TYPE:External perimeter
;WIDTH:0.42
G1 F2250
G1 X165.210 Y184.790 E75.20916
G1 X165.210 Y165.210 E75.82308
G1 X184.790 Y165.210 E76.43700
G1 X184.790 Y184.730 E77.04903
G1 X184.444 Y184.590 F7800
G1 X166.736 Y183.844
;TYPE:Solid infill
;WIDTH:0.464492
G1 F1800
G1 X166.346 Y183.453 E77.06837
G1 X166.346 Y182.858 E77.08924
G1 X167.142 Y183.654 E77.12871
G1 X167.738 Y183.654 E77.14958
G1 X166.346 Y182.262 E77.21856
G1 X166.346 Y181.667 E77.23944
G1 X168.333 Y183.654 E77.33794
G1 X168.929 Y183.654 E77.35881
G1 X166.346 Y181.071 E77.48683
G1 X166.346 Y180.476 E77.50770
G1 X169.524 Y183.654 E77.66524
G1 X170.120 Y183.654 E77.68611
G1 X166.346 Y179.880 E77.87316
G1 X166.346 Y179.285 E77.89403
G1 X170.715 Y183.654 E78.11061
G1 X171.311 Y183.654 E78.13148
G1 X166.346 Y178.689 E78.37757
G1 X166.346 Y178.094 E78.39844
G1 X171.906 Y183.654 E78.67405
G1 X172.502 Y183.654 E78.69492
G1 X166.346 Y177.498 E79.00004
G1 X166.346 Y176.903 E79.02092
G1 X173.097 Y183.654 E79.35556
G1 X173.693 Y183.654 E79.37643
G1 X166.346 Y176.307 E79.74059
G1 X166.346 Y175.712 E79.76146
G1 X174.288 Y183.654 E80.15514
G1 X174.884 Y183.654 E80.17601
G1 X166.346 Y175.116 E80.59921
G1 X166.346 Y174.521 E80.62008
G1 X175.479 Y183.654 E81.07279
G1 X176.075 Y183.654 E81.09366
G1 X166.346 Y173.925 E81.57590
G1 X166.346 Y173.330 E81.59677
G1 X176.670 Y183.654 E82.10852
G1 X177.266 Y183.654 E82.12939
G1 X166.346 Y172.734 E82.67065
G1 X166.346 Y172.139 E82.69153
G1 X177.861 Y183.654 E83.26231
G1 X178.457 Y183.654 E83.28318
G1 X166.346 Y171.543 E83.88348
G1 X166.346 Y170.948 E83.90436
G1 X179.052 Y183.654 E84.53418
G1 X179.648 Y183.654 E84.55505
G1 X166.346 Y170.352 E85.21439
G1 X166.346 Y169.757 E85.23526
G1 X180.243 Y183.654 E85.92411
G1 X180.839 Y183.654 E85.94498
G1 X166.346 Y169.161 E86.66336
G1 X166.346 Y168.566 E86.68423
G1 X181.434 Y183.654 E87.43212
G1 X182.030 Y183.654 E87.45299
G1 X166.346 Y167.970 E88.23040
G1 X166.346 Y167.375 E88.25127
G1 X182.625 Y183.654 E89.05820
G1 X183.221 Y183.654 E89.07907
G1 X166.346 Y166.779 E89.91551
G1 X166.346 Y166.346 E89.93071
G1 X166.508 Y166.346 E89.93638
G1 X183.654 Y183.492 E90.78629
G1 X183.654 Y182.897 E90.80716
G1 X167.103 Y166.346 E91.62755
G1 X167.699 Y166.346 E91.64842
G1 X183.654 Y182.301 E92.43929
G1 X183.654 Y181.706 E92.46016
G1 X168.294 Y166.346 E93.22151
G1 X168.890 Y166.346 E93.24238
G1 X183.654 Y181.110 E93.97421
G1 X183.654 Y180.515 E93.99509
G1 X169.485 Y166.346 E94.69740
G1 X170.081 Y166.346 E94.71827
G1 X183.654 Y179.919 E95.39107
G1 X183.654 Y179.324 E95.41194
G1 X170.676 Y166.346 E96.05522
G1 X171.272 Y166.346 E96.07609
G1 X183.654 Y178.728 E96.68986
G1 X183.654 Y178.133 E96.71073
G1 X171.867 Y166.346 E97.29497
G1 X172.463 Y166.346 E97.31584
G1 X183.654 Y177.537 E97.87057
G1 X183.654 Y176.942 E97.89144
G1 X173.058 Y166.346 E98.41665
G1 X173.654 Y166.346 E98.43752
G1 X183.654 Y176.346 E98.93321
G1 X183.654 Y175.751 E98.95409
G1 X174.249 Y166.346 E99.42026
G1 X174.845 Y166.346 E99.44113
G1 X183.654 Y175.155 E99.87779
G1 X183.654 Y174.560 E99.89866
G1 X175.440 Y166.346 E100.30580
G1 X176.036 Y166.346 E100.32667
G1 X183.654 Y173.964 E100.70429
G1 X183.654 Y173.369 E100.72516
G1 X176.631 Y166.346 E101.07327
G1 X177.227 Y166.346 E101.09414
G1 X183.654 Y172.773 E101.41272
G1 X183.654 Y172.178 E101.43359
G1 X177.822 Y166.346 E101.72266
G1 X178.418 Y166.346 E101.74353
G1 X183.654 Y171.582 E102.00308
G1 X183.654 Y170.987 E102.02396
G1 X179.013 Y166.346 E102.25399
G1 X179.609 Y166.346 E102.27486
G1 X183.654 Y170.391 E102.47537
G1 X183.654 Y169.796 E102.49625
G1 X180.204 Y166.346 E102.66724
G1 X180.800 Y166.346 E102.68811
G1 X183.654 Y169.200 E102.82959
G1 X183.654 Y168.605 E102.85047
G1 X181.395 Y166.346 E102.96243
G1 X181.991 Y166.346 E102.98330
G1 X183.654 Y168.009 E103.06574
G1 X183.654 Y167.414 E103.08661
G1 X182.586 Y166.346 E103.13954
G1 X183.182 Y166.346 E103.16041
G1 X183.844 Y167.008 E103.19321
; INIT stop printing object xyzCalibration_cube id:0 copy 0
M106 S86.7
;LAYER_CHANGE
;Z:0.9
;HEIGHT:0.2
@Objectstop xyzCalibration_cube id:0 copy 0
G1 Z0.900000 F7800
; INIT printing object xyzCalibration_cube id:0 copy 0
@Object xyzCalibration_cube id:0 copy 0
G1 X183.970 Y166.030
;TYPE:Internal perimeter
;WIDTH:0.464
G1 F4500
G1 X183.970 Y183.970 E103.82133
G1 X166.030 Y183.970 E104.44945
G1 X166.030 Y166.030 E105.07757
G1 X183.910 Y166.030 E105.70359
G1 X184.391 Y165.609 F7800
G1 F4500
G1 X184.391 Y184.391 E106.36120
G1 X165.609 Y184.391 E107.01881
G1 X165.609 Y165.609 E107.67641
G1 X184.331 Y165.609 E108.33192
G1 X184.790 Y165.210 F7800
;TYPE:External perimeter
;WIDTH:0.42
G1 F2250
G1 X184.790 Y184.790 E108.94584
G1 X165.210 Y184.790 E109.55976
G1 X165.210 Y165.210 E110.17367
G1 X184.730 Y165.210 E110.78571
G1 X184.590 Y165.556 F7800
G1 X183.767 Y168.109
;TYPE:Internal infill
;WIDTH:0.444
G1 F6000
G1 X179.571 Y183.767 E111.32630
G1 X181.023 Y183.767 F7800
G1 F6000
G1 X183.767 Y183.032 E111.42103
G1 X183.767 Y183.767 F7800
G1 F6000
G1 X166.233 Y166.233 E112.24799
G1 X166.233 Y166.968 F7800
G1 F6000
G1 X168.977 Y166.233 E112.34272
G1 X170.429 Y166.233 F7800
G1 F6000
G1 X166.233 Y181.891 E112.88331
G1 X166.233 Y180.809 F7800
G1 F6000
G1 X183.767 Y176.111 E113.48868
G1 X183.767 Y174.313 F7800
G1 F6000
G1 X175.687 Y166.233 E113.86977
G1 X177.349 Y166.233 F7800
G1 F6000
