; generated by SuperSlicer 2.3.56 on 2021-10-02 at 14:25:11 UTC

; 

; external perimeters extrusion width = 0.42mm
; perimeters extrusion width = 0.44mm
; infill extrusion width = 0.44mm
; solid infill extrusion width = 0.44mm
; top infill extrusion width = 0.44mm
; first layer extrusion width = 0.52mm

@Objectinfo chain-link.STL id:0 copy 0 X240.957696 Y178.965288
@Objectinfo CableChain_Double_Male (1).stl id:1 copy 0 X111.598786 Y180.542892
; plater:{"center":[174.071597,178.965288,0.000000],"boundingbox_center":[174.071597,178.965288,6.000019],"boundingbox_size":[159.482197,29.000000,12.000040]}

;TYPE:Custom
; custom gcode: start_gcode
START_PRINT BED_TEMP=65 EXTRUDER_TEMP=240
; custom gcode end: start_gcode
M107 ; disable fan
G21 ; set units to millimeters
G90 ; use absolute coordinates
M82 ; use absolute distances for extrusion
G92 E0 ; reset extrusion distance
; custom gcode: start_filament_gcode
; Filament gcode
; custom gcode end: start_filament_gcode
M104 S240 ; set temperature
M109 S240 ; set temperature and wait for it to be reached
M190 S65 ; set bed temperature and wait for it to be reached
M107 ; disable fan
;LAYER_CHANGE
;Z:0.3
;HEIGHT:0.3
G1 Z0.300000 F9000 ; move to next layer (0)
G1 E-0.80000 F2400 ; retract
G1 X93.1162 Y160.8346 F9000 ; move to first Skirt point
G1 E0.05000 F1800 ; unretract
;TYPE:Skirt
;WIDTH:0.44
G1 F1200
G1 X93.2439 Y160.7607 E0.05692 ; Skirt
G1 X94.3033 Y160.2887 E0.11125 ; Skirt
G1 X100.0744 Y158.2136 E0.39857 ; Skirt
G1 X101.3006 Y157.8681 E0.45825 ; Skirt
G1 X102.5099 Y157.6724 E0.51565 ; Skirt
G1 X103.7695 Y157.6091 E0.57473 ; Skirt
G1 X229.0332 Y156.6265 E6.44343 ; Skirt
G1 X252.8209 Y156.6262 E7.55787 ; Skirt
G1 X253.8977 Y156.6802 E7.60838 ; Skirt
G1 X254.9639 Y156.8399 E7.65889 ; Skirt
G1 X256.0093 Y157.1037 E7.70940 ; Skirt
G1 X257.0236 Y157.4692 E7.75991 ; Skirt
G1 X257.9970 Y157.9328 E7.81042 ; Skirt
G1 X258.9200 Y158.4899 E7.86093 ; Skirt
G1 X259.7838 Y159.1352 E7.91144 ; Skirt
G1 X260.5798 Y159.8623 E7.96195 ; Skirt
G1 X261.3822 Y160.7663 E8.01858 ; Skirt
G1 X262.2470 Y161.9629 E8.08775 ; Skirt
G1 X262.7866 Y162.8393 E8.13596 ; Skirt
G1 X263.2383 Y163.7549 E8.18380 ; Skirt
G1 X263.6279 Y164.7864 E8.23546 ; Skirt
G1 X263.9134 Y165.8599 E8.28749 ; Skirt
G1 X264.0877 Y166.9487 E8.33915 ; Skirt
G1 X264.1514 Y168.0495 E8.39081 ; Skirt
G1 X264.1516 Y181.1225 E9.00327 ; Skirt
G1 X264.0804 Y182.3127 E9.05913 ; Skirt
G1 X263.8231 Y183.7266 E9.12646 ; Skirt
G1 X261.1920 Y193.8196 E9.61511 ; Skirt
G1 X260.6603 Y195.1283 E9.68129 ; Skirt
G1 X259.9644 Y196.3576 E9.74747 ; Skirt
G1 X259.1159 Y197.4870 E9.81365 ; Skirt
G1 X258.1290 Y198.4976 E9.87983 ; Skirt
G1 X257.0200 Y199.3726 E9.94601 ; Skirt
G1 X255.8075 Y200.0974 E10.01219 ; Skirt
G1 X254.5117 Y200.6600 E10.07837 ; Skirt
G1 X253.1622 Y201.0490 E10.14417 ; Skirt
G1 X252.0910 Y201.2294 E10.19506 ; Skirt
G1 X251.0153 Y201.3025 E10.24557 ; Skirt
G1 X119.6783 Y203.4815 E16.39947 ; Skirt
G1 X103.1206 Y203.4531 E17.17519 ; Skirt
G1 X101.5885 Y203.2696 E17.24748 ; Skirt
G1 X100.1052 Y202.8750 E17.31939 ; Skirt
G1 X94.1909 Y200.7742 E17.61343 ; Skirt
G1 X93.1311 Y200.2834 E17.66815 ; Skirt
G1 X92.1365 Y199.6869 E17.72248 ; Skirt
G1 X91.3049 Y199.0669 E17.77108 ; Skirt
G1 X90.5357 Y198.3709 E17.81968 ; Skirt
G1 X89.8307 Y197.5989 E17.86866 ; Skirt
G1 X89.2072 Y196.7698 E17.91726 ; Skirt
G1 X88.6611 Y195.8783 E17.96624 ; Skirt
G1 X88.2058 Y194.9462 E18.01484 ; Skirt
G1 X87.8384 Y193.9674 E18.06382 ; Skirt
G1 X87.5678 Y192.9660 E18.11241 ; Skirt
G1 X87.3837 Y191.8623 E18.16484 ; Skirt
G1 X87.3134 Y190.7537 E18.21688 ; Skirt
G1 X87.2816 Y170.3083 E19.17473 ; Skirt
G1 X87.4885 Y168.3772 E19.26572 ; Skirt
G1 X88.0335 Y166.5131 E19.35671 ; Skirt
G1 X88.7695 Y164.9920 E19.43587 ; Skirt
G1 X89.7361 Y163.5962 E19.51542 ; Skirt
G1 X90.9071 Y162.3667 E19.59496 ; Skirt
G1 X92.2473 Y161.3377 E19.67412 ; Skirt
G1 X93.0642 Y160.8647 E19.71835 ; Skirt
G1 X93.2406 Y161.1715 F9000 ; move to first Skirt point
G1 F1200
G1 X93.4846 Y161.0313 E19.73153 ; Skirt
G1 X94.5129 Y160.5784 E19.78417 ; Skirt
G1 X100.2384 Y158.5544 E20.06868 ; Skirt
G1 X101.4058 Y158.2295 E20.12545 ; Skirt
G1 X102.5629 Y158.0445 E20.18034 ; Skirt
G1 X103.7725 Y157.9847 E20.23708 ; Skirt
G1 X229.0359 Y157.0021 E26.10577 ; Skirt
G1 X252.8207 Y157.0019 E27.22007 ; Skirt
G1 X253.8628 Y157.0542 E27.26896 ; Skirt
G1 X254.8868 Y157.2075 E27.31746 ; Skirt
G1 X255.8986 Y157.4626 E27.36635 ; Skirt
G1 X256.8802 Y157.8164 E27.41523 ; Skirt
G1 X257.8221 Y158.2652 E27.46411 ; Skirt
G1 X258.7152 Y158.8048 E27.51300 ; Skirt
G1 X259.5507 Y159.4298 E27.56188 ; Skirt
G1 X260.3204 Y160.1343 E27.61076 ; Skirt
G1 X261.0923 Y161.0052 E27.66528 ; Skirt
G1 X261.9385 Y162.1773 E27.73301 ; Skirt
G1 X262.4562 Y163.0179 E27.77926 ; Skirt
G1 X262.8964 Y163.9106 E27.82589 ; Skirt
G1 X263.2729 Y164.9094 E27.87590 ; Skirt
G1 X263.5467 Y165.9412 E27.92591 ; Skirt
G1 X263.7149 Y166.9953 E27.97592 ; Skirt
G1 X263.7759 Y168.0691 E28.02631 ; Skirt
G1 X263.7760 Y181.1135 E28.63743 ; Skirt
G1 X263.7075 Y182.2671 E28.69157 ; Skirt
G1 X263.4593 Y183.6329 E28.75660 ; Skirt
G1 X260.8493 Y193.6598 E29.24201 ; Skirt
G1 X260.3376 Y194.9329 E29.30629 ; Skirt
G1 X259.6652 Y196.1289 E29.37057 ; Skirt
G1 X258.8487 Y197.2216 E29.43448 ; Skirt
G1 X257.8922 Y198.2054 E29.49876 ; Skirt
G1 X256.8163 Y199.0568 E29.56304 ; Skirt
G1 X255.6390 Y199.7617 E29.62733 ; Skirt
G1 X254.3804 Y200.3080 E29.69161 ; Skirt
G1 X253.0616 Y200.6866 E29.75589 ; Skirt
G1 X252.0403 Y200.8571 E29.80440 ; Skirt
G1 X251.0073 Y200.9269 E29.85290 ; Skirt
G1 X119.6722 Y203.1060 E36.00671 ; Skirt
G1 X103.1496 Y203.0784 E36.78078 ; Skirt
G1 X101.6678 Y202.9024 E36.85069 ; Skirt
G1 X100.2331 Y202.5218 E36.92023 ; Skirt
G1 X94.3383 Y200.4286 E37.21330 ; Skirt
G1 X93.3253 Y199.9612 E37.26556 ; Skirt
G1 X92.3607 Y199.3850 E37.31820 ; Skirt
G1 X91.5492 Y198.7815 E37.36558 ; Skirt
G1 X90.8048 Y198.1088 E37.41259 ; Skirt
G1 X90.1225 Y197.3623 E37.45997 ; Skirt
G1 X89.5146 Y196.5540 E37.50735 ; Skirt
G1 X88.9869 Y195.6913 E37.55473 ; Skirt
G1 X88.5441 Y194.7820 E37.60211 ; Skirt
G1 X88.1902 Y193.8346 E37.64949 ; Skirt
G1 X87.9286 Y192.8577 E37.69687 ; Skirt
G1 X87.7561 Y191.8124 E37.74650 ; Skirt
G1 X87.6890 Y190.7470 E37.79651 ; Skirt
G1 X87.6571 Y170.3194 E38.75354 ; Skirt
G1 X87.8531 Y168.4693 E38.84070 ; Skirt
G1 X88.3736 Y166.6748 E38.92823 ; Skirt
G1 X89.0951 Y165.1793 E39.00602 ; Skirt
G1 X90.0523 Y163.7966 E39.08481 ; Skirt
G1 X91.1915 Y162.5997 E39.16222 ; Skirt
G1 X92.5035 Y161.5951 E39.23964 ; Skirt
G1 X93.1885 Y161.2014 E39.27665 ; Skirt
G1 X93.3747 Y161.5273 F9000 ; move to first Skirt point
G1 F1200
G1 X93.6723 Y161.3573 E39.29271 ; Skirt
G1 X94.6613 Y160.9239 E39.34330 ; Skirt
G1 X100.3616 Y158.9093 E39.62654 ; Skirt
G1 X101.5084 Y158.5917 E39.68229 ; Skirt
G1 X102.6139 Y158.4169 E39.73473 ; Skirt
G1 X103.7754 Y158.3603 E39.78921 ; Skirt
G1 X229.0385 Y157.3777 E45.65788 ; Skirt
G1 X252.8206 Y157.3775 E46.77205 ; Skirt
G1 X253.8282 Y157.4282 E46.81932 ; Skirt
G1 X254.8182 Y157.5768 E46.86622 ; Skirt
G1 X255.7963 Y157.8242 E46.91349 ; Skirt
G1 X256.7452 Y158.1671 E46.96076 ; Skirt
G1 X257.6486 Y158.5984 E47.00765 ; Skirt
G1 X258.5118 Y159.1207 E47.05492 ; Skirt
G1 X259.3191 Y159.7258 E47.10219 ; Skirt
G1 X260.0627 Y160.4078 E47.14946 ; Skirt
G1 X260.8089 Y161.2524 E47.20226 ; Skirt
G1 X261.6344 Y162.3980 E47.26841 ; Skirt
G1 X262.1374 Y163.2177 E47.31347 ; Skirt
G1 X262.5578 Y164.0738 E47.35815 ; Skirt
G1 X262.9205 Y165.0406 E47.40653 ; Skirt
G1 X263.1834 Y166.0391 E47.45490 ; Skirt
G1 X263.3448 Y167.0670 E47.50365 ; Skirt
G1 X263.4005 Y168.0980 E47.55202 ; Skirt
G1 X263.4004 Y181.1126 E48.16174 ; Skirt
G1 X263.3346 Y182.2220 E48.21381 ; Skirt
G1 X263.0935 Y183.5476 E48.27693 ; Skirt
G1 X260.5057 Y193.5016 E48.75877 ; Skirt
G1 X260.0139 Y194.7391 E48.82116 ; Skirt
G1 X259.3647 Y195.9019 E48.88355 ; Skirt
G1 X258.5746 Y196.9641 E48.94557 ; Skirt
G1 X257.6476 Y197.9201 E49.00796 ; Skirt
G1 X256.6038 Y198.7471 E49.07035 ; Skirt
G1 X255.4610 Y199.4309 E49.13274 ; Skirt
G1 X254.2388 Y199.9597 E49.19513 ; Skirt
G1 X252.9581 Y200.3246 E49.25752 ; Skirt
G1 X251.9860 Y200.4853 E49.30368 ; Skirt
G1 X250.9950 Y200.5515 E49.35021 ; Skirt
G1 X119.6661 Y202.7304 E55.50372 ; Skirt
G1 X103.1860 Y202.7041 E56.27581 ; Skirt
G1 X101.7540 Y202.5364 E56.34336 ; Skirt
G1 X100.3599 Y202.1682 E56.41090 ; Skirt
G1 X94.4926 Y200.0857 E56.70259 ; Skirt
G1 X93.5115 Y199.6347 E56.75317 ; Skirt
G1 X92.5902 Y199.0867 E56.80339 ; Skirt
G1 X91.8046 Y198.5052 E56.84919 ; Skirt
G1 X91.0727 Y197.8455 E56.89535 ; Skirt
G1 X90.4130 Y197.1243 E56.94114 ; Skirt
G1 X89.8210 Y196.3366 E56.98730 ; Skirt
G1 X89.3079 Y195.4955 E57.03346 ; Skirt
G1 X88.8816 Y194.6159 E57.07925 ; Skirt
G1 X88.5414 Y193.6996 E57.12504 ; Skirt
G1 X88.2907 Y192.7549 E57.17084 ; Skirt
G1 X88.1272 Y191.7513 E57.21847 ; Skirt
G1 X88.0645 Y190.7364 E57.26611 ; Skirt
G1 X88.0325 Y170.3381 E58.22176 ; Skirt
G1 X88.2196 Y168.5523 E58.30588 ; Skirt
G1 X88.7174 Y166.8272 E58.39000 ; Skirt
G1 X89.4175 Y165.3720 E58.46565 ; Skirt
G1 X90.3521 Y164.0233 E58.54252 ; Skirt
G1 X91.4623 Y162.8615 E58.61781 ; Skirt
G1 X92.7347 Y161.8929 E58.69273 ; Skirt
G1 X93.3226 Y161.5570 E58.72445 ; Skirt
; INIT printing object chain-link.STL id:0 copy 0
G92 E0 ; reset extrusion distance
G1 E-0.80000 F2400 ; retract
@Object chain-link.STL id:0 copy 0
G1 X230.1239 Y176.8494 F9000 ; move to first Internal perimeter point
G1 E0.05000 F1800 ; unretract
;TYPE:Internal perimeter
;WIDTH:0.52
G1 F1200
G1 X230.5320 Y177.1946 E0.08037 ; Internal perimeter
G1 X230.9864 Y177.4642 E0.11040 ; Internal perimeter
G1 X231.4793 Y177.6547 E0.14043 ; Internal perimeter
G1 X231.9969 Y177.7609 E0.17046 ; Internal perimeter
G1 X232.5251 Y177.7798 E0.20049 ; Internal perimeter
G1 X233.0516 Y177.7103 E0.23067 ; Internal perimeter
G1 X233.5545 Y177.5557 E0.26057 ; Internal perimeter
G1 X234.0283 Y177.3184 E0.29068 ; Internal perimeter
G1 X234.4625 Y176.9992 E0.32131 ; Internal perimeter
G1 X234.8228 Y176.6290 E0.35066 ; Internal perimeter
G1 X235.0958 Y176.2361 E0.37785 ; Internal perimeter
G1 X236.5664 Y173.6889 E0.54499 ; Internal perimeter
G1 X236.6606 Y173.5506 E0.55450 ; Internal perimeter
G1 X236.7446 Y173.4602 E0.56151 ; Internal perimeter
G1 X236.8410 Y173.3832 E0.56852 ; Internal perimeter
G1 X236.9479 Y173.3216 E0.57554 ; Internal perimeter
G1 X237.0627 Y173.2765 E0.58255 ; Internal perimeter
G1 X237.1830 Y173.2490 E0.58956 ; Internal perimeter
G1 X237.3499 Y173.2365 E0.59907 ; Internal perimeter
G1 X244.5655 Y173.2365 E1.00911 ; Internal perimeter
G1 X244.7324 Y173.2490 E1.01862 ; Internal perimeter
G1 X244.8527 Y173.2765 E1.02563 ; Internal perimeter
G1 X244.9675 Y173.3216 E1.03265 ; Internal perimeter
G1 X245.0744 Y173.3832 E1.03966 ; Internal perimeter
G1 X245.1708 Y173.4602 E1.04667 ; Internal perimeter
G1 X245.2547 Y173.5506 E1.05368 ; Internal perimeter
G1 X245.3490 Y173.6889 E1.06319 ; Internal perimeter
G1 X246.8196 Y176.2359 E1.23032 ; Internal perimeter
G1 X247.0930 Y176.6297 E1.25757 ; Internal perimeter
G1 X247.4624 Y177.0080 E1.28761 ; Internal perimeter
G1 X247.8902 Y177.3200 E1.31770 ; Internal perimeter
G1 X248.2963 Y177.5238 E1.34353 ; Internal perimeter
G1 X248.4010 Y177.5684 E1.34999 ; Internal perimeter
G1 X248.8671 Y177.7108 E1.37769 ; Internal perimeter
G1 X249.3904 Y177.7797 E1.40768 ; Internal perimeter
G1 X249.9185 Y177.7609 E1.43771 ; Internal perimeter
G1 X250.4361 Y177.6547 E1.46774 ; Internal perimeter
G1 X250.9290 Y177.4642 E1.49777 ; Internal perimeter
G1 X251.3834 Y177.1946 E1.52779 ; Internal perimeter
G1 X251.7915 Y176.8494 E1.55817 ; Internal perimeter
G1 X251.7915 Y180.2921 E1.75381 ; Internal perimeter
G1 X251.4725 Y180.3172 E1.77199 ; Internal perimeter
G1 X251.1406 Y180.3969 E1.79138 ; Internal perimeter
G1 X250.8253 Y180.5275 E1.81078 ; Internal perimeter
G1 X250.5343 Y180.7058 E1.83017 ; Internal perimeter
G1 X250.2748 Y180.9274 E1.84956 ; Internal perimeter
G1 X250.0532 Y181.1869 E1.86896 ; Internal perimeter
G1 X249.8749 Y181.4779 E1.88835 ; Internal perimeter
G1 X249.7443 Y181.7932 E1.90775 ; Internal perimeter
G1 X249.6646 Y182.1251 E1.92714 ; Internal perimeter
G1 X249.6415 Y182.4193 E1.94391 ; Internal perimeter
G1 X249.6415 Y188.9441 E2.31470 ; Internal perimeter
G1 X248.0775 Y188.9441 E2.40357 ; Internal perimeter
G1 X247.8532 Y188.8808 E2.41681 ; Internal perimeter
G1 X247.6089 Y188.8322 E2.43097 ; Internal perimeter
G1 X247.3616 Y188.8029 E2.44512 ; Internal perimeter
G1 X247.1357 Y188.7941 E2.45797 ; Internal perimeter
G1 X234.7797 Y188.7941 E3.16013 ; Internal perimeter
G1 X234.5538 Y188.8029 E3.17298 ; Internal perimeter
G1 X234.3065 Y188.8322 E3.18713 ; Internal perimeter
G1 X234.0622 Y188.8808 E3.20128 ; Internal perimeter
G1 X233.8379 Y188.9441 E3.21453 ; Internal perimeter
G1 X232.2739 Y188.9441 E3.30340 ; Internal perimeter
G1 X232.2739 Y182.4193 E3.67419 ; Internal perimeter
G1 X232.2508 Y182.1251 E3.69096 ; Internal perimeter
G1 X232.1711 Y181.7932 E3.71035 ; Internal perimeter
G1 X232.0405 Y181.4779 E3.72975 ; Internal perimeter
G1 X231.8622 Y181.1869 E3.74914 ; Internal perimeter
G1 X231.6405 Y180.9274 E3.76853 ; Internal perimeter
G1 X231.3810 Y180.7058 E3.78793 ; Internal perimeter
G1 X231.0901 Y180.5275 E3.80732 ; Internal perimeter
G1 X230.7748 Y180.3969 E3.82671 ; Internal perimeter
G1 X230.4429 Y180.3172 E3.84611 ; Internal perimeter
G1 X230.1239 Y180.2921 E3.86429 ; Internal perimeter
G1 X230.1239 Y176.9094 E4.05652 ; Internal perimeter
G92 E0 ; reset extrusion distance
G1 E-0.80000 F2400 ; retract
G1 X229.6683 Y180.7497 F9000 ; move to first Internal perimeter point
G1 E0.05000 F1800 ; unretract
G1 F1200
G1 X229.6683 Y175.7429 E0.33452 ; Internal perimeter
G1 X230.4747 Y176.5494 E0.39933 ; Internal perimeter
G1 X230.7972 Y176.8221 E0.42333 ; Internal perimeter
G1 X231.1862 Y177.0529 E0.44903 ; Internal perimeter
G1 X231.6081 Y177.2160 E0.47474 ; Internal perimeter
G1 X232.0512 Y177.3069 E0.50044 ; Internal perimeter
G1 X232.5033 Y177.3231 E0.52615 ; Internal perimeter
G1 X232.9542 Y177.2636 E0.55200 ; Internal perimeter
G1 X233.3844 Y177.1313 E0.57757 ; Internal perimeter
G1 X233.7896 Y176.9284 E0.60333 ; Internal perimeter
G1 X234.1623 Y176.6544 E0.62961 ; Internal perimeter
G1 X234.4701 Y176.3381 E0.65469 ; Internal perimeter
G1 X234.7107 Y175.9918 E0.67866 ; Internal perimeter
G1 X236.1803 Y173.4463 E0.84569 ; Internal perimeter
G1 X236.3034 Y173.2657 E0.85811 ; Internal perimeter
G1 X236.4338 Y173.1252 E0.86900 ; Internal perimeter
G1 X236.5836 Y173.0057 E0.87989 ; Internal perimeter
G1 X236.7496 Y172.9099 E0.89078 ; Internal perimeter
G1 X236.9280 Y172.8399 E0.90167 ; Internal perimeter
G1 X237.1149 Y172.7972 E0.91256 ; Internal perimeter
G1 X237.3328 Y172.7809 E0.92498 ; Internal perimeter
G1 X244.5826 Y172.7809 E1.33697 ; Internal perimeter
G1 X244.8005 Y172.7972 E1.34939 ; Internal perimeter
G1 X244.9873 Y172.8399 E1.36028 ; Internal perimeter
G1 X245.1658 Y172.9099 E1.37117 ; Internal perimeter
G1 X245.3318 Y173.0057 E1.38206 ; Internal perimeter
G1 X245.4816 Y173.1252 E1.39295 ; Internal perimeter
G1 X245.6120 Y173.2657 E1.40384 ; Internal perimeter
G1 X245.7351 Y173.4463 E1.41626 ; Internal perimeter
G1 X247.2046 Y175.9917 E1.58329 ; Internal perimeter
G1 X247.4455 Y176.3386 E1.60729 ; Internal perimeter
G1 X247.7617 Y176.6624 E1.63301 ; Internal perimeter
G1 X248.1282 Y176.9297 E1.65878 ; Internal perimeter
G1 X248.4880 Y177.1102 E1.68166 ; Internal perimeter
G1 X248.5574 Y177.1398 E1.68594 ; Internal perimeter
G1 X248.9641 Y177.2641 E1.71011 ; Internal perimeter
G1 X249.4122 Y177.3231 E1.73580 ; Internal perimeter
G1 X249.8642 Y177.3069 E1.76150 ; Internal perimeter
G1 X250.3073 Y177.2160 E1.78720 ; Internal perimeter
G1 X250.7292 Y177.0529 E1.81291 ; Internal perimeter
G1 X251.1182 Y176.8221 E1.83861 ; Internal perimeter
G1 X251.4407 Y176.5494 E1.86261 ; Internal perimeter
G1 X252.2471 Y175.7429 E1.92742 ; Internal perimeter
G1 X252.2471 Y180.7497 E2.21194 ; Internal perimeter
G1 X251.7846 Y180.7497 E2.23822 ; Internal perimeter
