; generated by SuperSlicer 2.3.56 on 2021-10-02 at 16:18:35 UTC

; 

; external perimeters extrusion width = 0.42mm
; perimeters extrusion width = 0.44mm
; infill extrusion width = 0.44mm
; solid infill extrusion width = 0.44mm
; top infill extrusion width = 0.44mm
; first layer extrusion width = 0.52mm

@Objectinfo C:/Users/Will/AppData/Local/Temp/Neutron/DragChainBody.stl id:0 copy 0 X175.0 Y175.0
; plater:{"center":[175.000000,175.000000,0.000000],"boundingbox_center":[175.000000,175.000000,7.500000],"boundingbox_size":[29.998101,19.000000,15.000000]}

;TYPE:Custom
; custom gcode: start_gcode
START_PRINT BED_TEMP=65 EXTRUDER_TEMP=240
; custom gcode end: start_gcode
M107 ; disable fan
G21 ; set units to millimeters
G90 ; use absolute coordinates
M82 ; use absolute distances for extrusion
G92 E0 ; reset extrusion distance
; custom gcode: start_filament_gcode
; Filament gcode
; custom gcode end: start_filament_gcode
M104 S240 ; set temperature
M109 S240 ; set temperature and wait for it to be reached
M190 S65 ; set bed temperature and wait for it to be reached
M107 ; disable fan
;LAYER_CHANGE
;Z:0.3
;HEIGHT:0.3
G1 Z0.300000 F9000 ; move to next layer (0)
G1 E-0.80000 F2400 ; retract
G1 X155.5242 Y157.8764 F9000 ; move to first Skirt point
G1 E0.05000 F1800 ; unretract
;TYPE:Skirt
;WIDTH:0.44
G1 F1200
G1 X155.8181 Y157.5868 E0.06933 ; Skirt
G1 X156.7818 Y156.8304 E0.12672 ; Skirt
G1 X157.7737 Y156.2139 E0.18144 ; Skirt
G1 X158.8258 Y155.7068 E0.23616 ; Skirt
G1 X160.0858 Y155.2453 E0.29902 ; Skirt
G1 X161.5069 Y154.8559 E0.36805 ; Skirt
G1 X162.6922 Y154.6448 E0.42446 ; Skirt
G1 X163.8654 Y154.5624 E0.47956 ; Skirt
G1 X179.7072 Y154.5610 E1.22174 ; Skirt
G1 X181.3757 Y154.6902 E1.30014 ; Skirt
G1 X188.9482 Y155.9942 E1.66013 ; Skirt
G1 X190.1383 Y156.2847 E1.71752 ; Skirt
G1 X191.2810 Y156.7031 E1.77453 ; Skirt
G1 X192.9827 Y157.6221 E1.86513 ; Skirt
G1 X194.4900 Y158.8208 E1.95536 ; Skirt
G1 X195.7638 Y160.2653 E2.04559 ; Skirt
G1 X196.7645 Y161.9108 E2.13581 ; Skirt
G1 X197.2047 Y162.9306 E2.18785 ; Skirt
G1 X197.5392 Y163.9898 E2.23989 ; Skirt
G1 X197.7633 Y165.0695 E2.29155 ; Skirt
G1 X197.8780 Y166.1743 E2.34359 ; Skirt
G1 X197.8925 Y183.3644 E3.14893 ; Skirt
G1 X197.7922 Y184.7326 E3.21320 ; Skirt
G1 X197.5214 Y186.0774 E3.27747 ; Skirt
G1 X197.0844 Y187.3778 E3.34174 ; Skirt
G1 X196.4881 Y188.6133 E3.40601 ; Skirt
G1 X195.5027 Y190.0752 E3.48861 ; Skirt
G1 X194.2953 Y191.3599 E3.57121 ; Skirt
G1 X192.8971 Y192.4339 E3.65380 ; Skirt
G1 X191.3446 Y193.2693 E3.73640 ; Skirt
G1 X190.2514 Y193.6803 E3.79112 ; Skirt
G1 X189.1286 Y193.9707 E3.84545 ; Skirt
G1 X181.1283 Y195.3453 E4.22575 ; Skirt
G1 X179.7433 Y195.4390 E4.29078 ; Skirt
G1 X163.2927 Y195.4132 E5.06148 ; Skirt
G1 X162.0130 Y195.2489 E5.12193 ; Skirt
G1 X160.5294 Y194.8905 E5.19344 ; Skirt
G1 X158.9330 Y194.3374 E5.27259 ; Skirt
G1 X157.6822 Y193.7352 E5.33762 ; Skirt
G1 X156.6100 Y193.0472 E5.39731 ; Skirt
G1 X155.6190 Y192.2337 E5.45737 ; Skirt
G1 X154.7354 Y191.3160 E5.51706 ; Skirt
G1 X153.9644 Y190.3018 E5.57674 ; Skirt
G1 X153.3165 Y189.2049 E5.63643 ; Skirt
G1 X152.8006 Y188.0401 E5.69611 ; Skirt
G1 X152.4236 Y186.8232 E5.75580 ; Skirt
G1 X152.1896 Y185.5626 E5.81586 ; Skirt
G1 X152.1045 Y184.2424 E5.87784 ; Skirt
G1 X152.1194 Y165.2283 E6.76864 ; Skirt
G1 X152.2572 Y163.9782 E6.82756 ; Skirt
G1 X152.5376 Y162.7522 E6.88648 ; Skirt
G1 X152.9568 Y161.5665 E6.94540 ; Skirt
G1 X153.5094 Y160.4367 E7.00432 ; Skirt
G1 X154.1689 Y159.4044 E7.06171 ; Skirt
G1 X154.9396 Y158.4522 E7.11910 ; Skirt
G1 X155.4814 Y157.9185 E7.15473 ; Skirt
G1 X155.7434 Y158.1876 F9000 ; move to first Skirt point
G1 F1200
G1 X156.1127 Y157.8281 E7.17888 ; Skirt
G1 X157.0515 Y157.1005 E7.23452 ; Skirt
G1 X158.0094 Y156.5132 E7.28716 ; Skirt
G1 X159.0243 Y156.0311 E7.33980 ; Skirt
G1 X160.2358 Y155.5918 E7.40018 ; Skirt
G1 X161.6569 Y155.2074 E7.46915 ; Skirt
G1 X162.7774 Y155.0128 E7.52243 ; Skirt
G1 X163.8824 Y154.9378 E7.57432 ; Skirt
G1 X179.7071 Y154.9366 E8.31569 ; Skirt
G1 X181.3226 Y155.0621 E8.39161 ; Skirt
G1 X188.8662 Y156.3611 E8.75022 ; Skirt
G1 X190.0128 Y156.6391 E8.80549 ; Skirt
G1 X191.1137 Y157.0400 E8.86039 ; Skirt
G1 X192.7594 Y157.9248 E8.94792 ; Skirt
G1 X194.2293 Y159.0912 E9.03583 ; Skirt
G1 X195.4696 Y160.4993 E9.12374 ; Skirt
G1 X196.4412 Y162.1046 E9.21165 ; Skirt
G1 X196.8616 Y163.0858 E9.26166 ; Skirt
G1 X197.1809 Y164.1044 E9.31167 ; Skirt
G1 X197.3956 Y165.1501 E9.36168 ; Skirt
G1 X197.5042 Y166.2201 E9.41207 ; Skirt
G1 X197.5168 Y183.3704 E10.21555 ; Skirt
G1 X197.4166 Y184.7067 E10.27833 ; Skirt
G1 X197.1501 Y186.0118 E10.34074 ; Skirt
G1 X196.7214 Y187.2730 E10.40314 ; Skirt
G1 X196.1335 Y188.4772 E10.46592 ; Skirt
G1 X195.1709 Y189.8886 E10.54596 ; Skirt
G1 X193.9933 Y191.1263 E10.62600 ; Skirt
G1 X192.6315 Y192.1580 E10.70604 ; Skirt
G1 X191.1287 Y192.9535 E10.78570 ; Skirt
G1 X190.0974 Y193.3349 E10.83722 ; Skirt
G1 X189.0320 Y193.6070 E10.88873 ; Skirt
G1 X181.0401 Y194.9780 E11.26862 ; Skirt
G1 X179.7349 Y195.0634 E11.32989 ; Skirt
G1 X163.3218 Y195.0387 E12.09884 ; Skirt
G1 X162.0249 Y194.8687 E12.16012 ; Skirt
G1 X160.5011 Y194.4898 E12.23368 ; Skirt
G1 X159.0070 Y193.9618 E12.30792 ; Skirt
G1 X157.8176 Y193.3802 E12.36995 ; Skirt
G1 X156.7811 Y192.7070 E12.42785 ; Skirt
G1 X155.8363 Y191.9229 E12.48537 ; Skirt
G1 X154.9889 Y191.0344 E12.54289 ; Skirt
G1 X154.2458 Y190.0469 E12.60079 ; Skirt
G1 X153.6231 Y188.9794 E12.65869 ; Skirt
G1 X153.1322 Y187.8540 E12.71621 ; Skirt
G1 X152.7732 Y186.6714 E12.77411 ; Skirt
G1 X152.5558 Y185.4630 E12.83164 ; Skirt
G1 X152.4801 Y184.2294 E12.88953 ; Skirt
G1 X152.4946 Y165.2462 E13.77889 ; Skirt
G1 X152.6301 Y164.0259 E13.83641 ; Skirt
G1 X152.9063 Y162.8295 E13.89393 ; Skirt
G1 X153.3195 Y161.6733 E13.95146 ; Skirt
G1 X153.8640 Y160.5728 E14.00898 ; Skirt
G1 X154.5089 Y159.5754 E14.06462 ; Skirt
G1 X155.2616 Y158.6566 E14.12027 ; Skirt
G1 X155.7004 Y158.2295 E14.14896 ; Skirt
G1 X155.9601 Y158.5000 F9000 ; move to first Skirt point
G1 F1200
G1 X156.4140 Y158.0643 E14.17843 ; Skirt
G1 X157.3221 Y157.3705 E14.23197 ; Skirt
G1 X158.2464 Y156.8123 E14.28256 ; Skirt
G1 X159.2246 Y156.3550 E14.33315 ; Skirt
G1 X160.3913 Y155.9368 E14.39121 ; Skirt
G1 X161.7970 Y155.5615 E14.45938 ; Skirt
G1 X162.8459 Y155.3829 E14.50922 ; Skirt
G1 X163.8997 Y155.3132 E14.55870 ; Skirt
G1 X179.7069 Y155.3122 E15.29926 ; Skirt
G1 X181.2699 Y155.4340 E15.37270 ; Skirt
G1 X188.7926 Y156.7295 E15.73032 ; Skirt
G1 X189.8882 Y156.9938 E15.78313 ; Skirt
G1 X190.9406 Y157.3746 E15.83556 ; Skirt
G1 X192.5445 Y158.2330 E15.92078 ; Skirt
G1 X193.9758 Y159.3684 E16.00638 ; Skirt
G1 X195.1766 Y160.7349 E16.09160 ; Skirt
G1 X196.1153 Y162.2931 E16.17683 ; Skirt
G1 X196.5167 Y163.2360 E16.22483 ; Skirt
G1 X196.8232 Y164.2220 E16.27321 ; Skirt
G1 X197.0284 Y165.2339 E16.32158 ; Skirt
G1 X197.1298 Y166.2536 E16.36959 ; Skirt
G1 X197.1410 Y183.3841 E17.17214 ; Skirt
G1 X197.0410 Y184.6804 E17.23305 ; Skirt
G1 X196.7766 Y185.9535 E17.29397 ; Skirt
G1 X196.3523 Y187.1825 E17.35488 ; Skirt
G1 X195.7788 Y188.3407 E17.41543 ; Skirt
G1 X194.8437 Y189.6956 E17.49256 ; Skirt
G1 X193.6966 Y190.8874 E17.57005 ; Skirt
G1 X192.3785 Y191.8737 E17.64718 ; Skirt
G1 X190.9187 Y192.6347 E17.72431 ; Skirt
G1 X189.9408 Y192.9902 E17.77305 ; Skirt
G1 X188.9318 Y193.2440 E17.82179 ; Skirt
G1 X180.9531 Y194.6103 E18.20103 ; Skirt
G1 X179.7261 Y194.6878 E18.25863 ; Skirt
G1 X163.3426 Y194.6636 E19.02619 ; Skirt
G1 X162.0848 Y194.4977 E19.08563 ; Skirt
G1 X160.5866 Y194.1233 E19.15798 ; Skirt
G1 X159.1200 Y193.6020 E19.23090 ; Skirt
G1 X157.9544 Y193.0257 E19.29181 ; Skirt
G1 X156.9663 Y192.3768 E19.34720 ; Skirt
G1 X156.0543 Y191.6123 E19.40295 ; Skirt
G1 X155.2427 Y190.7528 E19.45833 ; Skirt
G1 X154.5318 Y189.7984 E19.51408 ; Skirt
G1 X153.9370 Y188.7677 E19.56984 ; Skirt
G1 X153.4665 Y187.6746 E19.62559 ; Skirt
G1 X153.1267 Y186.5341 E19.68134 ; Skirt
G1 X152.9230 Y185.3696 E19.73673 ; Skirt
G1 X152.8557 Y184.2288 E19.79026 ; Skirt
G1 X152.8698 Y165.2640 E20.67875 ; Skirt
G1 X153.0030 Y164.0736 E20.73487 ; Skirt
G1 X153.2751 Y162.9070 E20.79099 ; Skirt
G1 X153.6822 Y161.7803 E20.84711 ; Skirt
G1 X154.2187 Y160.7093 E20.90324 ; Skirt
G1 X154.8491 Y159.7466 E20.95714 ; Skirt
G1 X155.5839 Y158.8612 E21.01105 ; Skirt
G1 X155.9169 Y158.5416 E21.03267 ; Skirt
; INIT printing object C:/Users/Will/AppData/Local/Temp/Neutron/DragChainBody.stl id:0 copy 0
G92 E0 ; reset extrusion distance
G1 E-0.80000 F2400 ; retract
@Object C:/Users/Will/AppData/Local/Temp/Neutron/DragChainBody.stl id:0 copy 0
G1 X171.1703 Y166.8212 F9000 ; move to first Internal perimeter point
G1 E0.05000 F1800 ; unretract
;TYPE:Internal perimeter
;WIDTH:0.52
G1 F1200
G1 X178.8278 Y166.8212 E0.48516 ; Internal perimeter
G1 X178.8278 Y172.7383 E0.82141 ; Internal perimeter
G1 X178.4655 Y172.7981 E0.84228 ; Internal perimeter
G1 X178.3534 Y172.4678 E0.86210 ; Internal perimeter
G1 X178.2372 Y172.2323 E0.87702 ; Internal perimeter
G1 X178.0914 Y172.0140 E0.89194 ; Internal perimeter
G1 X177.9183 Y171.8166 E0.90686 ; Internal perimeter
G1 X177.7209 Y171.6435 E0.92178 ; Internal perimeter
G1 X177.5026 Y171.4977 E0.93670 ; Internal perimeter
G1 X177.2671 Y171.3815 E0.95162 ; Internal perimeter
G1 X177.0185 Y171.2971 E0.96654 ; Internal perimeter
G1 X176.7610 Y171.2459 E0.98145 ; Internal perimeter
G1 X176.5374 Y171.2313 E0.99419 ; Internal perimeter
G1 X175.4607 Y171.2313 E1.05538 ; Internal perimeter
G1 X175.2371 Y171.2459 E1.06811 ; Internal perimeter
G1 X174.9796 Y171.2971 E1.08303 ; Internal perimeter
G1 X174.7310 Y171.3815 E1.09795 ; Internal perimeter
G1 X174.4955 Y171.4977 E1.11287 ; Internal perimeter
G1 X174.2772 Y171.6435 E1.12779 ; Internal perimeter
G1 X174.0798 Y171.8166 E1.14271 ; Internal perimeter
G1 X173.9067 Y172.0140 E1.15763 ; Internal perimeter
G1 X173.7609 Y172.2323 E1.17255 ; Internal perimeter
G1 X173.6447 Y172.4678 E1.18747 ; Internal perimeter
G1 X173.5604 Y172.7164 E1.20239 ; Internal perimeter
G1 X173.5091 Y172.9739 E1.21731 ; Internal perimeter
G1 X173.4945 Y173.1975 E1.23004 ; Internal perimeter
G1 X173.4945 Y183.1788 E1.79725 ; Internal perimeter
G1 X171.1703 Y183.1788 E1.92933 ; Internal perimeter
G1 X171.1703 Y166.8812 E2.85547 ; Internal perimeter
G1 X170.7147 Y166.3656 F9000 ; move to first Internal perimeter point
G1 F1200
G1 X179.2834 Y166.3656 E3.34241 ; Internal perimeter
G1 X179.2834 Y183.6344 E4.32375 ; Internal perimeter
G1 X178.0480 Y183.6344 E4.39396 ; Internal perimeter
G1 X178.0480 Y173.2124 E4.98621 ; Internal perimeter
G1 X178.0363 Y173.0335 E4.99640 ; Internal perimeter
G1 X177.9967 Y172.8345 E5.00793 ; Internal perimeter
G1 X177.9315 Y172.6425 E5.01945 ; Internal perimeter
G1 X177.8418 Y172.4606 E5.03098 ; Internal perimeter
G1 X177.7291 Y172.2920 E5.04250 ; Internal perimeter
G1 X177.5954 Y172.1395 E5.05403 ; Internal perimeter
G1 X177.4429 Y172.0058 E5.06556 ; Internal perimeter
G1 X177.2743 Y171.8931 E5.07708 ; Internal perimeter
G1 X177.0924 Y171.8034 E5.08861 ; Internal perimeter
G1 X176.9003 Y171.7382 E5.10013 ; Internal perimeter
G1 X176.7014 Y171.6986 E5.11166 ; Internal perimeter
G1 X176.5225 Y171.6869 E5.12185 ; Internal perimeter
G1 X175.4756 Y171.6869 E5.18134 ; Internal perimeter
G1 X175.2967 Y171.6986 E5.19153 ; Internal perimeter
G1 X175.0978 Y171.7382 E5.20305 ; Internal perimeter
G1 X174.9057 Y171.8034 E5.21458 ; Internal perimeter
G1 X174.7238 Y171.8931 E5.22610 ; Internal perimeter
G1 X174.5552 Y172.0058 E5.23763 ; Internal perimeter
G1 X174.4027 Y172.1395 E5.24916 ; Internal perimeter
G1 X174.2690 Y172.2920 E5.26068 ; Internal perimeter
G1 X174.1563 Y172.4606 E5.27221 ; Internal perimeter
G1 X174.0666 Y172.6425 E5.28373 ; Internal perimeter
G1 X174.0014 Y172.8345 E5.29526 ; Internal perimeter
G1 X173.9618 Y173.0335 E5.30678 ; Internal perimeter
G1 X173.9501 Y173.2124 E5.31697 ; Internal perimeter
G1 X173.9501 Y183.6344 E5.90923 ; Internal perimeter
G1 X170.7147 Y183.6344 E6.09309 ; Internal perimeter
G1 X170.7147 Y166.4256 E7.07102 ; Internal perimeter
G1 X170.2591 Y166.4256 F9000 ; move to first External perimeter point
;TYPE:External perimeter
G1 F1200
G1 X170.2591 Y166.2900 E7.07872 ; External perimeter
G1 X164.0512 Y166.2900 E7.43150 ; External perimeter
G1 X164.0512 Y166.0084 E7.44750 ; External perimeter
G1 X164.2240 Y165.9750 E7.45751 ; External perimeter
G1 X164.4830 Y165.9390 E7.47237 ; External perimeter
G1 X164.7413 Y165.9173 E7.48709 ; External perimeter
G1 X165.0027 Y165.9100 E7.50195 ; External perimeter
G1 X179.7391 Y165.9100 E8.33938 ; External perimeter
G1 X179.7391 Y167.0100 E8.40189 ; External perimeter
G1 X185.9470 Y167.0100 E8.75467 ; External perimeter
G1 X185.9470 Y167.7400 E8.79616 ; External perimeter
G1 X179.7391 Y167.7400 E9.14894 ; External perimeter
G1 X179.7391 Y182.2600 E9.97407 ; External perimeter
G1 X185.9470 Y182.2600 E10.32686 ; External perimeter
G1 X185.9470 Y182.9900 E10.36834 ; External perimeter
G1 X179.7391 Y182.9900 E10.72112 ; External perimeter
G1 X179.7391 Y184.0900 E10.78363 ; External perimeter
G1 X177.5924 Y184.0900 E10.90562 ; External perimeter
G1 X177.5924 Y173.2273 E11.52292 ; External perimeter
G1 X177.5836 Y173.0931 E11.53057 ; External perimeter
G1 X177.5557 Y172.9527 E11.53870 ; External perimeter
G1 X177.5097 Y172.8172 E11.54683 ; External perimeter
G1 X177.4464 Y172.6889 E11.55496 ; External perimeter
G1 X177.3669 Y172.5699 E11.56309 ; External perimeter
G1 X177.2725 Y172.4623 E11.57122 ; External perimeter
G1 X177.1650 Y172.3680 E11.57935 ; External perimeter
G1 X177.0460 Y172.2885 E11.58748 ; External perimeter
G1 X176.9177 Y172.2252 E11.59562 ; External perimeter
G1 X176.7822 Y172.1792 E11.60375 ; External perimeter
G1 X176.6418 Y172.1513 E11.61188 ; External perimeter
G1 X176.5076 Y172.1425 E11.61952 ; External perimeter
G1 X175.4905 Y172.1425 E11.67732 ; External perimeter
G1 X175.3563 Y172.1513 E11.68497 ; External perimeter
G1 X175.2159 Y172.1792 E11.69310 ; External perimeter
G1 X175.0804 Y172.2252 E11.70123 ; External perimeter
G1 X174.9521 Y172.2885 E11.70936 ; External perimeter
G1 X174.8331 Y172.3680 E11.71749 ; External perimeter
G1 X174.7256 Y172.4623 E11.72562 ; External perimeter
G1 X174.6312 Y172.5699 E11.73375 ; External perimeter
G1 X174.5517 Y172.6889 E11.74189 ; External perimeter
G1 X174.4884 Y172.8172 E11.75002 ; External perimeter
G1 X174.4424 Y172.9527 E11.75815 ; External perimeter
G1 X174.4145 Y173.0931 E11.76628 ; External perimeter
G1 X174.4057 Y173.2273 E11.77393 ; External perimeter
G1 X174.4057 Y184.0900 E12.39122 ; External perimeter
G1 X165.0027 Y184.0900 E12.92557 ; External perimeter
G1 X164.7413 Y184.0827 E12.94043 ; External perimeter
G1 X164.4830 Y184.0610 E12.95516 ; External perimeter
G1 X164.2240 Y184.0250 E12.97002 ; External perimeter
G1 X164.0512 Y183.9916 E12.98002 ; External perimeter
G1 X164.0512 Y183.7100 E12.99603 ; External perimeter
G1 X170.2591 Y183.7100 E13.34880 ; External perimeter
G1 X170.2591 Y166.4856 E14.32762 ; External perimeter
G1 X170.3765 Y166.3578 F9000 ; move inwards before travel
G92 E0 ; reset extrusion distance
G1 E-0.80000 F2400 ; retract
G1 X178.6911 Y167.8789 F9000 ; move to first Solid infill point
G1 E0.05000 F1800 ; unretract
;TYPE:Solid infill
;WIDTH:0.522689
G1 F1200
G1 X177.9751 Y167.1629 E0.10784 ; Solid infill
G1 X177.3308 Y167.1629 E0.14464 ; Solid infill
G1 X178.4861 Y168.3182 E0.23797 ; Solid infill
G1 X178.4861 Y168.9626 E0.27478 ; Solid infill
G1 X176.6865 Y167.1629 E0.42016 ; Solid infill
G1 X176.0421 Y167.1629 E0.45696 ; Solid infill
G1 X178.4861 Y169.6069 E0.65439 ; Solid infill
G1 X178.4861 Y170.2513 E0.69120 ; Solid infill
G1 X175.3978 Y167.1629 E0.94068 ; Solid infill
G1 X174.7534 Y167.1629 E0.97748 ; Solid infill
G1 X178.4861 Y170.8956 E1.27902 ; Solid infill
G1 X178.4861 Y171.5400 E1.31582 ; Solid infill
G1 X174.1091 Y167.1629 E1.66940 ; Solid infill
G1 X173.4647 Y167.1629 E1.70621 ; Solid infill
G1 X177.3509 Y171.0491 E2.02014 ; Solid infill
G1 X177.1072 Y170.9664 E2.03485 ; Solid infill
G1 X176.7966 Y170.9046 E2.05293 ; Solid infill
