; generated by SuperSlicer 2.3.56 on 2021-10-02 at 12:18:53 UTC

; 

; external perimeters extrusion width = 0.42mm
; perimeters extrusion width = 0.44mm
; infill extrusion width = 0.44mm
; solid infill extrusion width = 0.44mm
; top infill extrusion width = 0.44mm
; first layer extrusion width = 0.52mm

@Objectinfo center_original.STL id:0 copy 0 X175.0 Y175.0
; plater:{"center":[175.000000,175.000000,0.000000],"boundingbox_center":[175.000000,175.000000,7.500002],"boundingbox_size":[35.000000,25.000000,15.000004]}

;TYPE:Custom
; custom gcode: start_gcode
START_PRINT BED_TEMP=65 EXTRUDER_TEMP=240
; custom gcode end: start_gcode
M107 ; disable fan
G21 ; set units to millimeters
G90 ; use absolute coordinates
M82 ; use absolute distances for extrusion
G92 E0 ; reset extrusion distance
; custom gcode: start_filament_gcode
; Filament gcode
; custom gcode end: start_filament_gcode
M109 S240 ; set temperature and wait for it to be reached
M190 S65 ; set bed temperature and wait for it to be reached
;LAYER_CHANGE
;Z:0.3
;HEIGHT:0.3
G1 Z0.300000 F9000 ; move to next layer (0)
G1 E-0.70000 F2400 ; retract
G1 X154.5699 Y157.4798 F9000 ; move to first Skirt point
G1 E0.05000 F1800 ; unretract
;TYPE:Skirt
;WIDTH:0.44
G1 F1200
G1 X155.4191 Y156.6545 E0.10548 ; Skirt
G1 X156.3592 Y155.9210 E0.16134 ; Skirt
G1 X157.3736 Y155.2943 E0.21721 ; Skirt
G1 X164.0036 Y152.3765 E0.55656 ; Skirt
G1 X164.9733 Y152.0318 E0.60478 ; Skirt
G1 X165.9631 Y151.7814 E0.65261 ; Skirt
G1 X166.9882 Y151.6226 E0.70121 ; Skirt
G1 X168.0320 Y151.5616 E0.75019 ; Skirt
G1 X187.4006 Y151.5610 E1.65760 ; Skirt
G1 X189.2545 Y151.7206 E1.74478 ; Skirt
G1 X191.0623 Y152.1949 E1.83233 ; Skirt
G1 X192.7629 Y152.9700 E1.91989 ; Skirt
G1 X194.3067 Y154.0232 E2.00745 ; Skirt
G1 X195.6434 Y155.3177 E2.09462 ; Skirt
G1 X196.7455 Y156.8270 E2.18218 ; Skirt
G1 X197.5717 Y158.4943 E2.26935 ; Skirt
G1 X198.1050 Y160.2855 E2.35691 ; Skirt
G1 X198.2701 Y161.3427 E2.40704 ; Skirt
G1 X198.3312 Y162.4191 E2.45755 ; Skirt
G1 X198.3139 Y188.1207 E3.66165 ; Skirt
G1 X198.1098 Y189.6913 E3.73585 ; Skirt
G1 X197.6810 Y191.2159 E3.81005 ; Skirt
G1 X197.0366 Y192.6627 E3.88425 ; Skirt
G1 X196.1900 Y194.0012 E3.95845 ; Skirt
G1 X195.5183 Y194.8236 E4.00820 ; Skirt
G1 X194.7699 Y195.5769 E4.05794 ; Skirt
G1 X193.9456 Y196.2590 E4.10807 ; Skirt
G1 X193.0655 Y196.8531 E4.15782 ; Skirt
G1 X192.1319 Y197.3590 E4.20756 ; Skirt
G1 X191.1538 Y197.7721 E4.25731 ; Skirt
G1 X190.1401 Y198.0883 E4.30706 ; Skirt
G1 X189.1006 Y198.3049 E4.35680 ; Skirt
G1 X187.4652 Y198.4388 E4.43367 ; Skirt
G1 X168.1237 Y198.4390 E5.33981 ; Skirt
G1 X166.1735 Y198.2593 E5.43156 ; Skirt
G1 X165.2183 Y198.0394 E5.47748 ; Skirt
G1 X164.2790 Y197.7319 E5.52379 ; Skirt
G1 X157.9616 Y195.0035 E5.84618 ; Skirt
G1 X157.0093 Y194.4980 E5.89669 ; Skirt
G1 X156.1048 Y193.8964 E5.94758 ; Skirt
G1 X155.1920 Y193.1420 E6.00306 ; Skirt
G1 X154.3608 Y192.2871 E6.05892 ; Skirt
G1 X153.6275 Y191.3468 E6.11479 ; Skirt
G1 X153.0049 Y190.3395 E6.17027 ; Skirt
G1 X152.4917 Y189.2632 E6.22613 ; Skirt
G1 X152.1009 Y188.1453 E6.28161 ; Skirt
G1 X151.8333 Y186.9917 E6.33709 ; Skirt
G1 X151.6914 Y185.8078 E6.39295 ; Skirt
G1 X151.7008 Y164.0592 E7.41186 ; Skirt
G1 X151.9259 Y162.5409 E7.48377 ; Skirt
G1 X152.3584 Y161.0767 E7.55529 ; Skirt
G1 X152.9905 Y159.6869 E7.62682 ; Skirt
G1 X153.8100 Y158.3987 E7.69835 ; Skirt
G1 X154.5316 Y157.5261 E7.75140 ; Skirt
G1 X154.8214 Y157.7685 F9000 ; move to first Skirt point
G1 F1200
G1 X154.8857 Y157.6918 E7.75609 ; Skirt
G1 X155.7071 Y156.9018 E7.80948 ; Skirt
G1 X156.6155 Y156.2005 E7.86325 ; Skirt
G1 X157.5947 Y155.6018 E7.91702 ; Skirt
G1 X164.1568 Y152.7197 E8.25279 ; Skirt
G1 X165.1104 Y152.3828 E8.30017 ; Skirt
G1 X166.0839 Y152.1402 E8.34718 ; Skirt
G1 X167.0601 Y151.9928 E8.39343 ; Skirt
G1 X168.0458 Y151.9371 E8.43968 ; Skirt
G1 X187.4005 Y151.9366 E9.34644 ; Skirt
G1 X189.2062 Y152.0934 E9.43135 ; Skirt
G1 X190.9509 Y152.5539 E9.51589 ; Skirt
G1 X192.5917 Y153.3047 E9.60042 ; Skirt
G1 X194.0871 Y154.3288 E9.68534 ; Skirt
G1 X195.3801 Y155.5874 E9.76987 ; Skirt
G1 X196.4442 Y157.0546 E9.85479 ; Skirt
G1 X197.2389 Y158.6747 E9.93932 ; Skirt
G1 X197.7479 Y160.4142 E10.02423 ; Skirt
G1 X197.8999 Y161.4140 E10.07162 ; Skirt
G1 X197.9556 Y162.4238 E10.11900 ; Skirt
G1 X197.9387 Y188.1019 E11.32200 ; Skirt
G1 X197.7375 Y189.6371 E11.39453 ; Skirt
G1 X197.3167 Y191.1188 E11.46670 ; Skirt
G1 X196.6811 Y192.5306 E11.53923 ; Skirt
G1 X195.8508 Y193.8280 E11.61140 ; Skirt
G1 X195.1960 Y194.6197 E11.65953 ; Skirt
G1 X194.4675 Y195.3441 E11.70766 ; Skirt
G1 X193.6720 Y195.9943 E11.75579 ; Skirt
G1 X192.8241 Y196.5600 E11.80355 ; Skirt
G1 X191.9183 Y197.0448 E11.85168 ; Skirt
G1 X190.9696 Y197.4393 E11.89981 ; Skirt
G1 X189.9872 Y197.7398 E11.94794 ; Skirt
G1 X188.9881 Y197.9422 E11.99570 ; Skirt
G1 X187.4526 Y198.0633 E12.06786 ; Skirt
G1 X168.0760 Y198.0632 E12.97565 ; Skirt
G1 X166.2002 Y197.8823 E13.06393 ; Skirt
G1 X164.3790 Y197.3681 E13.15259 ; Skirt
G1 X158.1089 Y194.6576 E13.47261 ; Skirt
G1 X157.1672 Y194.1548 E13.52262 ; Skirt
G1 X156.2811 Y193.5595 E13.57263 ; Skirt
G1 X155.4066 Y192.8287 E13.62602 ; Skirt
G1 X154.6107 Y192.0019 E13.67979 ; Skirt
G1 X153.9091 Y191.0937 E13.73356 ; Skirt
G1 X153.3102 Y190.1147 E13.78733 ; Skirt
G1 X152.8211 Y189.0764 E13.84109 ; Skirt
G1 X152.4475 Y187.9913 E13.89486 ; Skirt
G1 X152.1938 Y186.8720 E13.94863 ; Skirt
G1 X152.0635 Y185.7399 E14.00202 ; Skirt
G1 X152.0752 Y164.0898 E15.01631 ; Skirt
G1 X152.2945 Y162.6137 E15.08622 ; Skirt
G1 X152.7195 Y161.1833 E15.15613 ; Skirt
G1 X153.3419 Y159.8270 E15.22604 ; Skirt
G1 X154.1492 Y158.5720 E15.29596 ; Skirt
G1 X154.7829 Y157.8145 E15.34222 ; Skirt
G1 X155.0708 Y158.0576 F9000 ; move to first Skirt point
G1 F1200
G1 X155.1911 Y157.9151 E15.35096 ; Skirt
G1 X155.9900 Y157.1540 E15.40266 ; Skirt
G1 X156.8601 Y156.4882 E15.45398 ; Skirt
G1 X157.8035 Y155.9160 E15.50568 ; Skirt
G1 X164.3097 Y153.0630 E15.83850 ; Skirt
G1 X165.2393 Y152.7363 E15.88467 ; Skirt
G1 X166.1883 Y152.5025 E15.93046 ; Skirt
G1 X168.0607 Y152.3126 E16.01863 ; Skirt
G1 X187.4004 Y152.3122 E16.92468 ; Skirt
G1 X189.1422 Y152.4636 E17.00659 ; Skirt
G1 X190.8326 Y152.9106 E17.08850 ; Skirt
G1 X192.4216 Y153.6400 E17.17042 ; Skirt
G1 X193.8685 Y154.6354 E17.25270 ; Skirt
G1 X195.1179 Y155.8585 E17.33461 ; Skirt
G1 X196.1398 Y157.2773 E17.41652 ; Skirt
G1 X196.9039 Y158.8499 E17.49844 ; Skirt
G1 X197.3895 Y160.5377 E17.58072 ; Skirt
G1 X197.5292 Y161.4812 E17.62540 ; Skirt
G1 X197.5801 Y162.4337 E17.67009 ; Skirt
G1 X197.5640 Y188.0753 E18.87138 ; Skirt
G1 X197.3683 Y189.5673 E18.94188 ; Skirt
G1 X196.9550 Y191.0142 E19.01238 ; Skirt
G1 X196.3331 Y192.3844 E19.08287 ; Skirt
G1 X195.5208 Y193.6418 E19.15300 ; Skirt
G1 X194.8842 Y194.4041 E19.19953 ; Skirt
G1 X194.1822 Y195.0955 E19.24569 ; Skirt
G1 X193.4103 Y195.7205 E19.29222 ; Skirt
G1 X192.5813 Y196.2674 E19.33875 ; Skirt
G1 X191.7029 Y196.7310 E19.38528 ; Skirt
G1 X190.7911 Y197.1042 E19.43144 ; Skirt
G1 X189.8474 Y197.3876 E19.47760 ; Skirt
G1 X188.8729 Y197.5797 E19.52413 ; Skirt
G1 X187.4430 Y197.6877 E19.59132 ; Skirt
G1 X168.0378 Y197.6872 E20.50044 ; Skirt
G1 X166.2278 Y197.5052 E20.58566 ; Skirt
G1 X164.4864 Y197.0070 E20.67052 ; Skirt
G1 X158.2636 Y194.3153 E20.98816 ; Skirt
G1 X157.3328 Y193.8160 E21.03764 ; Skirt
G1 X156.4651 Y193.2279 E21.08675 ; Skirt
G1 X155.6221 Y192.5159 E21.13845 ; Skirt
G1 X154.8610 Y191.7169 E21.19014 ; Skirt
G1 X154.1908 Y190.8403 E21.24184 ; Skirt
G1 X153.6231 Y189.9033 E21.29316 ; Skirt
G1 X153.1563 Y188.9035 E21.34486 ; Skirt
G1 X152.8004 Y187.8590 E21.39655 ; Skirt
G1 X152.5596 Y186.7822 E21.44825 ; Skirt
G1 X152.4366 Y185.6857 E21.49994 ; Skirt
G1 X152.4490 Y164.1279 E22.50991 ; Skirt
G1 X152.6614 Y162.6939 E22.57783 ; Skirt
G1 X153.0781 Y161.2971 E22.64611 ; Skirt
G1 X153.6897 Y159.9741 E22.71440 ; Skirt
G1 X154.4792 Y158.7582 E22.78232 ; Skirt
G1 X155.0321 Y158.1035 E22.82247 ; Skirt
; INIT printing object center_original.STL id:0 copy 0
G92 E0 ; reset extrusion distance
G1 E-0.70000 F2400 ; retract
@Object center_original.STL id:0 copy 0
G1 X166.1712 Y166.0712 F9000 ; move to first Internal perimeter point
G1 E0.05000 F1800 ; unretract
;TYPE:Internal perimeter
;WIDTH:0.52
G1 F1200
G1 X169.3195 Y166.0712 E0.22890 ; Internal perimeter
G1 X169.3195 Y163.6712 E0.36529 ; Internal perimeter
G1 X180.6805 Y163.6712 E1.01091 ; Internal perimeter
G1 X180.6805 Y165.8288 E1.13352 ; Internal perimeter
G1 X177.8288 Y165.8288 E1.29558 ; Internal perimeter
G1 X177.8288 Y184.1712 E2.33793 ; Internal perimeter
G1 X180.6805 Y184.1712 E2.49999 ; Internal perimeter
G1 X180.6805 Y186.3288 E2.62260 ; Internal perimeter
G1 X169.3195 Y186.3288 E3.26822 ; Internal perimeter
G1 X169.3195 Y183.9288 E3.40460 ; Internal perimeter
G1 X166.1712 Y183.9288 E3.58351 ; Internal perimeter
G1 X166.1712 Y166.1312 E4.59489 ; Internal perimeter
G1 X165.7156 Y166.2844 F9000 ; move to first Internal perimeter point
G1 F1200
G1 X164.2289 Y166.2844 E4.67938 ; Internal perimeter
G1 X164.2289 Y165.6156 E4.71738 ; Internal perimeter
G1 X168.8638 Y165.6156 E4.98077 ; Internal perimeter
G1 X168.8638 Y163.2156 E5.11716 ; Internal perimeter
G1 X185.7711 Y163.2156 E6.07795 ; Internal perimeter
G1 X185.7711 Y163.8844 E6.11596 ; Internal perimeter
G1 X181.1362 Y163.8844 E6.37934 ; Internal perimeter
G1 X181.1362 Y166.2844 E6.51573 ; Internal perimeter
G1 X178.2844 Y166.2844 E6.67779 ; Internal perimeter
G1 X178.2844 Y183.7156 E7.66836 ; Internal perimeter
G1 X181.1362 Y183.7156 E7.83042 ; Internal perimeter
G1 X181.1362 Y186.1156 E7.96680 ; Internal perimeter
G1 X185.7711 Y186.1156 E8.23019 ; Internal perimeter
G1 X185.7711 Y186.7844 E8.26820 ; Internal perimeter
G1 X168.8638 Y186.7844 E9.22899 ; Internal perimeter
G1 X168.8638 Y184.3844 E9.36538 ; Internal perimeter
G1 X164.2289 Y184.3844 E9.62877 ; Internal perimeter
G1 X164.2289 Y183.7156 E9.66677 ; Internal perimeter
G1 X165.7156 Y183.7156 E9.75126 ; Internal perimeter
G1 X165.7156 Y166.3444 E10.73842 ; Internal perimeter
G1 X165.2600 Y166.7400 F9000 ; move to first External perimeter point
;TYPE:External perimeter
G1 F1200
G1 X163.7733 Y166.7400 E10.82290 ; External perimeter
G1 X163.7733 Y165.1600 E10.91269 ; External perimeter
G1 X168.4082 Y165.1600 E11.17608 ; External perimeter
G1 X168.4082 Y162.7600 E11.31246 ; External perimeter
G1 X186.2267 Y162.7600 E12.32504 ; External perimeter
G1 X186.2267 Y164.3400 E12.41483 ; External perimeter
G1 X181.5918 Y164.3400 E12.67822 ; External perimeter
G1 X181.5918 Y166.7400 E12.81460 ; External perimeter
G1 X178.7400 Y166.7400 E12.97666 ; External perimeter
G1 X178.7400 Y183.2600 E13.91545 ; External perimeter
G1 X181.5918 Y183.2600 E14.07751 ; External perimeter
G1 X181.5918 Y185.6600 E14.21389 ; External perimeter
G1 X186.2267 Y185.6600 E14.47728 ; External perimeter
G1 X186.2267 Y187.2400 E14.56707 ; External perimeter
G1 X168.4082 Y187.2400 E15.57965 ; External perimeter
G1 X168.4082 Y184.8400 E15.71603 ; External perimeter
G1 X163.7733 Y184.8400 E15.97942 ; External perimeter
G1 X163.7733 Y183.2600 E16.06921 ; External perimeter
G1 X165.2600 Y183.2600 E16.15370 ; External perimeter
G1 X165.2600 Y166.8000 E17.08908 ; External perimeter
G1 X165.2600 Y166.3400 F9000 ; move inwards before travel
G1 X165.9628 Y165.9500 ; move to first Gap fill point
;TYPE:Gap fill
;WIDTH:0.316218
G1 F1200
G1 X165.8998 Y165.9500 E17.09105 ; Gap fill
G1 X164.5633 Y165.9500 E17.13303 ; Gap fill
G1 X164.5004 Y165.9500 E17.13501 ; Gap fill
G1 X164.4374 Y165.9500 E17.13699 ; Gap fill
G92 E0 ; reset extrusion distance
G1 E-0.70000 F2400 ; retract
G1 X179.6228 Y163.8079 F9000 ; move to first Solid infill point
G1 E0.05000 F1800 ; unretract
;TYPE:Solid infill
;WIDTH:0.520096
G1 F1200
G1 X180.3388 Y164.5239 E0.10755 ; Solid infill
G1 X180.3388 Y165.1682 E0.14418 ; Solid infill
G1 X179.1835 Y164.0129 E0.23704 ; Solid infill
G1 X178.5392 Y164.0129 E0.27366 ; Solid infill
G1 X180.0133 Y165.4871 E0.39215 ; Solid infill
G1 X179.3690 Y165.4871 E0.42878 ; Solid infill
G1 X177.8948 Y164.0129 E0.54727 ; Solid infill
G1 X177.2505 Y164.0129 E0.58389 ; Solid infill
G1 X178.7246 Y165.4871 E0.70238 ; Solid infill
G1 X178.0803 Y165.4871 E0.73900 ; Solid infill
G1 X176.6062 Y164.0129 E0.85749 ; Solid infill
G1 X175.9618 Y164.0129 E0.89412 ; Solid infill
G1 X177.4871 Y165.5382 E1.01672 ; Solid infill
G1 X177.4871 Y166.1825 E1.05334 ; Solid infill
G1 X175.3175 Y164.0129 E1.22773 ; Solid infill
G1 X174.6731 Y164.0129 E1.26436 ; Solid infill
G1 X177.4871 Y166.8269 E1.49054 ; Solid infill
G1 X177.4871 Y167.4712 E1.52716 ; Solid infill
G1 X174.0288 Y164.0129 E1.80514 ; Solid infill
G1 X173.3845 Y164.0129 E1.84177 ; Solid infill
G1 X177.4871 Y168.1155 E2.17154 ; Solid infill
G1 X177.4871 Y168.7599 E2.20816 ; Solid infill
G1 X172.7401 Y164.0129 E2.58972 ; Solid infill
G1 X172.0958 Y164.0129 E2.62635 ; Solid infill
G1 X177.4871 Y169.4042 E3.05970 ; Solid infill
G1 X177.4871 Y170.0486 E3.09632 ; Solid infill
G1 X171.4514 Y164.0129 E3.58147 ; Solid infill
G1 X170.8071 Y164.0129 E3.61810 ; Solid infill
G1 X177.4871 Y170.6929 E4.15504 ; Solid infill
G1 X177.4871 Y171.3373 E4.19166 ; Solid infill
G1 X170.1627 Y164.0129 E4.78040 ; Solid infill
G1 X169.6612 Y164.0129 E4.80891 ; Solid infill
G1 X169.6612 Y164.1557 E4.81702 ; Solid infill
G1 X177.4871 Y171.9816 E5.44607 ; Solid infill
G1 X177.4871 Y172.6259 E5.48269 ; Solid infill
G1 X169.6612 Y164.8000 E6.11175 ; Solid infill
G1 X169.6612 Y165.4444 E6.14837 ; Solid infill
G1 X177.4871 Y173.2703 E6.77742 ; Solid infill
G1 X177.4871 Y173.9146 E6.81404 ; Solid infill
G1 X169.6612 Y166.0887 E7.44310 ; Solid infill
G1 X169.6612 Y166.4129 E7.46152 ; Solid infill
G1 X169.3410 Y166.4129 E7.47972 ; Solid infill
G1 X177.4871 Y174.5590 E8.13450 ; Solid infill
G1 X177.4871 Y175.2033 E8.17113 ; Solid infill
G1 X168.6967 Y166.4129 E8.87771 ; Solid infill
G1 X168.0523 Y166.4129 E8.91433 ; Solid infill
G1 X177.4871 Y175.8477 E9.67270 ; Solid infill
G1 X177.4871 Y176.4920 E9.70932 ; Solid infill
G1 X167.4080 Y166.4129 E10.51949 ; Solid infill
G1 X166.7637 Y166.4129 E10.55611 ; Solid infill
G1 X177.4871 Y177.1363 E11.41806 ; Solid infill
G1 X177.4871 Y177.7807 E11.45469 ; Solid infill
G1 X166.5129 Y166.8066 E12.33680 ; Solid infill
G1 X166.5129 Y167.4509 E12.37342 ; Solid infill
G1 X177.4871 Y178.4250 E13.25553 ; Solid infill
G1 X177.4871 Y179.0694 E13.29215 ; Solid infill
G1 X166.5129 Y168.0953 E14.17426 ; Solid infill
G1 X166.5129 Y168.7396 E14.21088 ; Solid infill
G1 X177.4871 Y179.7137 E15.09299 ; Solid infill
G1 X177.4871 Y180.3581 E15.12961 ; Solid infill
G1 X166.5129 Y169.3839 E16.01172 ; Solid infill
G1 X166.5129 Y170.0283 E16.04834 ; Solid infill
G1 X177.4871 Y181.0024 E16.93045 ; Solid infill
G1 X177.4871 Y181.6467 E16.96708 ; Solid infill
G1 X166.5129 Y170.6726 E17.84918 ; Solid infill
G1 X166.5129 Y171.3170 E17.88581 ; Solid infill
G1 X177.4871 Y182.2911 E18.76792 ; Solid infill
G1 X177.4871 Y182.9354 E18.80454 ; Solid infill
G1 X166.5129 Y171.9613 E19.68665 ; Solid infill
G1 X166.5129 Y172.6057 E19.72327 ; Solid infill
G1 X177.6921 Y183.7848 E20.62186 ; Solid infill
G1 X179.5039 Y184.3079 F9000 ; move to first Solid infill point
G1 F1200
G1 X180.3388 Y185.1429 E20.68897 ; Solid infill
G1 X180.3388 Y185.7872 E20.72559 ; Solid infill
G1 X179.0646 Y184.5129 E20.82802 ; Solid infill
G1 X178.4202 Y184.5129 E20.86464 ; Solid infill
G1 X179.8943 Y185.9871 E20.98313 ; Solid infill
G1 X179.2500 Y185.9871 E21.01976 ; Solid infill
G1 X166.5129 Y173.2500 E22.04357 ; Solid infill
G1 X166.5129 Y173.8943 E22.08020 ; Solid infill
G1 X178.6057 Y185.9871 E23.05222 ; Solid infill
G1 X177.9613 Y185.9871 E23.08884 ; Solid infill
G1 X166.5129 Y174.5387 E24.00907 ; Solid infill
G1 X166.5129 Y175.1830 E24.04569 ; Solid infill
G1 X177.3170 Y185.9871 E24.91413 ; Solid infill
G1 X176.6726 Y185.9871 E24.95075 ; Solid infill
G1 X166.5129 Y175.8274 E25.76740 ; Solid infill
G1 X166.5129 Y176.4717 E25.80402 ; Solid infill
G1 X176.0283 Y185.9871 E26.56887 ; Solid infill
G1 X175.3839 Y185.9871 E26.60550 ; Solid infill
