; generated by SuperSlicer 2.3.56 on 2021-09-26 at 01:45:19 UTC

; 

; external perimeters extrusion width = 0.42mm
; perimeters extrusion width = 0.46mm
; infill extrusion width = 0.44mm
; solid infill extrusion width = 0.46mm
; top infill extrusion width = 0.44mm
; first layer extrusion width = 0.56mm

; external perimeters extrusion width = 0.42mm
; perimeters extrusion width = 0.46mm
; infill extrusion width = 0.44mm
; solid infill extrusion width = 0.46mm
; top infill extrusion width = 0.44mm
; first layer extrusion width = 0.56mm

; external perimeters extrusion width = 0.42mm
; perimeters extrusion width = 0.46mm
; infill extrusion width = 0.44mm
; solid infill extrusion width = 0.46mm
; top infill extrusion width = 0.44mm
; first layer extrusion width = 0.56mm

@Objectinfo patch_bed_leveling id:0 copy 0 X20.0 Y330.0
@Objectinfo patch_bed_leveling id:1 copy 0 X330.0 Y20.0
@Objectinfo patch_bed_leveling id:2 copy 0 X175.0 Y175.0
@Objectinfo patch_bed_leveling id:3 copy 0 X20.0 Y20.0
@Objectinfo patch_bed_leveling id:4 copy 0 X330.0 Y330.0
; plater:{"center":[175.000000,175.000000,0.000000],"boundingbox_center":[175.000000,175.000000,1.486537],"boundingbox_size":[331.433014,331.433014,2.973075]}

;TYPE:Custom
M140 S60;
G28 x y ; home X and Y axes
M190 S60;
G28 Z ; home z axis
G1 Z5 F5000 ; lift nozzle
M107
G21 ; set units to millimeters
G90 ; use absolute coordinates
M82 ; use absolute distances for extrusion
G92 E0
; Filament gcode
M104 S205 ; set temperature
M109 S205 ; set temperature and wait for it to be reached
M107
;LAYER_CHANGE
;Z:0.3
;HEIGHT:0.3
G1 Z0.300000 F7800
G1 E-0.50000 F2400
G1 X5.717 Y9.944 F7800
G1 E0.00000 F2400
;TYPE:Skirt
;WIDTH:0.44
G1 F1800
G1 X6.773 Y9.344 E0.05692
G1 X7.933 Y8.961 E0.11412
G1 X9.138 Y8.814 E0.17103
G1 X324.894 Y3.097 E14.96640
G1 X335.006 Y3.096 E15.44014
G1 X336.185 Y3.210 E15.49562
G1 X337.326 Y3.549 E15.55139
G1 X338.381 Y4.101 E15.60716
G1 X339.311 Y4.844 E15.66293
G1 X340.077 Y5.747 E15.71841
G1 X340.661 Y6.784 E15.77418
G1 X341.034 Y7.915 E15.82995
G1 X341.185 Y9.095 E15.88572
G1 X346.904 Y324.925 E30.68454
G1 X346.861 Y335.730 E31.19074
G1 X346.665 Y336.705 E31.23733
G1 X346.318 Y337.630 E31.28363
G1 X345.827 Y338.488 E31.32994
G1 X345.207 Y339.257 E31.37624
G1 X344.283 Y340.056 E31.43345
G1 X343.227 Y340.656 E31.49036
G1 X342.067 Y341.039 E31.54756
G1 X340.862 Y341.186 E31.60448
G1 X25.112 Y346.903 E46.39956
G1 X14.276 Y346.862 E46.90720
G1 X13.301 Y346.667 E46.95379
G1 X12.376 Y346.320 E47.00009
G1 X11.512 Y345.827 E47.04669
G1 X10.743 Y345.207 E47.09299
G1 X9.944 Y344.283 E47.15019
G1 X9.344 Y343.227 E47.20711
G1 X8.961 Y342.067 E47.26431
G1 X8.814 Y340.862 E47.32122
G1 X3.097 Y25.112 E62.11630
G1 X3.138 Y14.276 E62.62394
G1 X3.333 Y13.301 E62.67053
G1 X3.680 Y12.376 E62.71684
G1 X4.173 Y11.512 E62.76343
G1 X4.793 Y10.743 E62.80974
G1 X5.671 Y9.983 E62.86413
; INIT printing object patch_bed_leveling id:0 copy 0
G92 E0
G1 E-0.50000 F2400
@Object patch_bed_leveling id:0 copy 0
G1 X15.280 Y320.361 F7800
G1 E0.00000 F2400
;TYPE:External perimeter
;WIDTH:0.56
G1 F1800
G1 X24.720 Y320.361 E0.58354
G1 X24.720 Y340.437 E1.82451
G1 X15.280 Y340.437 E2.40806
G1 X15.280 Y320.421 E3.64532
G1 X15.626 Y320.561 F7800
G92 E0
G1 E-0.50000 F2400
G1 X24.348 Y340.288 F7800
G1 E0.00000 F2400
;TYPE:Solid infill
;WIDTH:0.573898
G1 F1200
G1 X24.348 Y320.733 E1.23880
G1 X23.853 Y320.733 E1.27020
G1 X23.853 Y340.065 E2.49487
G1 X23.357 Y340.065 E2.52627
G1 X23.357 Y320.733 E3.75094
G1 X22.861 Y320.733 E3.78233
G1 X22.861 Y340.065 E5.00700
G1 X22.366 Y340.065 E5.03840
G1 X22.366 Y320.733 E6.26307
G1 X21.870 Y320.733 E6.29447
G1 X21.870 Y340.065 E7.51914
G1 X21.375 Y340.065 E7.55054
G1 X21.375 Y320.733 E8.77521
G1 X20.879 Y320.733 E8.80661
G1 X20.879 Y340.065 E10.03128
G1 X20.383 Y340.065 E10.06267
G1 X20.383 Y320.733 E11.28735
G1 X19.888 Y320.733 E11.31874
G1 X19.888 Y340.065 E12.54341
G1 X19.392 Y340.065 E12.57481
G1 X19.392 Y320.733 E13.79948
G1 X18.896 Y320.733 E13.83088
G1 X18.896 Y340.065 E15.05555
G1 X18.401 Y340.065 E15.08695
G1 X18.401 Y320.733 E16.31162
G1 X17.905 Y320.733 E16.34302
G1 X17.905 Y340.065 E17.56769
G1 X17.410 Y340.065 E17.59908
G1 X17.410 Y320.733 E18.82375
G1 X16.914 Y320.733 E18.85515
G1 X16.914 Y340.065 E20.07982
G1 X16.418 Y340.065 E20.11122
G1 X16.418 Y320.733 E21.33589
G1 X15.923 Y320.733 E21.36729
G1 X15.923 Y340.288 E22.60609
G92 E0
G1 E-0.50000 F2400
G1 X15.598 Y320.609 F7800
G1 E0.00000 F2400
;TYPE:Gap fill
;WIDTH:0.204524
G1 F1200
G1 X15.598 Y320.644 E0.00061
G1 X15.598 Y320.679 E0.00122
G1 X15.598 Y340.119 E0.34101
G1 X15.598 Y340.189 E0.34224
; INIT stop printing object patch_bed_leveling id:0 copy 0
;LAYER_CHANGE
;Z:0.5
;HEIGHT:0.2
@Objectstop patch_bed_leveling id:0 copy 0
G1 Z0.500000 F7800
; INIT printing object patch_bed_leveling id:0 copy 0
G92 E0
G1 E-0.50000 F2400
@Object patch_bed_leveling id:0 copy 0
G1 X15.210 Y320.930 F7800
G1 E0.00000 F2400
;TYPE:External perimeter
;WIDTH:0.42
G1 F1800
G1 X15.210 Y320.195 E0.02304
G1 X24.790 Y320.195 E0.32341
G1 X24.790 Y320.930 E0.34644
G1 X15.270 Y320.930 E0.64494
G1 X15.410 Y320.584 F7800
; INIT stop printing object patch_bed_leveling id:0 copy 0
M106 S255
;LAYER_CHANGE
;Z:0.7
;HEIGHT:0.2
@Objectstop patch_bed_leveling id:0 copy 0
G1 Z0.700000 F7800
; INIT printing object patch_bed_leveling id:0 copy 0
@Object patch_bed_leveling id:0 copy 0
G1 X15.270 Y320.853
G1 F600
G1 X15.210 Y320.853 E0.64682
G1 X15.210 Y320.118 E0.66985
G1 X24.790 Y320.118 E0.97023
G1 X24.790 Y320.853 E0.99326
G1 X15.330 Y320.853 E1.28987
G1 X15.240 Y320.801 F7800
; INIT stop printing object patch_bed_leveling id:0 copy 0
;LAYER_CHANGE
;Z:0.9
;HEIGHT:0.2
@Objectstop patch_bed_leveling id:0 copy 0
G1 Z0.900000 F7800
; INIT printing object patch_bed_leveling id:0 copy 0
@Object patch_bed_leveling id:0 copy 0
G1 X15.330 Y320.776
G1 F600
G1 X15.210 Y320.776 E1.29364
G1 X15.210 Y320.041 E1.31667
G1 X24.790 Y320.041 E1.61704
G1 X24.790 Y320.776 E1.64008
G1 X15.390 Y320.776 E1.93481
G1 X15.270 Y320.672 F7800
; INIT stop printing object patch_bed_leveling id:0 copy 0
;LAYER_CHANGE
;Z:1.1
;HEIGHT:0.2
@Objectstop patch_bed_leveling id:0 copy 0
G1 Z1.100000 F7800
; INIT printing object patch_bed_leveling id:0 copy 0
@Object patch_bed_leveling id:0 copy 0
G1 X15.390 Y320.699
G1 F600
G1 X15.210 Y320.699 E1.94045
G1 X15.210 Y319.964 E1.96349
G1 X24.790 Y319.964 E2.26386
G1 X24.790 Y320.699 E2.28690
G1 X15.450 Y320.699 E2.57975
G1 X15.300 Y320.543 F7800
; INIT stop printing object patch_bed_leveling id:0 copy 0
;LAYER_CHANGE
;Z:1.3
;HEIGHT:0.2
@Objectstop patch_bed_leveling id:0 copy 0
G1 Z1.300000 F7800
; INIT printing object patch_bed_leveling id:0 copy 0
@Object patch_bed_leveling id:0 copy 0
G1 X15.210 Y320.622
G1 F600
G1 X15.210 Y319.887 E2.60278
G1 X24.790 Y319.887 E2.90316
G1 X24.790 Y320.622 E2.92619
G1 X15.270 Y320.622 E3.22469
G1 X15.410 Y320.276 F7800
; INIT stop printing object patch_bed_leveling id:0 copy 0
;LAYER_CHANGE
;Z:1.5
;HEIGHT:0.2
@Objectstop patch_bed_leveling id:0 copy 0
G1 Z1.500000 F7800
; INIT printing object patch_bed_leveling id:0 copy 0
@Object patch_bed_leveling id:0 copy 0
G1 X15.270 Y320.545
G1 F600
G1 X15.210 Y320.545 E3.22657
G1 X15.210 Y319.810 E3.24960
G1 X24.790 Y319.810 E3.54998
G1 X24.790 Y320.545 E3.57301
G1 X15.330 Y320.545 E3.86962
G1 X15.240 Y320.493 F7800
; INIT stop printing object patch_bed_leveling id:0 copy 0
;LAYER_CHANGE
;Z:1.7
;HEIGHT:0.2
@Objectstop patch_bed_leveling id:0 copy 0
G1 Z1.700000 F7800
; INIT printing object patch_bed_leveling id:0 copy 0
@Object patch_bed_leveling id:0 copy 0
G1 X15.330 Y320.468
G1 F600
G1 X15.210 Y320.468 E3.87339
G1 X15.210 Y319.733 E3.89642
G1 X24.790 Y319.733 E4.19680
G1 X24.790 Y320.468 E4.21983
G1 X15.390 Y320.468 E4.51456
G1 X15.270 Y320.364 F7800
; INIT stop printing object patch_bed_leveling id:0 copy 0
;LAYER_CHANGE
;Z:1.9
;HEIGHT:0.2
@Objectstop patch_bed_leveling id:0 copy 0
G1 Z1.900000 F7800
; INIT printing object patch_bed_leveling id:0 copy 0
@Object patch_bed_leveling id:0 copy 0
G1 X15.390 Y320.391
G1 F600
G1 X15.210 Y320.391 E4.52021
G1 X15.210 Y319.656 E4.54324
G1 X24.790 Y319.656 E4.84362
G1 X24.790 Y320.391 E4.86665
G1 X15.450 Y320.391 E5.15950
G1 X15.300 Y320.235 F7800
; INIT stop printing object patch_bed_leveling id:0 copy 0
;LAYER_CHANGE
;Z:2.1
;HEIGHT:0.2
@Objectstop patch_bed_leveling id:0 copy 0
G1 Z2.100000 F7800
; INIT printing object patch_bed_leveling id:0 copy 0
@Object patch_bed_leveling id:0 copy 0
G1 X15.210 Y320.314
G1 F600
G1 X15.210 Y319.579 E5.18254
G1 X24.790 Y319.579 E5.48291
G1 X24.790 Y320.314 E5.50595
G1 X15.270 Y320.314 E5.80444
G1 X15.410 Y319.968 F7800
; INIT stop printing object patch_bed_leveling id:0 copy 0
;LAYER_CHANGE
;Z:2.3
;HEIGHT:0.2
@Objectstop patch_bed_leveling id:0 copy 0
G1 Z2.300000 F7800
; INIT printing object patch_bed_leveling id:0 copy 0
@Object patch_bed_leveling id:0 copy 0
G1 X15.270 Y320.237
G1 F600
G1 X15.210 Y320.237 E5.80632
G1 X15.210 Y319.502 E5.82936
G1 X24.790 Y319.502 E6.12973
G1 X24.790 Y320.237 E6.15277
G1 X15.330 Y320.237 E6.44938
G1 X15.240 Y320.185 F7800
; INIT stop printing object patch_bed_leveling id:0 copy 0
;LAYER_CHANGE
;Z:2.5
;HEIGHT:0.2
@Objectstop patch_bed_leveling id:0 copy 0
G1 Z2.500000 F7800
; INIT printing object patch_bed_leveling id:0 copy 0
@Object patch_bed_leveling id:0 copy 0
G1 X15.210 Y320.160
G1 F600
G1 X15.210 Y319.698 E6.46388
G1 X24.790 Y319.698 E6.76425
G1 X24.790 Y320.160 E6.77875
G1 X15.270 Y320.160 E7.07724
G1 X15.410 Y319.814 F7800
; INIT stop printing object patch_bed_leveling id:0 copy 0
;LAYER_CHANGE
;Z:2.7
;HEIGHT:0.2
@Objectstop patch_bed_leveling id:0 copy 0
G1 Z2.700000 F7800
; INIT printing object patch_bed_leveling id:0 copy 0
@Object patch_bed_leveling id:0 copy 0
G1 X15.210 Y319.929
G1 F600
G1 X24.790 Y319.929 E7.37761
G1 X24.790 Y320.083 E7.38246
G1 X15.210 Y320.083 E7.68283
G1 X15.210 Y319.989 E7.68579
G1 X15.556 Y320.129 F7800
; INIT stop printing object patch_bed_leveling id:0 copy 0
;LAYER_CHANGE
;Z:2.9
;HEIGHT:0.2
@Objectstop patch_bed_leveling id:0 copy 0
G1 Z2.900000 F7800
; INIT printing object patch_bed_leveling id:0 copy 0
G92 E0
G1 E-0.50000 F2400
@Object patch_bed_leveling id:0 copy 0
G1 X25.000 Y320.083 F7800
G1 E0.00000 F2400
;TYPE:Thin wall
;WIDTH:0.138993
G1 F600
G1 X24.950 Y320.083 E0.00021
;WIDTH:0.287481

G1 X24.900 Y320.083 E0.00102
;WIDTH:0.386474

G1 X24.867 Y320.083 E0.00197
G1 X15.117 Y320.083 E0.28043
;WIDTH:0.237985

G1 X15.067 Y320.083 E0.28145
;WIDTH:0.0894963

G1 X15.000 Y320.083 E0.28191
; INIT stop printing object patch_bed_leveling id:0 copy 0
G92 E0
G1 E-0.50000 F2400
G92 E0
@Objectstop patch_bed_leveling id:0 copy 0
G1 X330.000 Y20.000 F7800
M107
;LAYER_CHANGE
;Z:0.3
;HEIGHT:0.3
G1 Z0.300000 F7800
; INIT printing object patch_bed_leveling id:1 copy 0
@Object patch_bed_leveling id:1 copy 0
G1 X325.280 Y20.000
G1 E0.50000 F2400
;TYPE:External perimeter
;WIDTH:0.56
G1 F1800
G1 X325.280 Y9.563 E1.14515
G1 X334.720 Y9.563 E1.72869
G1 X334.720 Y29.639 E2.96966
G1 X325.280 Y29.639 E3.55320
G1 X325.280 Y20.060 E4.14531
G1 X325.626 Y19.800 F7800
G92 E0
G1 E-0.50000 F2400
G1 X334.348 Y29.490 F7800
G1 E0.00000 F2400
;TYPE:Solid infill
;WIDTH:0.573898
G1 F1200
G1 X334.348 Y9.935 E1.23880
G1 X333.853 Y9.935 E1.27020
G1 X333.853 Y29.267 E2.49487
G1 X333.357 Y29.267 E2.52626
G1 X333.357 Y9.935 E3.75093
G1 X332.861 Y9.935 E3.78233
G1 X332.861 Y29.267 E5.00700
G1 X332.366 Y29.267 E5.03840
G1 X332.366 Y9.935 E6.26307
G1 X331.870 Y9.935 E6.29446
G1 X331.870 Y29.267 E7.51913
G1 X331.375 Y29.267 E7.55053
G1 X331.375 Y9.935 E8.77520
G1 X330.879 Y9.935 E8.80660
G1 X330.879 Y29.267 E10.03127
G1 X330.383 Y29.267 E10.06267
G1 X330.383 Y9.935 E11.28733
G1 X329.888 Y9.935 E11.31873
G1 X329.888 Y29.267 E12.54340
G1 X329.392 Y29.267 E12.57480
G1 X329.392 Y9.935 E13.79947
G1 X328.896 Y9.935 E13.83087
G1 X328.896 Y29.267 E15.05554
G1 X328.401 Y29.267 E15.08693
G1 X328.401 Y9.935 E16.31160
G1 X327.905 Y9.935 E16.34300
G1 X327.905 Y29.267 E17.56767
G1 X327.410 Y29.267 E17.59907
G1 X327.410 Y9.935 E18.82374
G1 X326.914 Y9.935 E18.85514
G1 X326.914 Y29.267 E20.07980
G1 X326.418 Y29.267 E20.11120
G1 X326.418 Y9.935 E21.33587
G1 X325.923 Y9.935 E21.36727
G1 X325.923 Y29.490 E22.60607
G92 E0
G1 E-0.50000 F2400
G1 X325.598 Y9.811 F7800
G1 E0.00000 F2400
;TYPE:Gap fill
;WIDTH:0.204522
G1 F1200
G1 X325.598 Y9.881 E0.00122
G1 X325.598 Y19.601 E0.17112
G1 X325.598 Y29.321 E0.34101
G1 X325.598 Y29.356 E0.34162
G1 X325.598 Y29.391 E0.34223
; INIT stop printing object patch_bed_leveling id:1 copy 0
;LAYER_CHANGE
;Z:0.5
;HEIGHT:0.2
@Objectstop patch_bed_leveling id:1 copy 0
G1 Z0.500000 F7800
; INIT printing object patch_bed_leveling id:1 copy 0
@Object patch_bed_leveling id:1 copy 0
G1 X325.210 Y29.070
;TYPE:External perimeter
;WIDTH:0.42
G1 F1800
G1 X334.790 Y29.070 E0.64261
G1 X334.790 Y29.805 E0.66564
G1 X325.210 Y29.805 E0.96602
G1 X325.210 Y29.130 E0.98717
G1 X325.556 Y29.270 F7800
; INIT stop printing object patch_bed_leveling id:1 copy 0
M106 S255
;LAYER_CHANGE
;Z:0.7
;HEIGHT:0.2
@Objectstop patch_bed_leveling id:1 copy 0
G1 Z0.700000 F7800
; INIT printing object patch_bed_leveling id:1 copy 0
@Object patch_bed_leveling id:1 copy 0
G1 X325.210 Y29.147
G1 F600
G1 X334.790 Y29.147 E1.28754
G1 X334.790 Y29.882 E1.31058
G1 X325.210 Y29.882 E1.61095
G1 X325.210 Y29.207 E1.63211
G1 X325.556 Y29.347 F7800
; INIT stop printing object patch_bed_leveling id:1 copy 0
;LAYER_CHANGE
;Z:0.9
;HEIGHT:0.2
@Objectstop patch_bed_leveling id:1 copy 0
G1 Z0.900000 F7800
; INIT printing object patch_bed_leveling id:1 copy 0
@Object patch_bed_leveling id:1 copy 0
G1 X325.210 Y29.224
G1 F600
G1 X334.790 Y29.224 E1.93248
G1 X334.790 Y29.959 E1.95552
G1 X325.210 Y29.959 E2.25589
G1 X325.210 Y29.284 E2.27704
G1 X325.556 Y29.424 F7800
; INIT stop printing object patch_bed_leveling id:1 copy 0
;LAYER_CHANGE
;Z:1.1
;HEIGHT:0.2
@Objectstop patch_bed_leveling id:1 copy 0
G1 Z1.100000 F7800
; INIT printing object patch_bed_leveling id:1 copy 0
@Object patch_bed_leveling id:1 copy 0
G1 X325.210 Y29.301
G1 F600
G1 X334.790 Y29.301 E2.57742
G1 X334.790 Y30.036 E2.60045
G1 X325.210 Y30.036 E2.90083
G1 X325.210 Y29.361 E2.92198
G1 X325.556 Y29.501 F7800
; INIT stop printing object patch_bed_leveling id:1 copy 0
;LAYER_CHANGE
;Z:1.3
;HEIGHT:0.2
@Objectstop patch_bed_leveling id:1 copy 0
G1 Z1.300000 F7800
; INIT printing object patch_bed_leveling id:1 copy 0
@Object patch_bed_leveling id:1 copy 0
G1 X325.210 Y29.378
G1 F600
G1 X334.790 Y29.378 E3.22236
G1 X334.790 Y30.113 E3.24539
G1 X325.210 Y30.113 E3.54577
G1 X325.210 Y29.438 E3.56692
G1 X325.556 Y29.578 F7800
; INIT stop printing object patch_bed_leveling id:1 copy 0
;LAYER_CHANGE
;Z:1.5
;HEIGHT:0.2
@Objectstop patch_bed_leveling id:1 copy 0
G1 Z1.500000 F7800
; INIT printing object patch_bed_leveling id:1 copy 0
@Object patch_bed_leveling id:1 copy 0
G1 X325.210 Y29.455
G1 F600
G1 X334.790 Y29.455 E3.86730
G1 X334.790 Y30.190 E3.89033
G1 X325.210 Y30.190 E4.19070
G1 X325.210 Y29.515 E4.21186
G1 X325.556 Y29.655 F7800
; INIT stop printing object patch_bed_leveling id:1 copy 0
;LAYER_CHANGE
;Z:1.7
;HEIGHT:0.2
@Objectstop patch_bed_leveling id:1 copy 0
G1 Z1.700000 F7800
; INIT printing object patch_bed_leveling id:1 copy 0
@Object patch_bed_leveling id:1 copy 0
G1 X325.210 Y29.532
G1 F600
G1 X334.790 Y29.532 E4.51223
G1 X334.790 Y30.267 E4.53527
G1 X325.210 Y30.267 E4.83564
G1 X325.210 Y29.592 E4.85680
G1 X325.556 Y29.732 F7800
; INIT stop printing object patch_bed_leveling id:1 copy 0
;LAYER_CHANGE
;Z:1.9
;HEIGHT:0.2
@Objectstop patch_bed_leveling id:1 copy 0
G1 Z1.900000 F7800
; INIT printing object patch_bed_leveling id:1 copy 0
@Object patch_bed_leveling id:1 copy 0
G1 X325.210 Y29.609
G1 F600
G1 X334.790 Y29.609 E5.15717
G1 X334.790 Y30.344 E5.18021
G1 X325.210 Y30.344 E5.48058
G1 X325.210 Y29.669 E5.50174
G1 X325.556 Y29.809 F7800
; INIT stop printing object patch_bed_leveling id:1 copy 0
;LAYER_CHANGE
;Z:2.1
;HEIGHT:0.2
@Objectstop patch_bed_leveling id:1 copy 0
G1 Z2.100000 F7800
