; generated by SuperSlicer 2.3.56 on 2021-09-26 at 02:30:08 UTC

; 

; external perimeters extrusion width = 0.42mm
; perimeters extrusion width = 0.46mm
; infill extrusion width = 0.44mm
; solid infill extrusion width = 0.46mm
; top infill extrusion width = 0.44mm
; first layer extrusion width = 0.60mm

; external perimeters extrusion width = 0.42mm
; perimeters extrusion width = 0.46mm
; infill extrusion width = 0.44mm
; solid infill extrusion width = 0.46mm
; top infill extrusion width = 0.44mm
; first layer extrusion width = 0.60mm

; external perimeters extrusion width = 0.42mm
; perimeters extrusion width = 0.46mm
; infill extrusion width = 0.44mm
; solid infill extrusion width = 0.46mm
; top infill extrusion width = 0.44mm
; first layer extrusion width = 0.60mm

; external perimeters extrusion width = 0.42mm
; perimeters extrusion width = 0.46mm
; infill extrusion width = 0.44mm
; solid infill extrusion width = 0.46mm
; top infill extrusion width = 0.44mm
; first layer extrusion width = 0.60mm

; external perimeters extrusion width = 0.42mm
; perimeters extrusion width = 0.46mm
; infill extrusion width = 0.44mm
; solid infill extrusion width = 0.46mm
; top infill extrusion width = 0.44mm
; first layer extrusion width = 0.60mm

@Objectinfo filament_flow_test id:0 copy 0 X157.799999 Y130.599998
@Objectinfo filament_flow_test id:1 copy 0 X157.799999 Y175.0
@Objectinfo filament_flow_test id:2 copy 0 X157.799999 Y219.400002
@Objectinfo filament_flow_test id:3 copy 0 X202.200001 Y130.599998
@Objectinfo filament_flow_test id:4 copy 0 X202.200001 Y219.400002
; plater:{"center":[180.000000,175.000000,0.000000],"boundingbox_center":[180.000000,175.000000,0.750000],"boundingbox_size":[64.400002,108.800003,1.500000]}

;TYPE:Custom
M140 S60;
G28 x y ; home X and Y axes
M190 S60;
G28 Z ; home z axis
G1 Z5 F5000 ; lift nozzle
M107
G21 ; set units to millimeters
G90 ; use absolute coordinates
M82 ; use absolute distances for extrusion
G92 E0
; Filament gcode
M104 S205 ; set temperature
M109 S205 ; set temperature and wait for it to be reached
;LAYER_CHANGE
;Z:0.3
;HEIGHT:0.3
G1 Z0.300000 F7800
G1 E-0.50000 F2400
G1 X143.108 Y116.566 F7800
G1 E0.00000 F2400
;TYPE:Skirt
;WIDTH:0.44
G1 F1800
G1 X143.685 Y115.979 E0.03855
G1 X144.339 Y115.470 E0.07739
G1 X145.051 Y115.057 E0.11594
G1 X145.816 Y114.739 E0.15478
G1 X146.611 Y114.527 E0.19333
G1 X147.434 Y114.423 E0.23217
G1 X202.206 Y114.412 E2.79822
G1 X202.948 Y114.458 E2.83303
G1 X203.679 Y114.592 E2.86785
G1 X213.772 Y117.115 E3.35527
G1 X214.911 Y117.538 E3.41219
G1 X215.574 Y117.913 E3.44786
G1 X216.186 Y118.367 E3.48354
G1 X216.733 Y118.888 E3.51893
G1 X217.216 Y119.476 E3.55461
G1 X217.620 Y120.115 E3.59000
G1 X217.946 Y120.803 E3.62568
G1 X218.184 Y121.526 E3.66136
G1 X218.331 Y122.267 E3.69675
G1 X218.388 Y123.094 E3.73559
G1 X218.388 Y226.931 E8.60026
G1 X218.234 Y228.271 E8.66348
G1 X217.793 Y229.547 E8.72669
G1 X217.205 Y230.539 E8.78074
G1 X216.438 Y231.409 E8.83508
G1 X215.522 Y232.120 E8.88941
G1 X214.489 Y232.649 E8.94375
G1 X213.730 Y232.896 E8.98115
G1 X203.683 Y235.408 E9.46635
G1 X202.665 Y235.570 E9.51466
G1 X147.739 Y235.588 E12.08791
G1 X146.417 Y235.431 E12.15027
G1 X145.153 Y234.993 E12.21291
G1 X144.409 Y234.576 E12.25290
G1 X143.734 Y234.064 E12.29260
G1 X143.130 Y233.460 E12.33259
G1 X142.616 Y232.779 E12.37258
G1 X142.200 Y232.033 E12.41256
G1 X141.891 Y231.238 E12.45255
G1 X141.695 Y230.407 E12.49254
G1 X141.614 Y229.557 E12.53253
G1 X141.612 Y120.569 E17.63855
G1 X141.766 Y119.229 E17.70176
G1 X142.207 Y117.953 E17.76498
G1 X142.611 Y117.229 E17.80382
G1 X143.072 Y116.614 E17.83984
G92 E0
G1 E-0.50000 F2400
G1 X147.073 Y120.183 F7800
G1 E0.00000 F2400
;WIDTH:0.604
G1 F1800
G1 X147.383 Y119.873 E0.02949
G1 X147.581 Y119.791 E0.04394
G1 X158.019 Y119.791 E0.74648
G1 X158.217 Y119.873 E0.76093
G1 X158.527 Y120.183 E0.79042
G1 X158.609 Y120.381 E0.80487
G1 X158.609 Y122.291 E0.93340
G1 X168.019 Y122.291 E1.56671
G1 X168.217 Y122.373 E1.58116
G1 X168.527 Y122.683 E1.61065
G1 X168.609 Y122.881 E1.62510
G1 X168.609 Y138.319 E2.66415
G1 X168.527 Y138.517 E2.67860
G1 X168.217 Y138.827 E2.70809
G1 X168.019 Y138.909 E2.72254
G1 X158.609 Y138.909 E3.35585
G1 X158.609 Y140.819 E3.48438
G1 X158.527 Y141.017 E3.49883
G1 X158.217 Y141.327 E3.52832
G1 X158.019 Y141.409 E3.54277
G1 X147.581 Y141.409 E4.24531
G1 X147.383 Y141.327 E4.25976
G1 X147.073 Y141.017 E4.28925
G1 X146.991 Y140.819 E4.30370
G1 X146.991 Y120.381 E5.67928
G1 X147.050 Y120.238 E5.68969
G1 X147.530 Y120.488 F7800
G1 F1800
G1 X147.688 Y120.330 E5.70473
G1 X157.912 Y120.330 E6.39282
G1 X158.070 Y120.488 E6.40786
G1 X158.070 Y122.830 E6.56549
G1 X167.912 Y122.830 E7.22789
G1 X168.070 Y122.988 E7.24294
G1 X168.070 Y138.212 E8.26755
G1 X167.912 Y138.370 E8.28259
G1 X158.070 Y138.370 E8.94500
G1 X158.070 Y140.712 E9.10262
G1 X157.912 Y140.870 E9.11766
G1 X147.688 Y140.870 E9.80575
G1 X147.530 Y140.712 E9.82080
G1 X147.530 Y120.548 E11.17789
; INIT printing object filament_flow_test id:0 copy 0
@Object filament_flow_test id:0 copy 0
G1 X148.102 Y120.902 F7800
;TYPE:External perimeter
G1 F1800
G1 X148.102 Y140.298 E12.22224
G1 X157.498 Y140.298 E12.72815
G1 X157.498 Y137.798 E12.86276
G1 X167.498 Y137.798 E13.40119
G1 X167.498 Y123.402 E14.17632
G1 X157.498 Y123.402 E14.71476
G1 X157.498 Y120.902 E14.84937
G1 X148.162 Y120.902 E15.35205
G1 X148.302 Y121.248 F7800
G1 X148.642 Y121.442
;TYPE:Internal perimeter
G1 F1800
G1 X148.642 Y139.758 E16.33829
G1 X156.958 Y139.758 E16.78609
G1 X156.958 Y137.258 E16.92070
G1 X166.958 Y137.258 E17.45913
G1 X166.958 Y123.942 E18.17615
G1 X156.958 Y123.942 E18.71459
G1 X156.958 Y121.442 E18.84920
G1 X148.702 Y121.442 E19.29377
G1 X149.181 Y121.981 F7800
G1 F1800
G1 X149.181 Y139.219 E20.22190
G1 X156.419 Y139.219 E20.61159
G1 X156.419 Y136.719 E20.74620
G1 X166.419 Y136.719 E21.28463
G1 X166.419 Y124.481 E21.94355
G1 X156.419 Y124.481 E22.48198
G1 X156.419 Y121.981 E22.61659
G1 X149.241 Y121.981 E23.00305
G92 E0
G1 E-0.50000 F2400
G1 X165.166 Y124.643 F7800
G1 E0.00000 F2400
;TYPE:Solid infill
;WIDTH:0.60219
G1 F1800
G1 X166.014 Y125.491 E0.06438
G1 X166.014 Y126.254 E0.10534
G1 X164.646 Y124.886 E0.20922
G1 X163.883 Y124.886 E0.25019
G1 X166.014 Y127.017 E0.41200
G1 X166.014 Y127.781 E0.45297
G1 X163.119 Y124.886 E0.67272
G1 X162.356 Y124.886 E0.71369
G1 X166.014 Y128.544 E0.99137
G1 X166.014 Y129.307 E1.03234
G1 X161.593 Y124.886 E1.36796
G1 X160.830 Y124.886 E1.40893
G1 X166.014 Y130.070 E1.80248
G1 X166.014 Y130.833 E1.84345
G1 X160.067 Y124.886 E2.29494
G1 X159.304 Y124.886 E2.33591
G1 X166.014 Y131.596 E2.84534
G1 X166.014 Y132.359 E2.88630
G1 X158.541 Y124.886 E3.45367
G1 X157.778 Y124.886 E3.49464
G1 X166.014 Y133.122 E4.11994
G1 X166.014 Y133.886 E4.16090
G1 X156.772 Y124.643 E4.86257
G1 X156.257 Y123.365 F7800
G1 F1800
G1 X155.278 Y122.386 E4.93692
G1 X154.514 Y122.386 E4.97789
G1 X156.257 Y124.128 E5.11018
G92 E0
G1 E-0.50000 F2400
G1 X153.508 Y122.143 F7800
G1 E0.00000 F2400
G1 F1800
G1 X166.014 Y134.649 E0.94940
G1 X166.014 Y135.412 E0.99037
G1 X152.988 Y122.386 E1.97927
G1 X152.225 Y122.386 E2.02024
G1 X166.014 Y136.175 E3.06707
G1 X166.014 Y136.314 E3.07454
G1 X165.390 Y136.314 E3.10804
G1 X151.462 Y122.386 E4.16544
G1 X150.699 Y122.386 E4.20640
G1 X164.627 Y136.314 E5.26380
G1 X163.864 Y136.314 E5.30476
G1 X149.936 Y122.386 E6.36216
G1 X149.586 Y122.386 E6.38093
G1 X149.586 Y122.799 E6.40313
G1 X163.101 Y136.314 E7.42913
G1 X162.337 Y136.314 E7.47010
G1 X149.586 Y123.563 E8.43816
G1 X149.586 Y124.326 E8.47913
G1 X161.574 Y136.314 E9.38926
G1 X160.811 Y136.314 E9.43023
G1 X149.586 Y125.089 E10.28242
G1 X149.586 Y125.852 E10.32339
G1 X160.048 Y136.314 E11.11765
G1 X159.285 Y136.314 E11.15862
G1 X149.586 Y126.615 E11.89494
G1 X149.586 Y127.378 E11.93591
G1 X158.522 Y136.314 E12.61429
G1 X157.759 Y136.314 E12.65526
G1 X149.586 Y128.141 E13.27571
G1 X149.586 Y128.905 E13.31668
G1 X156.995 Y136.314 E13.87920
G1 X156.232 Y136.314 E13.92016
G1 X149.586 Y129.668 E14.42474
G1 X149.586 Y130.431 E14.46571
G1 X156.014 Y136.859 E14.95372
G1 X156.014 Y137.622 E14.99469
G1 X149.586 Y131.194 E15.48270
G1 X149.586 Y131.957 E15.52366
G1 X156.014 Y138.385 E16.01167
G1 X156.014 Y138.814 E16.03470
G1 X155.680 Y138.814 E16.05264
G1 X149.586 Y132.720 E16.51527
G1 X149.586 Y133.483 E16.55624
G1 X154.917 Y138.814 E16.96094
G1 X154.154 Y138.814 E17.00190
G1 X149.586 Y134.246 E17.34866
G1 X149.586 Y135.010 E17.38963
G1 X153.390 Y138.814 E17.67846
G1 X152.627 Y138.814 E17.71942
G1 X149.586 Y135.773 E17.95031
G1 X149.586 Y136.536 E17.99128
G1 X151.864 Y138.814 E18.16423
G1 X151.101 Y138.814 E18.20520
G1 X149.586 Y137.299 E18.32022
G1 X149.586 Y138.062 E18.36119
G1 X150.581 Y139.057 E18.43670
; INIT stop printing object filament_flow_test id:0 copy 0
;LAYER_CHANGE
;Z:0.5
;HEIGHT:0.2
@Objectstop filament_flow_test id:0 copy 0
G1 Z0.500000 F7800
; INIT printing object filament_flow_test id:0 copy 0
@Object filament_flow_test id:0 copy 0
G1 X148.830 Y139.570
;TYPE:Internal perimeter
;WIDTH:0.464
G1 F4500
G1 X148.830 Y121.630 E18.93920
G1 X156.664 Y121.630 E19.15863
G1 X156.664 Y139.570 E19.66113
G1 X148.890 Y139.570 E19.87888
G1 X148.409 Y139.991 F7800
G1 F4500
G1 X148.409 Y121.209 E20.40497
G1 X157.191 Y121.209 E20.65095
G1 X157.191 Y121.667 E20.66378
G1 X157.085 Y121.667 E20.66674
G1 X157.085 Y139.533 E21.16716
G1 X157.191 Y139.533 E21.17012
G1 X157.191 Y139.991 E21.18296
G1 X148.469 Y139.991 E21.42726
G92 E0
G1 E-0.50000 F2400
G1 X161.925 Y135.970 F7800
G1 E0.00000 F2400
;TYPE:External perimeter
;WIDTH:0.42
G1 F1163.2527
G1 X161.961 Y136.087 E0.00308
G1 X162.018 Y136.184 E0.00590
G1 X162.090 Y136.257 E0.00848
G1 X162.168 Y136.308 E0.01081
G1 X162.253 Y136.342 E0.01310
G1 X162.350 Y136.363 E0.01561
G1 X162.456 Y136.370 E0.01827
G1 X162.585 Y136.358 E0.02151
G1 X162.699 Y136.320 E0.02453
G1 X162.792 Y136.261 E0.02730
G1 X162.862 Y136.188 E0.02982
G1 X162.909 Y136.111 E0.03208
G1 X162.940 Y136.030 E0.03427
G1 X162.959 Y135.946 E0.03641
G1 X162.966 Y135.882 E0.03803
G1 X162.968 Y135.822 E0.03954
G1 X162.968 Y133.153 E0.10648
G1 X162.957 Y133.029 E0.10962
G1 X162.920 Y132.913 E0.11266
G1 X162.862 Y132.818 E0.11545
G1 X162.790 Y132.747 E0.11799
G1 X162.713 Y132.698 E0.12028
G1 X162.631 Y132.665 E0.12251
G1 X162.547 Y132.645 E0.12467
G1 X162.482 Y132.638 E0.12631
G1 X162.411 Y132.635 E0.12809
G1 X162.287 Y132.647 E0.13121
G1 X162.175 Y132.686 E0.13417
G1 X162.091 Y132.740 E0.13669
G1 X162.027 Y132.805 E0.13897
G1 X161.979 Y132.879 E0.14118
G1 X161.945 Y132.959 E0.14336
G1 X161.925 Y133.041 E0.14549
G1 X161.916 Y133.112 E0.14728
G1 X161.914 Y133.179 E0.14897
G1 X161.914 Y135.842 E0.21577
G1 X161.920 Y135.910 E0.21747
G1 X161.835 Y136.053 F7800
G92 E0
G1 E-0.50000 F2400
G1 X160.627 Y130.747 F7800
G1 E0.00000 F2400
G1 F2250
G1 X160.627 Y129.026 E0.04316
G1 X160.616 Y128.898 E0.04640
G1 X160.580 Y128.780 E0.04949
G1 X160.524 Y128.682 E0.05232
G1 X160.452 Y128.608 E0.05491
G1 X160.374 Y128.556 E0.05726
G1 X160.289 Y128.521 E0.05957
G1 X160.191 Y128.500 E0.06208
G1 X160.084 Y128.493 E0.06477
G1 X159.961 Y128.505 E0.06787
G1 X159.859 Y128.541 E0.07057
G1 X159.774 Y128.594 E0.07311
G1 X159.703 Y128.666 E0.07562
G1 X159.652 Y128.750 E0.07809
G1 X159.617 Y128.842 E0.08055
G1 X159.596 Y128.949 E0.08331
G1 X159.590 Y129.059 E0.08605
G1 X159.590 Y131.637 E0.15072
G1 X159.610 Y131.838 E0.15580
G1 X159.655 Y131.969 E0.15928
G1 X159.717 Y132.067 E0.16217
G1 X159.789 Y132.136 E0.16468
G1 X159.869 Y132.184 E0.16700
G1 X159.951 Y132.212 E0.16920
G1 X160.018 Y132.224 E0.17089
G1 X160.085 Y132.228 E0.17257
G1 X160.196 Y132.219 E0.17536
G1 X160.305 Y132.191 E0.17819
G1 X160.400 Y132.146 E0.18082
G1 X164.224 Y129.772 E0.29371
G1 X164.455 Y129.648 E0.30032
G1 X164.650 Y129.579 E0.30550
G1 X164.814 Y129.558 E0.30962
G1 X165.005 Y129.580 E0.31445
G1 X165.177 Y129.643 E0.31906
G1 X165.335 Y129.751 E0.32385
G1 X165.463 Y129.889 E0.32856
G1 X165.541 Y130.029 E0.33259
G1 X165.587 Y130.175 E0.33645
G1 X165.601 Y130.270 E0.33885
G1 X165.606 Y130.370 E0.34137
G1 X165.583 Y130.558 E0.34611
G1 X165.528 Y130.706 E0.35007
G1 X165.448 Y130.832 E0.35380
G1 X165.334 Y130.955 E0.35801
G1 X165.184 Y131.073 E0.36280
G1 X164.983 Y131.192 E0.36867
G1 X164.808 Y131.306 E0.37390
G1 X164.701 Y131.416 E0.37776
G1 X164.643 Y131.517 E0.38067
G1 X164.618 Y131.598 E0.38281
G1 X164.610 Y131.677 E0.38480
G1 X164.621 Y131.823 E0.38846
G1 X164.661 Y131.954 E0.39190
G1 X164.720 Y132.055 E0.39484
G1 X164.798 Y132.132 E0.39759
G1 X164.891 Y132.188 E0.40030
G1 X164.989 Y132.219 E0.40289
G1 X165.060 Y132.230 E0.40470
G1 X165.137 Y132.234 E0.40662
G1 X165.245 Y132.220 E0.40935
G1 X165.360 Y132.185 E0.41237
G1 X165.481 Y132.131 E0.41570
G1 X165.835 Y131.921 E0.42602
G1 X166.123 Y131.684 E0.43537
G1 X166.339 Y131.420 E0.44392
G1 X166.520 Y131.079 E0.45360
G1 X166.629 Y130.725 E0.46290
G1 X166.665 Y130.359 E0.47212
G1 X166.634 Y129.989 E0.48144
G1 X166.541 Y129.649 E0.49027
G1 X166.396 Y129.359 E0.49842
G1 X166.195 Y129.100 E0.50664
G1 X165.943 Y128.875 E0.51511
G1 X165.633 Y128.682 E0.52428
G1 X165.308 Y128.553 E0.53304
G1 X165.062 Y128.501 E0.53935
G1 X164.808 Y128.484 E0.54572
G1 X164.455 Y128.520 E0.55464
G1 X164.103 Y128.629 E0.56387
G1 X163.765 Y128.803 E0.57340
G1 X160.678 Y130.715 E0.66450
G1 X160.760 Y130.370 F7800
G92 E0
G1 E-0.50000 F2400
G1 X161.477 Y127.846 F7800
G1 E0.00000 F2400
G1 F2019.0965
G1 X161.637 Y127.891 E0.00416
G1 X162.273 Y128.023 E0.02047
G1 X162.686 Y128.078 E0.03091
G1 X163.111 Y128.097 E0.04158
G1 X163.557 Y128.077 E0.05277
G1 X164.004 Y128.017 E0.06409
G1 X164.835 Y127.843 E0.08539
G1 X165.445 Y127.656 E0.10139
G1 X165.759 Y127.525 E0.10994
G1 X166.028 Y127.379 E0.11762
G1 X166.273 Y127.190 E0.12536
G1 X166.464 Y126.956 E0.13295
G1 X166.591 Y126.685 E0.14045
G1 X166.647 Y126.451 E0.14649
G1 X166.665 Y126.201 E0.15278
G1 X166.633 Y125.882 E0.16080
G1 X166.535 Y125.593 E0.16847
G1 X166.389 Y125.365 E0.17525
G1 X166.257 Y125.226 E0.18007
G1 X166.104 Y125.106 E0.18493
G1 X165.697 Y124.873 E0.19671
G1 X165.222 Y124.679 E0.20958
G1 X164.646 Y124.516 E0.22459
G1 X163.996 Y124.394 E0.24118
G1 X163.585 Y124.351 E0.25154
G1 X163.172 Y124.336 E0.26191
G1 X162.735 Y124.352 E0.27289
G1 X162.299 Y124.400 E0.28389
G1 X161.606 Y124.529 E0.30156
G1 X160.998 Y124.704 E0.31743
G1 X160.566 Y124.879 E0.32913
G1 X160.185 Y125.088 E0.34003
G1 X159.949 Y125.278 E0.34764
G1 X159.767 Y125.513 E0.35509
G1 X159.649 Y125.783 E0.36247
G1 X159.604 Y125.995 E0.36790
G1 X159.589 Y126.219 E0.37354
G1 X159.621 Y126.531 E0.38141
G1 X159.719 Y126.817 E0.38900
G1 X159.865 Y127.045 E0.39579
G1 X160.022 Y127.207 E0.40144
G1 X160.208 Y127.345 E0.40724
G1 X160.603 Y127.554 E0.41846
G1 X161.086 Y127.737 E0.43142
G1 X161.419 Y127.830 E0.44010
G1 X161.519 Y128.007 F7800
G92 E0
G1 E-0.50000 F2400
G1 X157.590 Y123.310 F7800
G1 E0.00000 F2400
G1 F2250
G1 X167.590 Y123.310 E0.25083
G1 X167.590 Y137.890 E0.61655
G1 X157.590 Y137.890 E0.86739
G1 X157.590 Y140.390 E0.93009
G1 X148.010 Y140.390 E1.17039
G1 X148.010 Y120.810 E1.66153
G1 X157.590 Y120.810 E1.90183
G1 X157.590 Y123.250 E1.96303
G1 X157.590 Y123.710 F7800
G1 X155.687 Y139.444
;TYPE:Solid infill
;WIDTH:0.466134
G1 F1800
G1 X156.348 Y138.782 E1.98936
G1 X156.348 Y138.438 E1.99904
G1 X156.327 Y138.417 E1.99988
G1 X156.327 Y138.207 E2.00577
G1 X155.281 Y139.254 E2.04743
G1 X154.685 Y139.254 E2.06418
G1 X156.327 Y137.612 E2.12953
G1 X156.327 Y137.016 E2.14629
G1 X154.090 Y139.254 E2.23534
G1 X153.494 Y139.254 E2.25209
G1 X156.327 Y136.421 E2.36484
G1 X156.327 Y135.825 E2.38160
G1 X152.899 Y139.254 E2.51804
G1 X152.303 Y139.254 E2.53479
G1 X156.327 Y135.230 E2.69494
G1 X156.327 Y134.634 E2.71169
G1 X151.708 Y139.254 E2.89553
G1 X151.112 Y139.254 E2.91229
G1 X156.327 Y134.039 E3.11982
G1 X156.327 Y133.443 E3.13658
G1 X150.517 Y139.254 E3.36781
G1 X149.921 Y139.254 E3.38457
G1 X156.327 Y132.848 E3.63950
G1 X156.327 Y132.252 E3.65626
G1 X149.326 Y139.254 E3.93489
G1 X149.146 Y139.254 E3.93994
G1 X149.146 Y138.838 E3.95164
G1 X156.327 Y131.657 E4.23742
G1 X156.327 Y131.061 E4.25418
