; generated by PrusaSlicer 2.3.3+win64 on 2021-08-22 at 19:09:28 UTC

; 

; external perimeters extrusion width = 0.45mm
; perimeters extrusion width = 0.45mm
; infill extrusion width = 0.45mm
; solid infill extrusion width = 0.45mm
; top infill extrusion width = 0.40mm
; first layer extrusion width = 0.45mm

M201 X550 Y550 Z100 E1000 ; sets maximum accelerations, mm/sec^2
M203 X300 Y300 Z5 E25 ; sets maximum feedrates, mm/sec
M204 P500 R500 T500 ; sets acceleration (P, T) and retract acceleration (R), mm/sec^2
M205 X10.00 Y10.00 Z0.40 E5.00 ; sets the jerk limits, mm/sec
M205 S0 T0 ; sets the minimum extruding and travel feed rate, mm/sec
M107 ; disable fan
;TYPE:Custom
//M85 S180 ; For use with raspberry only, it kills the printer if it loses the USB connection and remains inactive for 3 minutes. It works in Marlin 1.1.6
M140 S75 ; set bed temp
M190 S75 ; wait for bed temp
G28 ; Home all axes
G29 ; Auto bed-level (BL-Touch) // Comment if you don't like the automatic level in each print
M104 S260 ; set extruder temp
G92 E0 ; Reset Extruder
G1 X5 Y20 Z2.0 F3000.0 ; Move to start position
M109 S260 ; wait for extruder temp
G1 X5 Y200.0 Z0.3 F1500.0 E15 ; Draw the first line
G1 X5 Y200.0 Z0.3 F5000.0 ; Move to side a little
G1 X5.4 Y20 Z0.3 F1500.0 E30 ; Draw the second line
G92 E0 ; Reset Extruder
G1 Z1.0 F3000 ; Move Z Axis up little to prevent scratching of Heat Bed
G21 ; set units to millimeters
G90 ; use absolute coordinates
M82 ; use absolute distances for extrusion
G92 E0 ; reset extrusion distance
; Filament gcode
;LAYER_CHANGE
;Z:0.25
;HEIGHT:0.25
G1 E-1.20000 F2400.000 ; retract
G92 E0 ; reset extrusion distance
G1 Z0.250 F9000.000 ; move to next layer (0)
G1 X167.459 Y167.076 ; move to first skirt point
G1 E1.25000 F2400.000 ; unretract
;TYPE:Skirt
;WIDTH:0.45
G1 F1200.000
G1 X169.224 Y165.711 E1.34192 ; skirt
G1 X171.036 Y164.805 E1.42537 ; skirt
G1 X173.167 Y164.216 E1.51645 ; skirt
G1 X175.151 Y164.063 E1.59843 ; skirt
G1 X177.451 Y164.339 E1.69387 ; skirt
G1 X179.569 Y165.062 E1.78605 ; skirt
G1 X181.378 Y166.113 E1.87224 ; skirt
G1 X182.995 Y167.535 E1.96094 ; skirt
G1 X184.276 Y169.203 E2.04761 ; skirt
G1 X185.248 Y171.175 E2.13816 ; skirt
G1 X185.781 Y173.148 E2.22236 ; skirt
G1 X185.935 Y175.288 E2.31073 ; skirt
G1 X185.682 Y177.356 E2.39659 ; skirt
G1 X184.978 Y179.484 E2.48894 ; skirt
G1 X183.864 Y181.410 E2.58058 ; skirt
G1 X182.538 Y182.928 E2.66361 ; skirt
G1 X180.772 Y184.292 E2.75553 ; skirt
G1 X178.960 Y185.197 E2.83897 ; skirt
G1 X176.828 Y185.785 E2.93006 ; skirt
G1 X174.821 Y185.938 E3.01298 ; skirt
G1 X172.798 Y185.715 E3.09684 ; skirt
G1 X170.679 Y185.049 E3.18833 ; skirt
G1 X168.719 Y183.956 E3.28078 ; skirt
G1 X167.146 Y182.614 E3.36594 ; skirt
G1 X165.763 Y180.861 E3.45795 ; skirt
G1 X164.766 Y178.862 E3.54998 ; skirt
G1 X164.220 Y176.857 E3.63556 ; skirt
G1 X164.065 Y174.712 E3.72415 ; skirt
G1 X164.318 Y172.644 E3.81001 ; skirt
G1 X165.020 Y170.520 E3.90215 ; skirt
G1 X166.134 Y168.594 E3.99379 ; skirt
G1 X167.419 Y167.121 E4.07434 ; skirt
G1 X167.717 Y167.381 F9000.000 ; move to first skirt point
G1 F1200.000
G1 X169.439 Y166.044 E4.16414 ; skirt
G1 X171.182 Y165.173 E4.24444 ; skirt
G1 X173.240 Y164.606 E4.33235 ; skirt
G1 X175.150 Y164.459 E4.41127 ; skirt
G1 X177.368 Y164.727 E4.50332 ; skirt
G1 X179.414 Y165.427 E4.59241 ; skirt
G1 X181.149 Y166.437 E4.67510 ; skirt
G1 X182.710 Y167.810 E4.76075 ; skirt
G1 X183.939 Y169.411 E4.84391 ; skirt
G1 X184.877 Y171.314 E4.93133 ; skirt
G1 X185.390 Y173.213 E5.01233 ; skirt
G1 X185.538 Y175.279 E5.09765 ; skirt
G1 X185.296 Y177.269 E5.18024 ; skirt
G1 X184.615 Y179.323 E5.26940 ; skirt
G1 X183.539 Y181.183 E5.35792 ; skirt
G1 X182.262 Y182.643 E5.43782 ; skirt
G1 X180.561 Y183.956 E5.52633 ; skirt
G1 X178.813 Y184.829 E5.60682 ; skirt
G1 X176.756 Y185.395 E5.69474 ; skirt
G1 X174.825 Y185.541 E5.77452 ; skirt
G1 X172.880 Y185.327 E5.85510 ; skirt
G1 X170.835 Y184.685 E5.94342 ; skirt
G1 X168.945 Y183.630 E6.03257 ; skirt
G1 X167.429 Y182.336 E6.11467 ; skirt
G1 X166.098 Y180.648 E6.20327 ; skirt
G1 X165.134 Y178.715 E6.29222 ; skirt
G1 X164.611 Y176.792 E6.37433 ; skirt
G1 X164.462 Y174.721 E6.45985 ; skirt
G1 X164.704 Y172.731 E6.54244 ; skirt
G1 X165.385 Y170.677 E6.63160 ; skirt
G1 X166.459 Y168.821 E6.71992 ; skirt
G1 X167.677 Y167.426 E6.79623 ; skirt
G1 X167.975 Y167.686 F9000.000 ; move to first skirt point
G1 F1200.000
G1 X169.650 Y166.379 E6.88377 ; skirt
G1 X171.325 Y165.543 E6.96091 ; skirt
G1 X173.309 Y164.996 E7.04566 ; skirt
G1 X175.149 Y164.856 E7.12171 ; skirt
G1 X177.281 Y165.113 E7.21016 ; skirt
G1 X179.252 Y165.788 E7.29597 ; skirt
G1 X180.921 Y166.761 E7.37555 ; skirt
G1 X182.425 Y168.086 E7.45815 ; skirt
G1 X183.602 Y169.620 E7.53782 ; skirt
G1 X184.508 Y171.459 E7.62228 ; skirt
G1 X185.000 Y173.283 E7.70009 ; skirt
G1 X185.142 Y175.276 E7.78237 ; skirt
G1 X184.909 Y177.182 E7.86149 ; skirt
G1 X184.253 Y179.163 E7.94747 ; skirt
G1 X183.216 Y180.953 E8.03266 ; skirt
G1 X181.986 Y182.358 E8.10962 ; skirt
G1 X180.350 Y183.621 E8.19474 ; skirt
G1 X178.671 Y184.459 E8.27207 ; skirt
G1 X176.687 Y185.005 E8.35682 ; skirt
G1 X174.827 Y185.145 E8.43365 ; skirt
G1 X172.962 Y184.939 E8.51097 ; skirt
G1 X170.990 Y184.320 E8.59611 ; skirt
G1 X169.170 Y183.304 E8.68196 ; skirt
G1 X167.715 Y182.062 E8.76079 ; skirt
G1 X166.434 Y180.438 E8.84601 ; skirt
G1 X165.504 Y178.572 E8.93187 ; skirt
G1 X165.002 Y176.726 E9.01070 ; skirt
G1 X164.858 Y174.724 E9.09336 ; skirt
G1 X165.091 Y172.818 E9.17248 ; skirt
G1 X165.747 Y170.837 E9.25846 ; skirt
G1 X166.784 Y169.047 E9.34365 ; skirt
G1 X167.935 Y167.731 E9.41568 ; skirt
@Object Insert.stl id:0 copy 0
G1 E8.21568 F2400.000 ; retract
G92 E0 ; reset extrusion distance
G1 X171.731 Y171.731 F9000.000 ; move to first perimeter point
G1 E1.25000 F2400.000 ; unretract
;TYPE:Perimeter
G1 F1200.000
G1 X172.432 Y171.156 E1.28733 ; perimeter
G1 X173.231 Y170.729 E1.32467 ; perimeter
G1 X174.099 Y170.466 E1.36201 ; perimeter
G1 X174.973 Y170.378 E1.39822 ; perimeter
G1 X175.898 Y170.465 E1.43650 ; perimeter
G1 X176.769 Y170.729 E1.47398 ; perimeter
G1 X177.568 Y171.156 E1.51132 ; perimeter
G1 X178.269 Y171.731 E1.54865 ; perimeter
G1 X178.844 Y172.432 E1.58598 ; perimeter
G1 X179.271 Y173.231 E1.62332 ; perimeter
G1 X179.534 Y174.100 E1.66071 ; perimeter
G1 X179.623 Y175.000 E1.69797 ; perimeter
G1 X179.534 Y175.900 E1.73524 ; perimeter
G1 X179.271 Y176.769 E1.77263 ; perimeter
G1 X178.844 Y177.568 E1.80997 ; perimeter
G1 X178.269 Y178.269 E1.84730 ; perimeter
G1 X177.568 Y178.844 E1.88463 ; perimeter
G1 X176.769 Y179.271 E1.92197 ; perimeter
G1 X175.900 Y179.534 E1.95936 ; perimeter
G1 X175.000 Y179.623 E1.99663 ; perimeter
G1 X174.100 Y179.534 E2.03389 ; perimeter
G1 X173.231 Y179.271 E2.07128 ; perimeter
G1 X172.432 Y178.844 E2.10862 ; perimeter
G1 X171.731 Y178.269 E2.14595 ; perimeter
G1 X171.156 Y177.568 E2.18328 ; perimeter
G1 X170.729 Y176.769 E2.22062 ; perimeter
G1 X170.466 Y175.900 E2.25801 ; perimeter
G1 X170.377 Y175.000 E2.29528 ; perimeter
G1 X170.466 Y174.100 E2.33254 ; perimeter
G1 X170.729 Y173.231 E2.36994 ; perimeter
G1 X171.156 Y172.432 E2.40727 ; perimeter
G1 X171.693 Y171.778 E2.44213 ; perimeter
G1 X172.000 Y172.029 F9000.000 ; move to first perimeter point
G1 F1200.000
G1 X172.653 Y171.488 E2.47709 ; perimeter
G1 X173.383 Y171.097 E2.51121 ; perimeter
G1 X174.177 Y170.857 E2.54536 ; perimeter
G1 X174.974 Y170.776 E2.57839 ; perimeter
G1 X175.821 Y170.856 E2.61344 ; perimeter
G1 X176.617 Y171.097 E2.64766 ; perimeter
G1 X177.347 Y171.488 E2.68178 ; perimeter
G1 X177.987 Y172.013 E2.71590 ; perimeter
G1 X178.512 Y172.653 E2.75001 ; perimeter
G1 X178.903 Y173.383 E2.78413 ; perimeter
G1 X179.144 Y174.177 E2.81831 ; perimeter
G1 X179.224 Y175.000 E2.85236 ; perimeter
G1 X179.144 Y175.823 E2.88641 ; perimeter
G1 X178.903 Y176.617 E2.92059 ; perimeter
G1 X178.512 Y177.347 E2.95470 ; perimeter
G1 X177.987 Y177.987 E2.98882 ; perimeter
G1 X177.347 Y178.512 E3.02293 ; perimeter
G1 X176.617 Y178.903 E3.05705 ; perimeter
G1 X175.823 Y179.144 E3.09123 ; perimeter
G1 X175.000 Y179.224 E3.12528 ; perimeter
G1 X174.177 Y179.144 E3.15933 ; perimeter
G1 X173.383 Y178.903 E3.19351 ; perimeter
G1 X172.653 Y178.512 E3.22762 ; perimeter
G1 X172.013 Y177.987 E3.26174 ; perimeter
G1 X171.488 Y177.347 E3.29586 ; perimeter
G1 X171.097 Y176.617 E3.32997 ; perimeter
G1 X170.856 Y175.823 E3.36415 ; perimeter
G1 X170.776 Y175.000 E3.39820 ; perimeter
G1 X170.856 Y174.177 E3.43225 ; perimeter
G1 X171.097 Y173.383 E3.46643 ; perimeter
G1 X171.488 Y172.653 E3.50055 ; perimeter
G1 X171.962 Y172.075 E3.53133 ; perimeter
G1 X172.268 Y172.327 F9000.000 ; move to first perimeter point
;TYPE:External perimeter
G1 F1200.000
G1 X172.874 Y171.819 E3.56392 ; perimeter
G1 X173.536 Y171.465 E3.59482 ; perimeter
G1 X174.255 Y171.247 E3.62577 ; perimeter
G1 X174.976 Y171.174 E3.65562 ; perimeter
G1 X175.745 Y171.247 E3.68743 ; perimeter
G1 X176.464 Y171.465 E3.71841 ; perimeter
G1 X177.126 Y171.819 E3.74931 ; perimeter
G1 X177.705 Y172.295 E3.78021 ; perimeter
G1 X178.181 Y172.874 E3.81111 ; perimeter
G1 X178.535 Y173.536 E3.84201 ; perimeter
G1 X178.753 Y174.255 E3.87297 ; perimeter
G1 X178.826 Y175.000 E3.90380 ; perimeter
G1 X178.753 Y175.745 E3.93464 ; perimeter
G1 X178.535 Y176.464 E3.96560 ; perimeter
G1 X178.181 Y177.126 E3.99650 ; perimeter
G1 X177.705 Y177.705 E4.02740 ; perimeter
G1 X177.126 Y178.181 E4.05830 ; perimeter
G1 X176.464 Y178.535 E4.08920 ; perimeter
G1 X175.745 Y178.753 E4.12016 ; perimeter
G1 X175.000 Y178.826 E4.15100 ; perimeter
G1 X174.255 Y178.753 E4.18183 ; perimeter
G1 X173.536 Y178.535 E4.21279 ; perimeter
G1 X172.874 Y178.181 E4.24369 ; perimeter
G1 X172.295 Y177.705 E4.27459 ; perimeter
G1 X171.819 Y177.126 E4.30549 ; perimeter
G1 X171.465 Y176.464 E4.33639 ; perimeter
G1 X171.247 Y175.745 E4.36735 ; perimeter
G1 X171.174 Y175.000 E4.39819 ; perimeter
G1 X171.247 Y174.255 E4.42902 ; perimeter
G1 X171.465 Y173.536 E4.45998 ; perimeter
G1 X171.819 Y172.874 E4.49088 ; perimeter
G1 X172.230 Y172.373 E4.51758 ; perimeter
G1 X172.161 Y171.941 F9000.000 ; move inwards before travel
G1 X171.127 Y170.917 ; move to first perimeter point
;TYPE:Perimeter
G1 F1200.000
G1 X172.063 Y170.200 E4.56619 ; perimeter
G1 X172.961 Y169.755 E4.60748 ; perimeter
G1 X174.099 Y169.445 E4.65605 ; perimeter
G1 X175.115 Y169.374 E4.69799 ; perimeter
G1 X176.272 Y169.519 E4.74604 ; perimeter
G1 X177.405 Y169.912 E4.79542 ; perimeter
G1 X178.268 Y170.419 E4.83667 ; perimeter
G1 X179.152 Y171.201 E4.88527 ; perimeter
G1 X179.759 Y171.998 E4.92656 ; perimeter
G1 X180.281 Y173.056 E4.97517 ; perimeter
G1 X180.542 Y174.024 E5.01646 ; perimeter
G1 X180.624 Y175.193 E5.06474 ; perimeter
G1 X180.502 Y176.180 E5.10571 ; perimeter
G1 X180.127 Y177.319 E5.15510 ; perimeter
G1 X179.536 Y178.331 E5.20339 ; perimeter
G1 X178.873 Y179.083 E5.24467 ; perimeter
G1 X177.937 Y179.800 E5.29328 ; perimeter
G1 X177.039 Y180.245 E5.33456 ; perimeter
G1 X175.900 Y180.555 E5.38319 ; perimeter
G1 X174.902 Y180.627 E5.42441 ; perimeter
G1 X173.905 Y180.520 E5.46572 ; perimeter
G1 X172.785 Y180.172 E5.51401 ; perimeter
G1 X171.739 Y179.586 E5.56339 ; perimeter
G1 X170.978 Y178.936 E5.60463 ; perimeter
G1 X170.251 Y178.017 E5.65292 ; perimeter
G1 X169.719 Y176.943 E5.70229 ; perimeter
G1 X169.458 Y175.976 E5.74355 ; perimeter
G1 X169.376 Y174.807 E5.79183 ; perimeter
G1 X169.498 Y173.820 E5.83280 ; perimeter
G1 X169.873 Y172.681 E5.88219 ; perimeter
G1 X170.464 Y171.669 E5.93047 ; perimeter
G1 X171.087 Y170.962 E5.96929 ; perimeter
G1 X170.790 Y170.700 F9000.000 ; move to first perimeter point
G1 F1200.000
G1 X170.855 Y170.626 E5.97335 ; perimeter
G1 X171.853 Y169.862 E6.02514 ; perimeter
G1 X172.820 Y169.382 E6.06961 ; perimeter
G1 X174.033 Y169.053 E6.12137 ; perimeter
G1 X175.126 Y168.976 E6.16651 ; perimeter
G1 X176.363 Y169.131 E6.21787 ; perimeter
G1 X177.571 Y169.551 E6.27058 ; perimeter
G1 X178.502 Y170.097 E6.31502 ; perimeter
G1 X179.443 Y170.930 E6.36681 ; perimeter
G1 X180.098 Y171.788 E6.41127 ; perimeter
G1 X180.654 Y172.915 E6.46306 ; perimeter
G1 X180.935 Y173.958 E6.50753 ; perimeter
G1 X181.022 Y175.203 E6.55898 ; perimeter
G1 X180.891 Y176.267 E6.60313 ; perimeter
G1 X180.490 Y177.482 E6.65585 ; perimeter
G1 X179.859 Y178.564 E6.70744 ; perimeter
G1 X179.145 Y179.374 E6.75190 ; perimeter
G1 X178.147 Y180.138 E6.80369 ; perimeter
G1 X177.180 Y180.618 E6.84815 ; perimeter
G1 X175.967 Y180.947 E6.89995 ; perimeter
G1 X174.895 Y181.025 E6.94424 ; perimeter
G1 X173.824 Y180.910 E6.98859 ; perimeter
G1 X172.628 Y180.539 E7.04019 ; perimeter
G1 X171.512 Y179.913 E7.09290 ; perimeter
G1 X170.691 Y179.212 E7.13734 ; perimeter
G1 X169.914 Y178.230 E7.18893 ; perimeter
G1 X169.346 Y177.084 E7.24164 ; perimeter
G1 X169.065 Y176.042 E7.28608 ; perimeter
G1 X168.978 Y174.797 E7.33753 ; perimeter
G1 X169.109 Y173.733 E7.38168 ; perimeter
G1 X169.510 Y172.518 E7.43440 ; perimeter
G1 X170.141 Y171.436 E7.48599 ; perimeter
G1 X170.750 Y170.745 E7.52391 ; perimeter
G1 X170.453 Y170.483 F9000.000 ; move to first perimeter point
;TYPE:External perimeter
G1 F1200.000
G1 X170.583 Y170.335 E7.53204 ; perimeter
G1 X171.642 Y169.524 E7.58701 ; perimeter
G1 X172.679 Y169.010 E7.63466 ; perimeter
G1 X173.966 Y168.660 E7.68962 ; perimeter
G1 X175.136 Y168.578 E7.73795 ; perimeter
G1 X176.453 Y168.743 E7.79262 ; perimeter
G1 X177.738 Y169.189 E7.84866 ; perimeter
G1 X178.736 Y169.774 E7.89630 ; perimeter
G1 X179.735 Y170.659 E7.95127 ; perimeter
G1 X180.436 Y171.578 E7.99891 ; perimeter
G1 X181.026 Y172.775 E8.05388 ; perimeter
G1 X181.327 Y173.892 E8.10153 ; perimeter
G1 X181.420 Y175.214 E8.15613 ; perimeter
G1 X181.280 Y176.354 E8.20347 ; perimeter
G1 X180.853 Y177.646 E8.25951 ; perimeter
G1 X180.181 Y178.797 E8.31441 ; perimeter
G1 X179.417 Y179.665 E8.36205 ; perimeter
G1 X178.358 Y180.476 E8.41702 ; perimeter
G1 X177.321 Y180.990 E8.46467 ; perimeter
G1 X176.034 Y181.340 E8.51964 ; perimeter
G1 X174.888 Y181.423 E8.56698 ; perimeter
G1 X173.743 Y181.300 E8.61439 ; perimeter
G1 X172.470 Y180.905 E8.66929 ; perimeter
G1 X171.284 Y180.240 E8.72533 ; perimeter
G1 X170.405 Y179.489 E8.77297 ; perimeter
G1 X169.577 Y178.444 E8.82787 ; perimeter
G1 X168.974 Y177.225 E8.88390 ; perimeter
G1 X168.673 Y176.108 E8.93154 ; perimeter
G1 X168.580 Y174.786 E8.98615 ; perimeter
G1 X168.720 Y173.646 E9.03348 ; perimeter
G1 X169.147 Y172.354 E9.08952 ; perimeter
G1 X169.819 Y171.203 E9.14442 ; perimeter
G1 X170.413 Y170.528 E9.18147 ; perimeter
G1 X170.648 Y170.515 F9000.000 ; move inwards before travel
G1 X171.361 Y171.402 ; move to first infill point
;TYPE:Gap fill
;WIDTH:0.644103
G1 F1200.000
G1 X171.474 Y171.289 E9.19128 ; infill
G1 X172.182 Y170.730 E9.24663 ; infill
;WIDTH:0.640515
G1 X172.333 Y170.633 E9.25760 ; infill
G1 X173.141 Y170.229 E9.31272 ; infill
G1 X173.974 Y169.990 E9.36557 ; infill
G1 X174.184 Y169.948 E9.37864 ; infill
G1 X175.101 Y169.882 E9.43469 ; infill
G1 X175.964 Y169.977 E9.48768 ; infill
G1 X176.156 Y170.015 E9.49961 ; infill
G1 X176.983 Y170.286 E9.55272 ; infill
;WIDTH:0.642701
G1 X177.190 Y170.377 E9.56653 ; infill
G1 X177.868 Y170.760 E9.61422 ; infill
G1 X178.637 Y171.404 E9.67561 ; infill
;WIDTH:0.644232
G1 X178.777 Y171.549 E9.68800 ; infill
G1 X179.273 Y172.180 E9.73727 ; infill
G1 X179.737 Y173.069 E9.79884 ; infill
;WIDTH:0.642576
G1 X179.803 Y173.236 E9.80982 ; infill
G1 X180.042 Y174.108 E9.86516 ; infill
G1 X180.115 Y174.971 E9.91818 ; infill
G1 X180.115 Y175.180 E9.93093 ; infill
G1 X180.009 Y176.069 E9.98578 ; infill
G1 X179.736 Y176.930 E10.04107 ; infill
G1 X179.663 Y177.109 E10.05291 ; infill
G1 X179.237 Y177.866 E10.10604 ; infill
;WIDTH:0.644102
G1 X179.121 Y178.032 E10.11844 ; infill
G1 X178.599 Y178.641 E10.16768 ; infill
G1 X177.818 Y179.270 E10.22923 ; infill
;WIDTH:0.645859
G1 X177.667 Y179.367 E10.24031 ; infill
G1 X176.932 Y179.742 E10.29107 ; infill
G1 X175.968 Y180.024 E10.35291 ; infill
;WIDTH:0.64359
G1 X175.814 Y180.052 E10.36251 ; infill
G1 X174.971 Y180.122 E10.41440 ; infill
