; generated by PrusaSlicer 2.3.3+win64 on 2021-08-22 at 02:44:24 UTC

; 

; external perimeters extrusion width = 0.45mm
; perimeters extrusion width = 0.45mm
; infill extrusion width = 0.45mm
; solid infill extrusion width = 0.45mm
; top infill extrusion width = 0.40mm
; first layer extrusion width = 0.45mm

M201 X550 Y550 Z100 E1000 ; sets maximum accelerations, mm/sec^2
M203 X300 Y300 Z5 E25 ; sets maximum feedrates, mm/sec
M204 P500 R500 T500 ; sets acceleration (P, T) and retract acceleration (R), mm/sec^2
M205 X10.00 Y10.00 Z0.40 E5.00 ; sets the jerk limits, mm/sec
M205 S0 T0 ; sets the minimum extruding and travel feed rate, mm/sec
M107 ; disable fan
;TYPE:Custom
//M85 S180 ; For use with raspberry only, it kills the printer if it loses the USB connection and remains inactive for 3 minutes. It works in Marlin 1.1.6
M140 S75 ; set bed temp
M190 S75 ; wait for bed temp
G28 ; Home all axes
G29 ; Auto bed-level (BL-Touch) // Comment if you don't like the automatic level in each print
M104 S260 ; set extruder temp
G92 E0 ; Reset Extruder
G1 X5 Y20 Z2.0 F3000.0 ; Move to start position
M109 S260 ; wait for extruder temp
G1 X5 Y200.0 Z0.3 F1500.0 E15 ; Draw the first line
G1 X5 Y200.0 Z0.3 F5000.0 ; Move to side a little
G1 X5.4 Y20 Z0.3 F1500.0 E30 ; Draw the second line
G92 E0 ; Reset Extruder
G1 Z1.0 F3000 ; Move Z Axis up little to prevent scratching of Heat Bed
G21 ; set units to millimeters
G90 ; use absolute coordinates
M82 ; use absolute distances for extrusion
G92 E0 ; reset extrusion distance
; Filament gcode
;LAYER_CHANGE
;Z:0.25
;HEIGHT:0.25
G1 E-1.20000 F2400.000 ; retract
G92 E0 ; reset extrusion distance
G1 Z0.250 F9000.000 ; move to next layer (0)
G1 X85.993 Y108.587 ; move to first skirt point
G1 E1.25000 F2400.000 ; unretract
;TYPE:Skirt
;WIDTH:0.45
G1 F1200.000
G1 X87.063 Y108.035 E1.29961 ; skirt
G1 X88.241 Y107.810 E1.34902 ; skirt
G1 X143.935 Y107.805 E3.64336 ; skirt
G1 X144.739 Y107.884 E3.67664 ; skirt
G1 X262.079 Y131.077 E8.60405 ; skirt
G1 X263.808 Y131.555 E8.67797 ; skirt
G1 X265.337 Y132.287 E8.74780 ; skirt
G1 X265.934 Y132.665 E8.77692 ; skirt
G1 X267.362 Y133.823 E8.85265 ; skirt
G1 X268.550 Y135.215 E8.92806 ; skirt
G1 X269.537 Y136.946 E9.01010 ; skirt
G1 X270.162 Y138.809 E9.09109 ; skirt
G1 X270.421 Y140.786 E9.17323 ; skirt
G1 X270.423 Y229.452 E12.82586 ; skirt
G1 X270.146 Y231.418 E12.90769 ; skirt
G1 X269.509 Y233.294 E12.98928 ; skirt
G1 X268.520 Y235.014 E13.07102 ; skirt
G1 X267.229 Y236.500 E13.15214 ; skirt
G1 X265.883 Y237.567 E13.22287 ; skirt
G1 X265.275 Y237.939 E13.25221 ; skirt
G1 X263.777 Y238.652 E13.32060 ; skirt
G1 X261.960 Y239.143 E13.39811 ; skirt
G1 X144.413 Y258.855 E18.30818 ; skirt
G1 X88.339 Y258.882 E20.61818 ; skirt
G1 X87.522 Y258.784 E20.65208 ; skirt
G1 X86.745 Y258.529 E20.68577 ; skirt
G1 X86.028 Y258.126 E20.71967 ; skirt
G1 X85.407 Y257.594 E20.75336 ; skirt
G1 X84.915 Y256.972 E20.78601 ; skirt
G1 X84.548 Y256.269 E20.81867 ; skirt
G1 X84.321 Y255.510 E20.85132 ; skirt
G1 X84.241 Y254.721 E20.88398 ; skirt
G1 X84.241 Y111.984 E26.76414 ; skirt
G1 X84.315 Y111.210 E26.79617 ; skirt
G1 X84.529 Y110.468 E26.82800 ; skirt
G1 X85.125 Y109.421 E26.87761 ; skirt
G1 X85.950 Y108.629 E26.92475 ; skirt
G1 X86.222 Y108.912 F9000.000 ; move to first skirt point
G1 F1200.000
G1 X87.201 Y108.406 E26.97014 ; skirt
G1 X88.275 Y108.205 E27.01517 ; skirt
G1 X143.935 Y108.202 E29.30812 ; skirt
G1 X144.665 Y108.274 E29.33836 ; skirt
G1 X261.990 Y131.463 E34.26513 ; skirt
G1 X263.669 Y131.926 E34.33688 ; skirt
G1 X265.149 Y132.636 E34.40451 ; skirt
G1 X265.693 Y132.980 E34.43104 ; skirt
G1 X267.072 Y134.094 E34.50407 ; skirt
G1 X268.223 Y135.440 E34.57701 ; skirt
G1 X269.173 Y137.102 E34.65589 ; skirt
G1 X269.776 Y138.898 E34.73393 ; skirt
G1 X270.025 Y140.804 E34.81309 ; skirt
G1 X270.027 Y229.451 E38.46500 ; skirt
G1 X269.759 Y231.331 E38.54321 ; skirt
G1 X269.146 Y233.135 E38.62170 ; skirt
G1 X268.198 Y234.784 E38.70008 ; skirt
G1 X266.959 Y236.210 E38.77786 ; skirt
G1 X265.652 Y237.244 E38.84655 ; skirt
G1 X265.099 Y237.584 E38.87327 ; skirt
G1 X263.643 Y238.279 E38.93973 ; skirt
G1 X261.887 Y238.753 E39.01466 ; skirt
G1 X144.367 Y258.462 E43.92361 ; skirt
G1 X88.358 Y258.486 E46.23095 ; skirt
G1 X87.618 Y258.399 E46.26162 ; skirt
G1 X86.910 Y258.169 E46.29229 ; skirt
G1 X86.261 Y257.805 E46.32297 ; skirt
G1 X85.695 Y257.322 E46.35364 ; skirt
G1 X85.247 Y256.757 E46.38332 ; skirt
G1 X84.915 Y256.118 E46.41301 ; skirt
G1 X84.710 Y255.432 E46.44250 ; skirt
G1 X84.637 Y254.715 E46.47218 ; skirt
G1 X84.637 Y111.990 E52.35185 ; skirt
G1 X84.703 Y111.291 E52.38075 ; skirt
G1 X84.898 Y110.612 E52.40985 ; skirt
G1 X85.439 Y109.662 E52.45488 ; skirt
G1 X86.179 Y108.954 E52.49707 ; skirt
G1 X86.450 Y109.238 F9000.000 ; move to first skirt point
G1 F1200.000
G1 X87.336 Y108.779 E52.53816 ; skirt
G1 X88.304 Y108.600 E52.57872 ; skirt
G1 X143.935 Y108.598 E54.87048 ; skirt
G1 X144.586 Y108.662 E54.89744 ; skirt
G1 X261.911 Y131.852 E59.82422 ; skirt
G1 X263.530 Y132.298 E59.89343 ; skirt
G1 X264.962 Y132.985 E59.95885 ; skirt
G1 X266.781 Y134.363 E60.05287 ; skirt
G1 X267.895 Y135.661 E60.12332 ; skirt
G1 X268.809 Y137.260 E60.19921 ; skirt
G1 X269.390 Y138.988 E60.27430 ; skirt
G1 X269.629 Y140.817 E60.35028 ; skirt
G1 X269.630 Y229.451 E64.00163 ; skirt
G1 X269.373 Y231.244 E64.07623 ; skirt
G1 X268.784 Y232.972 E64.15143 ; skirt
G1 X267.874 Y234.555 E64.22667 ; skirt
G1 X266.689 Y235.920 E64.30114 ; skirt
G1 X265.421 Y236.922 E64.36774 ; skirt
G1 X264.921 Y237.230 E64.39190 ; skirt
G1 X263.509 Y237.906 E64.45639 ; skirt
G1 X261.814 Y238.364 E64.52872 ; skirt
G1 X144.325 Y258.068 E69.43636 ; skirt
G1 X88.371 Y258.090 E71.74144 ; skirt
G1 X87.707 Y258.013 E71.76897 ; skirt
G1 X87.071 Y257.807 E71.79650 ; skirt
G1 X86.492 Y257.483 E71.82384 ; skirt
G1 X85.983 Y257.050 E71.85136 ; skirt
G1 X85.582 Y256.545 E71.87796 ; skirt
G1 X85.283 Y255.972 E71.90455 ; skirt
G1 X85.098 Y255.354 E71.93114 ; skirt
G1 X85.034 Y254.711 E71.95774 ; skirt
G1 X85.034 Y111.990 E77.83726 ; skirt
G1 X85.092 Y111.365 E77.86311 ; skirt
G1 X85.267 Y110.758 E77.88914 ; skirt
G1 X85.754 Y109.902 E77.92970 ; skirt
G1 X86.407 Y109.280 E77.96685 ; skirt
@Object NEW_Adapter_for_v2+.stl id:0 copy 0
G1 E76.76685 F2400.000 ; retract
G92 E0 ; reset extrusion distance
G1 X104.582 Y189.288 F9000.000 ; move to first perimeter point
G1 E1.25000 F2400.000 ; unretract
;TYPE:Perimeter
G1 F1200.000
G1 X104.976 Y188.553 E1.28435 ; perimeter
G1 X105.488 Y187.927 E1.31765 ; perimeter
G1 X106.113 Y187.415 E1.35095 ; perimeter
G1 X106.826 Y187.033 E1.38425 ; perimeter
G1 X107.599 Y186.798 E1.41755 ; perimeter
G1 X108.390 Y186.719 E1.45028 ; perimeter
G1 X109.209 Y186.798 E1.48418 ; perimeter
G1 X109.984 Y187.033 E1.51757 ; perimeter
G1 X110.697 Y187.415 E1.55086 ; perimeter
G1 X111.322 Y187.927 E1.58416 ; perimeter
G1 X111.834 Y188.553 E1.61746 ; perimeter
G1 X112.228 Y189.287 E1.65177 ; perimeter
G1 X112.551 Y190.565 E1.70608 ; perimeter
G1 X112.551 Y227.012 E3.20755 ; perimeter
G1 X112.233 Y228.392 E3.26591 ; perimeter
G1 X111.834 Y229.136 E3.30067 ; perimeter
G1 X111.322 Y229.761 E3.33396 ; perimeter
G1 X110.697 Y230.274 E3.36726 ; perimeter
G1 X109.984 Y230.655 E3.40056 ; perimeter
G1 X109.211 Y230.890 E3.43388 ; perimeter
G1 X108.405 Y230.970 E3.46722 ; perimeter
G1 X107.600 Y230.890 E3.50057 ; perimeter
G1 X106.826 Y230.655 E3.53388 ; perimeter
G1 X106.113 Y230.274 E3.56718 ; perimeter
G1 X105.488 Y229.761 E3.60048 ; perimeter
G1 X104.976 Y229.136 E3.63378 ; perimeter
G1 X104.594 Y228.424 E3.66708 ; perimeter
G1 X104.359 Y227.649 E3.70043 ; perimeter
G1 X104.285 Y226.894 E3.73170 ; perimeter
G1 X104.300 Y190.415 E5.23446 ; perimeter
G1 X104.567 Y189.346 E5.27986 ; perimeter
G1 X104.952 Y189.442 F9000.000 ; move to first perimeter point
G1 F1200.000
G1 X105.307 Y188.774 E5.31103 ; perimeter
G1 X105.770 Y188.209 E5.34112 ; perimeter
G1 X106.335 Y187.746 E5.37121 ; perimeter
G1 X106.978 Y187.401 E5.40130 ; perimeter
G1 X107.677 Y187.189 E5.43138 ; perimeter
G1 X108.390 Y187.118 E5.46091 ; perimeter
G1 X109.132 Y187.189 E5.49159 ; perimeter
G1 X109.832 Y187.401 E5.52172 ; perimeter
G1 X110.476 Y187.746 E5.55181 ; perimeter
G1 X111.040 Y188.209 E5.58190 ; perimeter
G1 X111.503 Y188.774 E5.61199 ; perimeter
G1 X111.855 Y189.431 E5.64269 ; perimeter
G1 X112.154 Y190.614 E5.69297 ; perimeter
G1 X112.154 Y226.967 E7.19055 ; perimeter
G1 X111.858 Y228.252 E7.24487 ; perimeter
G1 X111.503 Y228.915 E7.27585 ; perimeter
G1 X111.040 Y229.480 E7.30594 ; perimeter
G1 X110.476 Y229.943 E7.33603 ; perimeter
G1 X109.832 Y230.288 E7.36612 ; perimeter
G1 X109.133 Y230.500 E7.39621 ; perimeter
G1 X108.405 Y230.572 E7.42633 ; perimeter
G1 X107.677 Y230.500 E7.45645 ; perimeter
G1 X106.978 Y230.288 E7.48655 ; perimeter
G1 X106.335 Y229.943 E7.51664 ; perimeter
G1 X105.770 Y229.480 E7.54673 ; perimeter
G1 X105.307 Y228.915 E7.57681 ; perimeter
G1 X104.962 Y228.271 E7.60690 ; perimeter
G1 X104.749 Y227.571 E7.63702 ; perimeter
G1 X104.682 Y226.874 E7.66587 ; perimeter
G1 X104.696 Y190.464 E9.16583 ; perimeter
G1 X104.937 Y189.500 E9.20675 ; perimeter
G1 X105.322 Y189.596 F9000.000 ; move to first perimeter point
;TYPE:External perimeter
G1 F1200.000
G1 X105.638 Y188.995 E9.23474 ; perimeter
G1 X106.051 Y188.491 E9.26161 ; perimeter
G1 X106.556 Y188.077 E9.28848 ; perimeter
G1 X107.131 Y187.769 E9.31536 ; perimeter
G1 X107.755 Y187.579 E9.34224 ; perimeter
G1 X108.391 Y187.516 E9.36857 ; perimeter
G1 X109.054 Y187.579 E9.39601 ; perimeter
G1 X109.679 Y187.769 E9.42291 ; perimeter
G1 X110.254 Y188.077 E9.44979 ; perimeter
G1 X110.759 Y188.491 E9.47666 ; perimeter
G1 X111.172 Y188.995 E9.50353 ; perimeter
G1 X111.483 Y189.575 E9.53064 ; perimeter
G1 X111.758 Y190.663 E9.57688 ; perimeter
G1 X111.758 Y226.922 E11.07058 ; perimeter
G1 X111.484 Y228.111 E11.12086 ; perimeter
G1 X111.172 Y228.694 E11.14807 ; perimeter
G1 X110.759 Y229.198 E11.17494 ; perimeter
G1 X110.254 Y229.612 E11.20181 ; perimeter
G1 X109.679 Y229.920 E11.22869 ; perimeter
G1 X109.055 Y230.109 E11.25557 ; perimeter
G1 X108.405 Y230.174 E11.28247 ; perimeter
G1 X107.755 Y230.109 E11.30936 ; perimeter
G1 X107.131 Y229.920 E11.33624 ; perimeter
G1 X106.556 Y229.612 E11.36312 ; perimeter
G1 X106.051 Y229.198 E11.38999 ; perimeter
G1 X105.638 Y228.694 E11.41687 ; perimeter
G1 X105.330 Y228.118 E11.44375 ; perimeter
G1 X105.140 Y227.494 E11.47063 ; perimeter
G1 X105.078 Y226.855 E11.49707 ; perimeter
G1 X105.092 Y190.513 E12.99422 ; perimeter
G1 X105.307 Y189.655 E13.03066 ; perimeter
G1 X105.057 Y189.296 F9000.000 ; move inwards before travel
G1 E11.83066 F2400.000 ; retract
G92 E0 ; reset extrusion distance
G1 X102.416 Y135.301 F9000.000 ; move to first perimeter point
G1 E1.25000 F2400.000 ; unretract
;TYPE:Perimeter
G1 F1200.000
G1 X108.865 Y135.336 E1.51569 ; perimeter
G1 X109.731 Y135.508 E1.55203 ; perimeter
G1 X110.573 Y135.857 E1.58959 ; perimeter
G1 X110.891 Y136.048 E1.60487 ; perimeter
G1 X111.597 Y136.627 E1.64250 ; perimeter
G1 X112.177 Y137.333 E1.68013 ; perimeter
G1 X112.367 Y137.651 E1.69541 ; perimeter
G1 X112.716 Y138.494 E1.73298 ; perimeter
G1 X112.887 Y139.355 E1.76915 ; perimeter
G1 X112.887 Y140.234 E1.80534 ; perimeter
G1 X112.716 Y141.095 E1.84152 ; perimeter
G1 X112.367 Y141.937 E1.87908 ; perimeter
G1 X112.177 Y142.255 E1.89436 ; perimeter
G1 X111.597 Y142.962 E1.93199 ; perimeter
G1 X110.918 Y143.518 E1.96816 ; perimeter
G1 X110.135 Y143.937 E2.00476 ; perimeter
G1 X108.416 Y144.486 E2.07910 ; perimeter
G1 X108.416 Y186.102 E3.79351 ; perimeter
G1 X108.477 Y186.122 E3.79613 ; perimeter
G1 X108.456 Y186.314 E3.80410 ; perimeter
G1 X107.521 Y186.408 E3.84283 ; perimeter
G1 X106.673 Y186.665 E3.87934 ; perimeter
G1 X105.892 Y187.084 E3.91585 ; perimeter
G1 X105.206 Y187.646 E3.95236 ; perimeter
G1 X104.645 Y188.331 E3.98887 ; perimeter
G1 X104.209 Y189.144 E4.02685 ; perimeter
G1 X103.903 Y190.366 E4.07875 ; perimeter
G1 X103.889 Y226.913 E5.58432 ; perimeter
G1 X103.968 Y227.727 E5.61800 ; perimeter
G1 X104.226 Y228.576 E5.65459 ; perimeter
G1 X104.645 Y229.357 E5.69109 ; perimeter
G1 X105.206 Y230.043 E5.72761 ; perimeter
G1 X105.892 Y230.605 E5.76412 ; perimeter
G1 X106.673 Y231.023 E5.80063 ; perimeter
G1 X106.799 Y231.062 E5.80607 ; perimeter
G1 X106.770 Y231.264 E5.81449 ; perimeter
G1 X102.416 Y231.288 E5.99386 ; perimeter
G1 X102.416 Y253.180 E6.89572 ; perimeter
G1 X89.944 Y253.180 E7.40951 ; perimeter
G1 X89.944 Y113.508 E13.16340 ; perimeter
G1 X102.416 Y113.508 E13.67719 ; perimeter
G1 X102.416 Y135.241 E14.57246 ; perimeter
G1 X102.812 Y134.906 F9000.000 ; move to first perimeter point
G1 F1200.000
G1 X108.905 Y134.940 E14.82348 ; perimeter
G1 X109.846 Y135.127 E14.86299 ; perimeter
G1 X110.752 Y135.502 E14.90337 ; perimeter
G1 X111.120 Y135.723 E14.92105 ; perimeter
G1 X111.879 Y136.345 E14.96150 ; perimeter
G1 X112.502 Y137.105 E15.00194 ; perimeter
G1 X112.722 Y137.473 E15.01962 ; perimeter
G1 X113.098 Y138.378 E15.06001 ; perimeter
G1 X113.284 Y139.316 E15.09940 ; perimeter
G1 X113.284 Y140.273 E15.13880 ; perimeter
G1 X113.098 Y141.210 E15.17819 ; perimeter
G1 X112.722 Y142.116 E15.21857 ; perimeter
G1 X112.502 Y142.484 E15.23626 ; perimeter
G1 X111.879 Y143.243 E15.27670 ; perimeter
G1 X111.140 Y143.850 E15.31610 ; perimeter
G1 X110.290 Y144.304 E15.35578 ; perimeter
G1 X108.812 Y144.776 E15.41968 ; perimeter
G1 X108.812 Y185.813 E17.11024 ; perimeter
G1 X110.290 Y186.285 E17.17414 ; perimeter
G1 X111.140 Y186.739 E17.21383 ; perimeter
G1 X111.898 Y187.361 E17.25424 ; perimeter
G1 X112.186 Y187.679 E17.27191 ; perimeter
G1 X112.746 Y188.516 E17.31340 ; perimeter
G1 X112.939 Y188.927 E17.33209 ; perimeter
G1 X113.093 Y189.354 E17.35080 ; perimeter
G1 X113.284 Y190.316 E17.39120 ; perimeter
G1 X113.284 Y227.273 E18.91365 ; perimeter
G1 X113.098 Y228.210 E18.95305 ; perimeter
G1 X112.722 Y229.116 E18.99343 ; perimeter
G1 X112.502 Y229.484 E19.01111 ; perimeter
G1 X111.879 Y230.243 E19.05155 ; perimeter
G1 X111.120 Y230.866 E19.09200 ; perimeter
G1 X110.752 Y231.087 E19.10968 ; perimeter
G1 X109.846 Y231.462 E19.15006 ; perimeter
G1 X108.905 Y231.649 E19.18957 ; perimeter
G1 X102.812 Y231.682 E19.44059 ; perimeter
G1 X102.812 Y253.577 E20.34254 ; perimeter
G1 X89.548 Y253.577 E20.88899 ; perimeter
G1 X89.548 Y113.112 E26.67553 ; perimeter
G1 X102.812 Y113.112 E27.22198 ; perimeter
G1 X102.812 Y134.846 E28.11734 ; perimeter
G1 X103.209 Y134.512 F9000.000 ; move to first perimeter point
G1 F1200.000
G1 X108.946 Y134.544 E28.35368 ; perimeter
G1 X109.962 Y134.746 E28.39636 ; perimeter
G1 X110.931 Y135.147 E28.43956 ; perimeter
G1 X111.349 Y135.398 E28.45965 ; perimeter
G1 X112.161 Y136.064 E28.50290 ; perimeter
G1 X112.826 Y136.876 E28.54616 ; perimeter
G1 X113.077 Y137.294 E28.56625 ; perimeter
G1 X113.479 Y138.263 E28.60945 ; perimeter
G1 X113.680 Y139.277 E28.65206 ; perimeter
G1 X113.680 Y140.311 E28.69467 ; perimeter
G1 X113.479 Y141.326 E28.73728 ; perimeter
G1 X113.077 Y142.295 E28.78048 ; perimeter
G1 X112.826 Y142.713 E28.80057 ; perimeter
G1 X112.161 Y143.525 E28.84383 ; perimeter
G1 X111.361 Y144.181 E28.88644 ; perimeter
G1 X110.445 Y144.670 E28.92922 ; perimeter
G1 X109.209 Y145.065 E28.98268 ; perimeter
G1 X109.209 Y185.524 E30.64939 ; perimeter
G1 X110.445 Y185.918 E30.70285 ; perimeter
G1 X111.361 Y186.408 E30.74563 ; perimeter
G1 X112.172 Y187.073 E30.78887 ; perimeter
G1 X112.499 Y187.435 E30.80895 ; perimeter
G1 X113.092 Y188.320 E30.85284 ; perimeter
G1 X113.306 Y188.775 E30.87353 ; perimeter
G1 X113.476 Y189.248 E30.89424 ; perimeter
G1 X113.680 Y190.277 E30.93747 ; perimeter
G1 X113.680 Y227.311 E32.46313 ; perimeter
G1 X113.479 Y228.326 E32.50574 ; perimeter
G1 X113.077 Y229.295 E32.54894 ; perimeter
G1 X112.826 Y229.713 E32.56903 ; perimeter
G1 X112.161 Y230.525 E32.61228 ; perimeter
G1 X111.349 Y231.191 E32.65554 ; perimeter
G1 X110.931 Y231.442 E32.67563 ; perimeter
G1 X109.962 Y231.843 E32.71883 ; perimeter
G1 X108.946 Y232.045 E32.76151 ; perimeter
G1 X103.209 Y232.076 E32.99785 ; perimeter
