; generated by SuperSlicer 2.3.56 on 2021-09-27 at 03:14:43 UTC

; 

; external perimeters extrusion width = 0.42mm
; perimeters extrusion width = 0.44mm
; infill extrusion width = 0.44mm
; solid infill extrusion width = 0.44mm
; top infill extrusion width = 0.43mm
; first layer extrusion width = 0.52mm

; external perimeters extrusion width = 0.42mm
; perimeters extrusion width = 0.44mm
; infill extrusion width = 0.44mm
; solid infill extrusion width = 0.44mm
; top infill extrusion width = 0.43mm
; first layer extrusion width = 0.52mm

; external perimeters extrusion width = 0.42mm
; perimeters extrusion width = 0.44mm
; infill extrusion width = 0.44mm
; solid infill extrusion width = 0.44mm
; top infill extrusion width = 0.43mm
; first layer extrusion width = 0.52mm

; external perimeters extrusion width = 0.42mm
; perimeters extrusion width = 0.44mm
; infill extrusion width = 0.44mm
; solid infill extrusion width = 0.44mm
; top infill extrusion width = 0.43mm
; first layer extrusion width = 0.52mm

; external perimeters extrusion width = 0.42mm
; perimeters extrusion width = 0.44mm
; infill extrusion width = 0.44mm
; solid infill extrusion width = 0.44mm
; top infill extrusion width = 0.43mm
; first layer extrusion width = 0.52mm

; external perimeters extrusion width = 0.42mm
; perimeters extrusion width = 0.44mm
; infill extrusion width = 0.44mm
; solid infill extrusion width = 0.44mm
; top infill extrusion width = 0.43mm
; first layer extrusion width = 0.52mm

; external perimeters extrusion width = 0.42mm
; perimeters extrusion width = 0.44mm
; infill extrusion width = 0.44mm
; solid infill extrusion width = 0.44mm
; top infill extrusion width = 0.43mm
; first layer extrusion width = 0.52mm

; external perimeters extrusion width = 0.42mm
; perimeters extrusion width = 0.44mm
; infill extrusion width = 0.44mm
; solid infill extrusion width = 0.44mm
; top infill extrusion width = 0.43mm
; first layer extrusion width = 0.52mm

; external perimeters extrusion width = 0.42mm
; perimeters extrusion width = 0.44mm
; infill extrusion width = 0.44mm
; solid infill extrusion width = 0.44mm
; top infill extrusion width = 0.43mm
; first layer extrusion width = 0.52mm

; external perimeters extrusion width = 0.42mm
; perimeters extrusion width = 0.44mm
; infill extrusion width = 0.44mm
; solid infill extrusion width = 0.44mm
; top infill extrusion width = 0.43mm
; first layer extrusion width = 0.52mm

; external perimeters extrusion width = 0.42mm
; perimeters extrusion width = 0.44mm
; infill extrusion width = 0.44mm
; solid infill extrusion width = 0.44mm
; top infill extrusion width = 0.43mm
; first layer extrusion width = 0.52mm

; external perimeters extrusion width = 0.42mm
; perimeters extrusion width = 0.44mm
; infill extrusion width = 0.44mm
; solid infill extrusion width = 0.44mm
; top infill extrusion width = 0.43mm
; first layer extrusion width = 0.52mm

@Objectinfo retraction_calibration id:0 copy 0 X174.9964 Y174.9997
; plater:{"center":[174.996400,174.999700,0.000000],"boundingbox_center":[174.996400,174.999700,5.200000],"boundingbox_size":[26.805401,26.806400,10.400000]}

;TYPE:Custom
; custom gcode: start_gcode
M140 S70;
G28 x y ; home X and Y axes
M190 S70;
G28 Z ; home z axis
G1 Z5 F5000 ; lift nozzle
; custom gcode end: start_gcode
M107 ; disable fan
G21 ; set units to millimeters
G90 ; use absolute coordinates
M82 ; use absolute distances for extrusion
G92 E0 ; reset extrusion distance
; custom gcode: start_filament_gcode
; Filament gcode
; custom gcode end: start_filament_gcode
M104 S245 ; set temperature
M109 S245 ; set temperature and wait for it to be reached
;LAYER_CHANGE
;Z:0.2
;HEIGHT:0.2
G1 Z0.200000 F9000 ; move to next layer (0)
G1 E-0.90000 F2400 ; retract
G1 X155.1157 Y155.0919 F9000 ; move to first Skirt point
G1 E0.10000 F1800 ; unretract
;TYPE:Skirt
;WIDTH:0.44
G1 F1200
G1 X156.9383 Y153.5646 E0.17852 ; Skirt
G1 X157.8871 Y152.9510 E0.21582 ; Skirt
G1 X159.0429 Y152.3514 E0.25881 ; Skirt
G1 X160.7142 Y151.6829 E0.31824 ; Skirt
G1 X162.9574 Y151.1566 E0.39432 ; Skirt
G1 X165.2150 Y151.0149 E0.46901 ; Skirt
G1 X185.4293 Y151.0244 E1.13643 ; Skirt
G1 X186.5081 Y151.0892 E1.17211 ; Skirt
G1 X187.5834 Y151.2614 E1.20807 ; Skirt
G1 X188.9163 Y151.5694 E1.25324 ; Skirt
G1 X190.0623 Y151.9631 E1.29324 ; Skirt
G1 X191.5652 Y152.6477 E1.34777 ; Skirt
G1 X192.7435 Y153.3570 E1.39318 ; Skirt
G1 X193.9839 Y154.2785 E1.44420 ; Skirt
G1 X194.9330 Y155.1572 E1.48691 ; Skirt
G1 X196.0864 Y156.4698 E1.54460 ; Skirt
G1 X196.9258 Y157.7102 E1.59405 ; Skirt
G1 X197.7946 Y159.3436 E1.65513 ; Skirt
G1 X198.4300 Y161.1201 E1.71743 ; Skirt
G1 X198.7684 Y162.5372 E1.76553 ; Skirt
G1 X198.9655 Y164.2827 E1.82353 ; Skirt
G1 X198.9887 Y185.0655 E2.50972 ; Skirt
G1 X198.8387 Y186.9851 E2.57330 ; Skirt
G1 X198.5545 Y188.4474 E2.62248 ; Skirt
G1 X197.9855 Y190.1956 E2.68318 ; Skirt
G1 X197.4360 Y191.3936 E2.72670 ; Skirt
G1 X196.5407 Y192.9044 E2.78468 ; Skirt
G1 X195.7402 Y193.9514 E2.82820 ; Skirt
G1 X194.4823 Y195.2860 E2.88875 ; Skirt
G1 X193.5305 Y196.0747 E2.92957 ; Skirt
G1 X192.0253 Y197.0991 E2.98968 ; Skirt
G1 X190.3423 Y197.9186 E3.05148 ; Skirt
G1 X189.1529 Y198.3608 E3.09338 ; Skirt
G1 X187.3383 Y198.7875 E3.15493 ; Skirt
G1 X185.9817 Y198.9557 E3.20007 ; Skirt
G1 X165.1741 Y198.9850 E3.88708 ; Skirt
G1 X163.1892 Y198.8752 E3.95271 ; Skirt
G1 X161.9336 Y198.6416 E3.99488 ; Skirt
G1 X160.1339 Y198.1207 E4.05674 ; Skirt
G1 X158.4255 Y197.3395 E4.11876 ; Skirt
G1 X157.3341 Y196.7084 E4.16039 ; Skirt
G1 X155.8688 Y195.5921 E4.22121 ; Skirt
G1 X154.9337 Y194.7224 E4.26338 ; Skirt
G1 X153.7316 Y193.2881 E4.32516 ; Skirt
G1 X152.9718 Y192.1517 E4.37030 ; Skirt
G1 X152.1617 Y190.5610 E4.42924 ; Skirt
G1 X151.6791 Y189.2820 E4.47437 ; Skirt
G1 X151.2219 Y187.4507 E4.53669 ; Skirt
G1 X151.0437 Y185.8895 E4.58857 ; Skirt
G1 X151.0144 Y164.9437 E5.28015 ; Skirt
G1 X151.1619 Y162.9010 E5.34777 ; Skirt
G1 X151.6501 Y160.8137 E5.41855 ; Skirt
G1 X152.3360 Y159.0702 E5.48040 ; Skirt
G1 X152.9566 Y157.8745 E5.52488 ; Skirt
G1 X153.5911 Y156.9003 E5.56327 ; Skirt
G1 X155.0770 Y155.1378 E5.63939 ; Skirt
G1 X155.3786 Y155.3913 F9000 ; move to first Skirt point
G1 F1200
G1 X157.1597 Y153.8945 E5.71620 ; Skirt
G1 X158.0840 Y153.2958 E5.75256 ; Skirt
G1 X159.2132 Y152.7103 E5.79456 ; Skirt
G1 X160.8237 Y152.0646 E5.85184 ; Skirt
G1 X163.0118 Y151.5500 E5.92606 ; Skirt
G1 X165.2149 Y151.4120 E5.99894 ; Skirt
G1 X185.4190 Y151.4214 E6.66603 ; Skirt
G1 X186.4381 Y151.4810 E6.69974 ; Skirt
G1 X187.4468 Y151.6385 E6.73345 ; Skirt
G1 X188.7666 Y151.9398 E6.77814 ; Skirt
G1 X189.8629 Y152.3108 E6.81636 ; Skirt
G1 X191.3427 Y152.9797 E6.86997 ; Skirt
G1 X192.4750 Y153.6542 E6.91349 ; Skirt
G1 X193.6972 Y154.5571 E6.96366 ; Skirt
G1 X194.6150 Y155.3995 E7.00479 ; Skirt
G1 X195.7472 Y156.6808 E7.06125 ; Skirt
G1 X196.5584 Y157.8685 E7.10874 ; Skirt
G1 X197.4204 Y159.4792 E7.16905 ; Skirt
G1 X198.0443 Y161.2172 E7.23002 ; Skirt
G1 X198.3763 Y162.6002 E7.27698 ; Skirt
G1 X198.5692 Y164.3084 E7.33374 ; Skirt
G1 X198.5917 Y185.0563 E8.01878 ; Skirt
G1 X198.4501 Y186.8918 E8.07957 ; Skirt
G1 X198.1773 Y188.3204 E8.12759 ; Skirt
G1 X197.6229 Y190.0323 E8.18700 ; Skirt
G1 X197.0959 Y191.1876 E8.22892 ; Skirt
G1 X196.2307 Y192.6538 E8.28514 ; Skirt
G1 X195.4575 Y193.6712 E8.32733 ; Skirt
G1 X194.2405 Y194.9686 E8.38606 ; Skirt
G1 X193.3209 Y195.7358 E8.42560 ; Skirt
G1 X191.8709 Y196.7294 E8.48364 ; Skirt
G1 X190.2112 Y197.5424 E8.54466 ; Skirt
G1 X189.0597 Y197.9740 E8.58526 ; Skirt
G1 X187.2762 Y198.3951 E8.64577 ; Skirt
G1 X185.9604 Y198.5592 E8.68955 ; Skirt
G1 X165.1747 Y198.5880 E9.37584 ; Skirt
G1 X163.2773 Y198.4861 E9.43857 ; Skirt
G1 X162.0519 Y198.2617 E9.47970 ; Skirt
G1 X160.2977 Y197.7579 E9.53997 ; Skirt
G1 X158.6253 Y196.9956 E9.60065 ; Skirt
G1 X157.5800 Y196.3948 E9.64046 ; Skirt
G1 X156.1448 Y195.3050 E9.69996 ; Skirt
G1 X155.2475 Y194.4759 E9.74029 ; Skirt
G1 X154.0735 Y193.0814 E9.80048 ; Skirt
G1 X153.3406 Y191.9957 E9.84373 ; Skirt
G1 X152.5370 Y190.4273 E9.90191 ; Skirt
G1 X152.0656 Y189.1879 E9.94570 ; Skirt
G1 X151.6143 Y187.3888 E10.00694 ; Skirt
G1 X151.4408 Y185.8802 E10.05708 ; Skirt
G1 X151.4109 Y164.9728 E10.74738 ; Skirt
G1 X151.5506 Y162.9863 E10.81313 ; Skirt
G1 X152.0169 Y160.9735 E10.88135 ; Skirt
G1 X152.6815 Y159.2672 E10.94181 ; Skirt
G1 X153.2902 Y158.0909 E10.98554 ; Skirt
G1 X153.8980 Y157.1534 E11.02243 ; Skirt
G1 X155.3400 Y155.4372 E11.09644 ; Skirt
G1 X155.6429 Y155.6913 F9000 ; move to first Skirt point
G1 F1200
G1 X155.6616 Y155.6691 E11.09740 ; Skirt
G1 X157.3816 Y154.2240 E11.17157 ; Skirt
G1 X158.2814 Y153.6403 E11.20699 ; Skirt
G1 X159.3837 Y153.0689 E11.24798 ; Skirt
G1 X160.9415 Y152.4438 E11.30340 ; Skirt
G1 X163.0667 Y151.9433 E11.37549 ; Skirt
G1 X165.2147 Y151.8091 E11.44655 ; Skirt
G1 X185.4089 Y151.8184 E12.11331 ; Skirt
G1 X186.3617 Y151.8723 E12.14482 ; Skirt
G1 X187.3130 Y152.0165 E12.17659 ; Skirt
G1 X188.6186 Y152.3109 E12.22077 ; Skirt
G1 X189.6807 Y152.6657 E12.25775 ; Skirt
G1 X191.1288 Y153.3162 E12.31016 ; Skirt
G1 X192.2150 Y153.9577 E12.35181 ; Skirt
G1 X193.4181 Y154.8419 E12.40111 ; Skirt
G1 X194.2985 Y155.6435 E12.44042 ; Skirt
G1 X195.4091 Y156.8933 E12.49563 ; Skirt
G1 X196.1881 Y158.0224 E12.54092 ; Skirt
G1 X197.0499 Y159.6232 E12.60094 ; Skirt
G1 X197.6589 Y161.3151 E12.66032 ; Skirt
G1 X197.9844 Y162.6639 E12.70613 ; Skirt
G1 X198.1730 Y164.3341 E12.76162 ; Skirt
G1 X198.1946 Y185.0473 E13.44552 ; Skirt
G1 X198.0601 Y186.8081 E13.50382 ; Skirt
G1 X197.7977 Y188.2026 E13.55067 ; Skirt
G1 X197.2600 Y189.8698 E13.60851 ; Skirt
G1 X196.7513 Y190.9898 E13.64913 ; Skirt
G1 X195.9153 Y192.4111 E13.70357 ; Skirt
G1 X195.1685 Y193.3983 E13.74444 ; Skirt
G1 X193.9858 Y194.6631 E13.80161 ; Skirt
G1 X193.1035 Y195.4027 E13.83963 ; Skirt
G1 X191.7074 Y196.3647 E13.89560 ; Skirt
G1 X190.6446 Y196.9148 E13.93512 ; Skirt
G1 X188.9576 Y197.5899 E13.99511 ; Skirt
G1 X187.2059 Y198.0043 E14.05455 ; Skirt
G1 X185.9306 Y198.1632 E14.09698 ; Skirt
G1 X165.1831 Y198.1909 E14.78200 ; Skirt
G1 X163.3636 Y198.0965 E14.84216 ; Skirt
G1 X162.1762 Y197.8833 E14.88199 ; Skirt
G1 X160.4602 Y197.3945 E14.94091 ; Skirt
G1 X159.3952 Y196.9368 E14.97918 ; Skirt
G1 X157.8246 Y196.0801 E15.03825 ; Skirt
G1 X156.4138 Y195.0121 E15.09667 ; Skirt
G1 X155.5546 Y194.2223 E15.13520 ; Skirt
G1 X154.4048 Y192.8608 E15.19404 ; Skirt
G1 X153.7043 Y191.8306 E15.23517 ; Skirt
G1 X152.9118 Y190.2923 E15.29231 ; Skirt
G1 X152.4517 Y189.0924 E15.33474 ; Skirt
G1 X152.0081 Y187.3340 E15.39462 ; Skirt
G1 X151.8374 Y185.8619 E15.44355 ; Skirt
G1 X151.8078 Y164.9852 E16.13284 ; Skirt
G1 X151.9407 Y163.0625 E16.19647 ; Skirt
G1 X152.3845 Y161.1316 E16.26189 ; Skirt
G1 X153.0244 Y159.4698 E16.32069 ; Skirt
G1 X153.6243 Y158.3065 E16.36390 ; Skirt
G1 X154.2105 Y157.3989 E16.39957 ; Skirt
G1 X155.6044 Y155.7373 E16.47118 ; Skirt
; INIT printing object retraction_calibration id:0 copy 0
M104 S240 ; set temperature
G92 E0 ; reset extrusion distance
G1 E-0.90000 F2400 ; retract
@Object retraction_calibration id:0 copy 0
G1 X170.7333 Y165.7371 F9000 ; move to first Internal perimeter point
G1 E0.10000 F1800 ; unretract
;TYPE:Internal perimeter
;WIDTH:0.52
G1 F1200
G1 X179.2591 Y165.7371 E0.43821 ; Internal perimeter
G1 X179.2591 Y184.2629 E1.17312 ; Internal perimeter
G1 X170.7333 Y184.2629 E1.51134 ; Internal perimeter
G1 X170.7333 Y165.7971 E2.24386 ; Internal perimeter
G92 E0 ; reset extrusion distance
G1 E-0.90000 F2400 ; retract
G1 X167.8775 Y184.7519 F9000 ; move to first Thin wall point
G1 E0.10000 F1800 ; unretract
;TYPE:Thin wall
;WIDTH:0.0799601
G1 F1200
G1 X167.8216 Y184.7534 E0.10035 ; Thin wall
;WIDTH:0.0137689
G1 X167.8635 Y184.7523 E0.10037 ; Thin wall
;WIDTH:0.0284223
G1 X167.9055 Y184.7511 E0.10043 ; Thin wall
;WIDTH:0.0430757
G1 X167.9475 Y184.7500 E0.10055 ; Thin wall
;WIDTH:0.05
G1 X167.9752 Y184.7492 E0.10066 ; Thin wall
G1 X168.1006 Y184.7496 E0.10114 ; Thin wall
G1 X168.2261 Y184.7500 E0.10161 ; Thin wall
G1 X169.8110 Y184.7500 E0.10764 ; Thin wall
G1 X170.0716 Y184.7586 E0.10863 ; Thin wall
;WIDTH:0.0324625
G1 X170.1154 Y184.7402 E0.10876 ; Thin wall
;WIDTH:0.0182312
G1 X170.1558 Y184.7217 E0.10883 ; Thin wall
;WIDTH:0.00697965
G1 X170.1962 Y184.7033 E0.10884 ; Thin wall
G1 X170.2562 Y184.7033 F9000 ; move to first External perimeter point
;TYPE:External perimeter
;WIDTH:0.52
G1 F1200
G1 X170.2562 Y165.2967 E0.87869 ; External perimeter
G1 X170.1962 Y165.2967 F9000 ; move to first Thin wall point
;TYPE:Thin wall
;WIDTH:0.121387
G1 F1200
G1 X170.1558 Y165.2783 E0.87885 ; Thin wall
;WIDTH:0.249469
G1 X170.1154 Y165.2598 E0.87947 ; Thin wall
;WIDTH:0.37755
G1 X170.0716 Y165.2414 E0.88065 ; Thin wall
;WIDTH:0.45
G1 X169.8110 Y165.2500 E0.88957 ; Thin wall
G1 X168.2261 Y165.2500 E0.94379 ; Thin wall
G1 X168.1006 Y165.2504 E0.94808 ; Thin wall
G1 X167.9752 Y165.2508 E0.95237 ; Thin wall
G1 X167.9475 Y165.2501 E0.95332 ; Thin wall
;WIDTH:0.299761
G1 X167.9055 Y165.2489 E0.95438 ; Thin wall
;WIDTH:0.16788
G1 X167.8635 Y165.2477 E0.95499 ; Thin wall
;WIDTH:0.0799601
G1 X167.8216 Y165.2466 E0.95518 ; Thin wall
;WIDTH:0.0137689
G1 X167.8635 Y165.2477 E0.95520 ; Thin wall
;WIDTH:0.0284223
G1 X167.9055 Y165.2489 E0.95527 ; Thin wall
;WIDTH:0.0430757
G1 X167.9475 Y165.2501 E0.95539 ; Thin wall
;WIDTH:0.05
G1 X167.9752 Y165.2508 E0.95549 ; Thin wall
G1 X168.1006 Y165.2504 E0.95597 ; Thin wall
G1 X168.2261 Y165.2500 E0.95645 ; Thin wall
G1 X169.8110 Y165.2500 E0.96247 ; Thin wall
G1 X170.0716 Y165.2414 E0.96346 ; Thin wall
;WIDTH:0.0324625
G1 X170.1154 Y165.2598 E0.96359 ; Thin wall
;WIDTH:0.0182312
G1 X170.1558 Y165.2783 E0.96366 ; Thin wall
;WIDTH:0.00697965
G1 X170.1962 Y165.2967 E0.96368 ; Thin wall
G1 X170.2562 Y165.2967 F9000 ; move to first External perimeter point
;TYPE:External perimeter
;WIDTH:0.52
G1 F1200
G1 X170.2562 Y165.2600 E0.96514 ; External perimeter
G1 X179.7362 Y165.2600 E1.34120 ; External perimeter
G1 X179.7362 Y165.2967 E1.34266 ; External perimeter
G1 X179.7962 Y165.2967 F9000 ; move to first Thin wall point
;TYPE:Thin wall
;WIDTH:0.121387
G1 F1200
G1 X179.8366 Y165.2783 E1.34282 ; Thin wall
;WIDTH:0.249469
G1 X179.8770 Y165.2598 E1.34344 ; Thin wall
;WIDTH:0.37755
G1 X179.9208 Y165.2414 E1.34462 ; Thin wall
;WIDTH:0.45
G1 X180.1814 Y165.2500 E1.35354 ; Thin wall
G1 X181.7663 Y165.2500 E1.40776 ; Thin wall
G1 X181.8918 Y165.2504 E1.41205 ; Thin wall
G1 X182.0172 Y165.2508 E1.41634 ; Thin wall
G1 X182.0454 Y165.2500 E1.41730 ; Thin wall
;WIDTH:0.299761
G1 X182.0874 Y165.2488 E1.41837 ; Thin wall
;WIDTH:0.16788
G1 X182.1294 Y165.2477 E1.41897 ; Thin wall
;WIDTH:0.0799601
G1 X182.1714 Y165.2465 E1.41917 ; Thin wall
;WIDTH:0.0137689
G1 X182.1294 Y165.2477 E1.41919 ; Thin wall
;WIDTH:0.0284223
G1 X182.0874 Y165.2488 E1.41926 ; Thin wall
;WIDTH:0.0430757
G1 X182.0454 Y165.2500 E1.41938 ; Thin wall
;WIDTH:0.05
G1 X182.0172 Y165.2508 E1.41948 ; Thin wall
G1 X181.8918 Y165.2504 E1.41996 ; Thin wall
G1 X181.7663 Y165.2500 E1.42044 ; Thin wall
G1 X180.1814 Y165.2500 E1.42646 ; Thin wall
G1 X179.9208 Y165.2414 E1.42745 ; Thin wall
;WIDTH:0.0324625
G1 X179.8770 Y165.2598 E1.42758 ; Thin wall
;WIDTH:0.0182312
G1 X179.8366 Y165.2783 E1.42765 ; Thin wall
;WIDTH:0.00697965
G1 X179.7962 Y165.2967 E1.42767 ; Thin wall
G1 X179.7362 Y165.2967 F9000 ; move to first External perimeter point
;TYPE:External perimeter
;WIDTH:0.52
G1 F1200
G1 X179.7362 Y184.7033 E2.19752 ; External perimeter
G1 X179.7962 Y184.7033 F9000 ; move to first Thin wall point
;TYPE:Thin wall
;WIDTH:0.121387
G1 F1200
G1 X179.8366 Y184.7217 E2.19768 ; Thin wall
;WIDTH:0.249469
G1 X179.8770 Y184.7402 E2.19830 ; Thin wall
;WIDTH:0.37755
G1 X179.9208 Y184.7586 E2.19948 ; Thin wall
;WIDTH:0.45
G1 X180.1814 Y184.7500 E2.20840 ; Thin wall
G1 X181.7663 Y184.7500 E2.26261 ; Thin wall
G1 X181.8918 Y184.7496 E2.26690 ; Thin wall
G1 X182.0172 Y184.7492 E2.27120 ; Thin wall
G1 X182.0454 Y184.7500 E2.27216 ; Thin wall
;WIDTH:0.299761
G1 X182.0874 Y184.7512 E2.27323 ; Thin wall
;WIDTH:0.16788
G1 X182.1294 Y184.7523 E2.27383 ; Thin wall
