; generated by SuperSlicer 2.3.56 on 2021-09-27 at 02:02:20 UTC

; 

; external perimeters extrusion width = 0.42mm
; perimeters extrusion width = 0.44mm
; infill extrusion width = 0.44mm
; solid infill extrusion width = 0.44mm
; top infill extrusion width = 0.43mm
; first layer extrusion width = 0.52mm

@Objectinfo smart_compact_temp_calibration id:0 copy 0 X175.0 Y174.8
; plater:{"center":[175.000000,174.800000,0.000000],"boundingbox_center":[175.000000,174.800000,30.000000],"boundingbox_size":[44.487499,5.400000,60.000000]}

;TYPE:Custom
; custom gcode: start_gcode
M140 S70;
G28 x y ; home X and Y axes
M190 S70;
G28 Z ; home z axis
G1 Z5 F5000 ; lift nozzle
; custom gcode end: start_gcode
M107 ; disable fan
G21 ; set units to millimeters
G90 ; use absolute coordinates
M82 ; use absolute distances for extrusion
G92 E0 ; reset extrusion distance
; custom gcode: start_filament_gcode
; Filament gcode
; custom gcode end: start_filament_gcode
M104 S245 ; set temperature
M109 S245 ; set temperature and wait for it to be reached
M107 ; disable fan
;LAYER_CHANGE
;Z:0.3
;HEIGHT:0.3
G1 Z0.300000 F9000 ; move to next layer (0)
G1 E-0.90000 F2400 ; retract
G1 X149.1163 Y164.1786 F9000 ; move to first Skirt point
G1 E0.10000 F1800 ; unretract
;TYPE:Skirt
;WIDTH:0.44
G1 F1200
G1 X150.0230 Y163.4954 E0.15319 ; Skirt
G1 X151.3156 Y162.7460 E0.22319 ; Skirt
G1 X152.6905 Y162.1823 E0.29280 ; Skirt
G1 X154.1131 Y161.8131 E0.36166 ; Skirt
G1 X155.6595 Y161.6216 E0.43466 ; Skirt
G1 X165.0508 Y161.1629 E0.87516 ; Skirt
G1 X180.2628 Y161.1610 E1.58783 ; Skirt
G1 X188.9664 Y161.6050 E1.99612 ; Skirt
G1 X190.3144 Y161.8117 E2.06001 ; Skirt
G1 X191.6184 Y162.1818 E2.12352 ; Skirt
G1 X192.5423 Y162.5552 E2.17020 ; Skirt
G1 X193.4355 Y163.0152 E2.21727 ; Skirt
G1 X194.2827 Y163.5553 E2.26434 ; Skirt
G1 X195.0768 Y164.1707 E2.31141 ; Skirt
G1 X195.8111 Y164.8565 E2.35848 ; Skirt
G1 X196.4742 Y165.6003 E2.40516 ; Skirt
G1 X197.0714 Y166.4083 E2.45223 ; Skirt
G1 X197.5920 Y167.2676 E2.49930 ; Skirt
G1 X198.0700 Y168.2612 E2.55096 ; Skirt
G1 X198.4478 Y169.3058 E2.60300 ; Skirt
G1 X198.7163 Y170.3752 E2.65466 ; Skirt
G1 X198.8756 Y171.4663 E2.70631 ; Skirt
G1 X198.9232 Y177.6716 E2.99704 ; Skirt
G1 X198.7507 Y179.4425 E3.08040 ; Skirt
G1 X198.5027 Y180.5085 E3.13167 ; Skirt
G1 X198.1525 Y181.5368 E3.18257 ; Skirt
G1 X197.6982 Y182.5326 E3.23384 ; Skirt
G1 X197.1512 Y183.4711 E3.28473 ; Skirt
G1 X196.5086 Y184.3571 E3.33601 ; Skirt
G1 X195.7865 Y185.1686 E3.38690 ; Skirt
G1 X194.9812 Y185.9098 E3.43818 ; Skirt
G1 X194.1058 Y186.5667 E3.48945 ; Skirt
G1 X192.8132 Y187.3161 E3.55945 ; Skirt
G1 X191.4383 Y187.8799 E3.62907 ; Skirt
G1 X189.9916 Y188.2535 E3.69907 ; Skirt
G1 X188.5075 Y188.4266 E3.76907 ; Skirt
G1 X157.1984 Y188.4390 E5.23588 ; Skirt
G1 X155.7985 Y188.3881 E5.30151 ; Skirt
G1 X154.4214 Y188.2405 E5.36640 ; Skirt
G1 X153.2086 Y187.9759 E5.42455 ; Skirt
G1 X151.9957 Y187.5601 E5.48462 ; Skirt
G1 X150.8398 Y187.0053 E5.54469 ; Skirt
G1 X149.7502 Y186.3143 E5.60513 ; Skirt
G1 X148.7555 Y185.5053 E5.66520 ; Skirt
G1 X147.8570 Y184.5793 E5.72565 ; Skirt
G1 X147.0737 Y183.5540 E5.78610 ; Skirt
G1 X146.4392 Y182.4871 E5.84425 ; Skirt
G1 X145.9296 Y181.3551 E5.90241 ; Skirt
G1 X145.5496 Y180.1649 E5.96095 ; Skirt
G1 X145.3088 Y178.9471 E6.01910 ; Skirt
G1 X145.2057 Y177.6200 E6.08146 ; Skirt
G1 X145.2042 Y172.5458 E6.31919 ; Skirt
G1 X145.3200 Y170.9744 E6.39301 ; Skirt
G1 X145.5449 Y169.8533 E6.44658 ; Skirt
G1 X145.8827 Y168.7695 E6.49976 ; Skirt
G1 X146.3311 Y167.7265 E6.55295 ; Skirt
G1 X146.8851 Y166.7355 E6.60614 ; Skirt
G1 X147.5388 Y165.8074 E6.65932 ; Skirt
G1 X148.2852 Y164.9520 E6.71251 ; Skirt
G1 X149.0724 Y164.2194 E6.76288 ; Skirt
G1 X149.3283 Y164.4999 F9000 ; move to first Skirt point
G1 F1200
G1 X149.4394 Y164.3985 E6.76993 ; Skirt
G1 X150.3310 Y163.7415 E6.82182 ; Skirt
G1 X151.5667 Y163.0415 E6.88836 ; Skirt
G1 X152.8852 Y162.5137 E6.95489 ; Skirt
G1 X154.2388 Y162.1718 E7.02030 ; Skirt
G1 X155.7237 Y161.9935 E7.09036 ; Skirt
G1 X165.0554 Y161.5385 E7.52807 ; Skirt
G1 X180.2627 Y161.5366 E8.24052 ; Skirt
G1 X188.9158 Y161.9776 E8.64644 ; Skirt
G1 X190.2012 Y162.1716 E8.70734 ; Skirt
G1 X191.4531 Y162.5219 E8.76824 ; Skirt
G1 X192.3622 Y162.8859 E8.81412 ; Skirt
G1 X193.2267 Y163.3285 E8.85962 ; Skirt
G1 X194.0469 Y163.8487 E8.90513 ; Skirt
G1 X194.8159 Y164.4419 E8.95063 ; Skirt
G1 X195.5271 Y165.1033 E8.99613 ; Skirt
G1 X196.1746 Y165.8273 E9.04163 ; Skirt
G1 X196.7529 Y166.6076 E9.08713 ; Skirt
G1 X197.2570 Y167.4378 E9.13263 ; Skirt
G1 X197.7237 Y168.4067 E9.18302 ; Skirt
G1 X198.0894 Y169.4181 E9.23341 ; Skirt
G1 X198.3504 Y170.4615 E9.28379 ; Skirt
G1 X198.5032 Y171.5180 E9.33380 ; Skirt
G1 X198.5476 Y177.6686 E9.62196 ; Skirt
G1 X198.3766 Y179.4006 E9.70350 ; Skirt
G1 X198.1317 Y180.4396 E9.75351 ; Skirt
G1 X197.7832 Y181.4486 E9.80352 ; Skirt
G1 X197.3347 Y182.4173 E9.85354 ; Skirt
G1 X196.7951 Y183.3291 E9.90317 ; Skirt
G1 X196.1618 Y184.1884 E9.95318 ; Skirt
G1 X195.4450 Y184.9794 E10.00319 ; Skirt
G1 X194.6583 Y185.6890 E10.05283 ; Skirt
G1 X193.7978 Y186.3207 E10.10284 ; Skirt
G1 X192.5621 Y187.0206 E10.16937 ; Skirt
G1 X191.2436 Y187.5484 E10.23590 ; Skirt
G1 X189.8663 Y187.8946 E10.30244 ; Skirt
G1 X188.4550 Y188.0530 E10.36897 ; Skirt
G1 X157.1987 Y188.0634 E11.83331 ; Skirt
G1 X155.8054 Y188.0122 E11.89863 ; Skirt
G1 X154.4609 Y187.8665 E11.96199 ; Skirt
G1 X153.2776 Y187.6052 E12.01876 ; Skirt
G1 X152.0949 Y187.1947 E12.07741 ; Skirt
G1 X150.9761 Y186.6512 E12.13568 ; Skirt
G1 X149.9224 Y185.9752 E12.19433 ; Skirt
G1 X148.9502 Y185.1739 E12.25336 ; Skirt
G1 X148.0803 Y184.2625 E12.31238 ; Skirt
G1 X147.3252 Y183.2540 E12.37141 ; Skirt
G1 X146.7243 Y182.2201 E12.42743 ; Skirt
G1 X146.2470 Y181.1325 E12.48307 ; Skirt
G1 X145.8948 Y179.9982 E12.53872 ; Skirt
G1 X145.6711 Y178.8235 E12.59474 ; Skirt
G1 X145.5809 Y177.5910 E12.65264 ; Skirt
G1 X145.5799 Y172.5220 E12.89012 ; Skirt
G1 X145.7029 Y170.9545 E12.96378 ; Skirt
G1 X145.9266 Y169.8779 E13.01529 ; Skirt
G1 X146.2638 Y168.8229 E13.06718 ; Skirt
G1 X146.7060 Y167.8162 E13.11870 ; Skirt
G1 X147.2504 Y166.8609 E13.17021 ; Skirt
G1 X147.8913 Y165.9674 E13.22172 ; Skirt
G1 X148.6271 Y165.1396 E13.27361 ; Skirt
G1 X149.2839 Y164.5404 E13.31527 ; Skirt
G1 X149.5360 Y164.8221 F9000 ; move to first Skirt point
G1 F1200
G1 X149.7564 Y164.6249 E13.32912 ; Skirt
G1 X150.6257 Y163.9978 E13.37934 ; Skirt
G1 X151.8114 Y163.3412 E13.44284 ; Skirt
G1 X153.0662 Y162.8501 E13.50596 ; Skirt
G1 X154.3515 Y162.5331 E13.56798 ; Skirt
G1 X155.7787 Y162.3661 E13.63530 ; Skirt
G1 X165.0680 Y161.9139 E14.07102 ; Skirt
G1 X180.2625 Y161.9122 E14.78287 ; Skirt
G1 X188.8581 Y162.3496 E15.18609 ; Skirt
G1 X190.0821 Y162.5302 E15.24405 ; Skirt
G1 X191.2752 Y162.8579 E15.30202 ; Skirt
G1 X192.9995 Y163.6314 E15.39055 ; Skirt
G1 X194.5452 Y164.7049 E15.47872 ; Skirt
G1 X195.8670 Y166.0445 E15.56689 ; Skirt
G1 X196.9200 Y167.6043 E15.65506 ; Skirt
G1 X197.3727 Y168.5411 E15.70380 ; Skirt
G1 X197.7275 Y169.5192 E15.75255 ; Skirt
G1 X197.9807 Y170.5283 E15.80129 ; Skirt
G1 X198.1304 Y171.5659 E15.85040 ; Skirt
G1 X198.1720 Y177.6656 E16.13618 ; Skirt
G1 X198.0024 Y179.3584 E16.21588 ; Skirt
G1 X197.7606 Y180.3704 E16.26462 ; Skirt
G1 X197.4199 Y181.3451 E16.31300 ; Skirt
G1 X196.9785 Y182.2873 E16.36174 ; Skirt
G1 X196.4434 Y183.1795 E16.41049 ; Skirt
G1 X195.8200 Y184.0125 E16.45923 ; Skirt
G1 X195.1205 Y184.7721 E16.50761 ; Skirt
G1 X194.3478 Y185.4570 E16.55598 ; Skirt
G1 X193.5031 Y186.0644 E16.60472 ; Skirt
G1 X192.3174 Y186.7210 E16.66822 ; Skirt
G1 X191.0626 Y187.2120 E16.73135 ; Skirt
G1 X189.7463 Y187.5345 E16.79484 ; Skirt
G1 X188.4066 Y187.6791 E16.85797 ; Skirt
G1 X157.1990 Y187.6878 E18.32002 ; Skirt
G1 X155.8128 Y187.6362 E18.38501 ; Skirt
G1 X154.5087 Y187.4937 E18.44647 ; Skirt
G1 X153.3472 Y187.2345 E18.50222 ; Skirt
G1 X152.1948 Y186.8294 E18.55945 ; Skirt
G1 X151.1060 Y186.2933 E18.61631 ; Skirt
G1 X150.0824 Y185.6267 E18.67354 ; Skirt
G1 X149.1401 Y184.8370 E18.73113 ; Skirt
G1 X148.3049 Y183.9457 E18.78836 ; Skirt
G1 X147.5781 Y182.9542 E18.84596 ; Skirt
G1 X147.0142 Y181.9602 E18.89950 ; Skirt
G1 X146.5651 Y180.9093 E18.95304 ; Skirt
G1 X146.2366 Y179.8147 E19.00658 ; Skirt
G1 X146.0337 Y178.6981 E19.05975 ; Skirt
G1 X145.9562 Y177.5658 E19.11292 ; Skirt
G1 X145.9556 Y172.4990 E19.35029 ; Skirt
G1 X146.0847 Y170.9446 E19.42337 ; Skirt
G1 X146.3082 Y169.9043 E19.47322 ; Skirt
G1 X146.6420 Y168.8856 E19.52344 ; Skirt
G1 X147.0808 Y167.9076 E19.57366 ; Skirt
G1 X147.6157 Y166.9878 E19.62351 ; Skirt
G1 X148.2437 Y166.1288 E19.67336 ; Skirt
G1 X148.9634 Y165.3344 E19.72358 ; Skirt
G1 X149.4913 Y164.8621 E19.75676 ; Skirt
G92 E0 ; reset extrusion distance
G1 E-0.90000 F2400 ; retract
G1 X154.7451 Y170.1643 F9000 ; move to first Brim point
G1 E0.10000 F1800 ; unretract
;WIDTH:0.52
G1 F1200
G1 X155.7065 Y169.7279 E0.16000 ; Brim
G1 X157.1166 Y169.6649 E0.24022 ; Brim
G1 X157.1776 Y169.6636 E0.24368 ; Brim
G1 X188.2526 Y169.6635 E2.00959 ; Brim
G1 X189.2574 Y170.0796 E2.07139 ; Brim
G1 X190.1598 Y170.9821 E2.14392 ; Brim
G1 X190.5760 Y171.9869 E2.20572 ; Brim
G1 X190.5760 Y178.0131 E2.54818 ; Brim
G1 X190.1598 Y179.0179 E2.60998 ; Brim
G1 X189.2574 Y179.9203 E2.68251 ; Brim
G1 X188.2526 Y180.3365 E2.74431 ; Brim
G1 X157.1827 Y180.3365 E4.50993 ; Brim
G1 X157.1220 Y180.3352 E4.51338 ; Brim
G1 X155.7068 Y180.2722 E4.59388 ; Brim
G1 X154.7452 Y179.8357 E4.65390 ; Brim
G1 X153.8890 Y178.9405 E4.72429 ; Brim
G1 X153.4958 Y177.9605 E4.78429 ; Brim
G1 X153.4958 Y172.0395 E5.12077 ; Brim
G1 X153.8889 Y171.0595 E5.18077 ; Brim
G1 X154.7036 Y170.2077 E5.24776 ; Brim
G1 X155.0135 Y170.5428 F9000 ; move to first Brim point
G1 F1200
G1 X155.8148 Y170.1791 E5.29776 ; Brim
G1 X157.1319 Y170.1203 E5.37268 ; Brim
G1 X157.1827 Y170.1192 E5.37557 ; Brim
G1 X188.1620 Y170.1191 E7.13604 ; Brim
G1 X188.9993 Y170.4659 E7.18754 ; Brim
G1 X189.7736 Y171.2402 E7.24977 ; Brim
G1 X190.1204 Y172.0775 E7.30127 ; Brim
G1 X190.1204 Y177.9225 E7.63343 ; Brim
G1 X189.7736 Y178.7598 E7.68493 ; Brim
G1 X188.9993 Y179.5341 E7.74716 ; Brim
G1 X188.1620 Y179.8809 E7.79866 ; Brim
G1 X157.1878 Y179.8809 E9.55884 ; Brim
G1 X157.1372 Y179.8798 E9.56172 ; Brim
G1 X155.8150 Y179.8209 E9.63693 ; Brim
G1 X155.0136 Y179.4572 E9.68694 ; Brim
G1 X154.2791 Y178.6891 E9.74733 ; Brim
G1 X153.9514 Y177.8725 E9.79733 ; Brim
G1 X153.9514 Y172.1275 E10.12381 ; Brim
G1 X154.2790 Y171.3108 E10.17381 ; Brim
G1 X154.9721 Y170.5862 E10.23079 ; Brim
G1 X155.2820 Y170.9213 F9000 ; move to first Brim point
G1 F1200
G1 X155.9230 Y170.6303 E10.27080 ; Brim
G1 X157.1471 Y170.5757 E10.34043 ; Brim
G1 X157.1877 Y170.5748 E10.34274 ; Brim
G1 X188.0713 Y170.5747 E12.09777 ; Brim
G1 X188.7412 Y170.8522 E12.13898 ; Brim
G1 X189.3873 Y171.4983 E12.19090 ; Brim
G1 X189.6647 Y172.1681 E12.23210 ; Brim
G1 X189.6647 Y177.8319 E12.55396 ; Brim
G1 X189.3873 Y178.5017 E12.59516 ; Brim
G1 X188.7412 Y179.1478 E12.64709 ; Brim
G1 X188.0713 Y179.4253 E12.68829 ; Brim
G1 X157.1929 Y179.4253 E14.44303 ; Brim
G1 X157.1524 Y179.4244 E14.44533 ; Brim
G1 X155.9232 Y179.3697 E14.51525 ; Brim
G1 X155.2821 Y179.0787 E14.55526 ; Brim
G1 X154.6692 Y178.4378 E14.60566 ; Brim
G1 X154.4070 Y177.7845 E14.64566 ; Brim
G1 X154.4070 Y172.2155 E14.96213 ; Brim
G1 X154.6691 Y171.5622 E15.00214 ; Brim
G1 X155.2405 Y170.9647 E15.04912 ; Brim
G1 X155.5505 Y171.2998 F9000 ; move to first Brim point
G1 F1200
G1 X156.0312 Y171.0816 E15.07912 ; Brim
G1 X157.1624 Y171.0311 E15.14346 ; Brim
G1 X157.1928 Y171.0304 E15.14520 ; Brim
G1 X187.9807 Y171.0303 E16.89479 ; Brim
G1 X188.4831 Y171.2384 E16.92569 ; Brim
G1 X189.0010 Y171.7564 E16.96732 ; Brim
G1 X189.2091 Y172.2587 E16.99822 ; Brim
G1 X189.2091 Y177.7413 E17.30977 ; Brim
G1 X189.0010 Y178.2436 E17.34068 ; Brim
G1 X188.4831 Y178.7616 E17.38230 ; Brim
G1 X187.9807 Y178.9697 E17.41320 ; Brim
G1 X157.1979 Y178.9697 E19.16251 ; Brim
G1 X157.1676 Y178.9690 E19.16423 ; Brim
G1 X156.0313 Y178.9184 E19.22887 ; Brim
G1 X155.5505 Y178.7002 E19.25887 ; Brim
G1 X155.0592 Y178.1865 E19.29926 ; Brim
G1 X154.8627 Y177.6965 E19.32927 ; Brim
G1 X154.8626 Y172.3035 E19.63574 ; Brim
G1 X155.0592 Y171.8135 E19.66574 ; Brim
G1 X155.5090 Y171.3432 E19.70272 ; Brim
G1 X155.8189 Y171.6783 F9000 ; move to first Brim point
G1 F1200
G1 X156.1394 Y171.5328 E19.72272 ; Brim
G1 X157.1725 Y171.4867 E19.78149 ; Brim
G1 X157.2080 Y171.4859 E19.78351 ; Brim
G1 X187.8901 Y171.4859 E21.52709 ; Brim
G1 X188.2250 Y171.6247 E21.54769 ; Brim
G1 X188.6148 Y172.0144 E21.57902 ; Brim
G1 X188.7535 Y172.3494 E21.59962 ; Brim
G1 X188.7535 Y177.6506 E21.90087 ; Brim
G1 X188.6148 Y177.9855 E21.92147 ; Brim
G1 X188.2250 Y178.3753 E21.95280 ; Brim
G1 X187.8901 Y178.5141 E21.97340 ; Brim
G1 X157.2081 Y178.5141 E23.71698 ; Brim
G1 X157.1725 Y178.5133 E23.71900 ; Brim
G1 X156.1394 Y178.4671 E23.77776 ; Brim
G1 X155.8189 Y178.3217 E23.79777 ; Brim
G1 X155.4493 Y177.9352 E23.82815 ; Brim
G1 X155.3183 Y177.6085 E23.84816 ; Brim
G1 X155.3183 Y172.3915 E24.14463 ; Brim
G1 X155.4493 Y172.0648 E24.16463 ; Brim
G1 X155.7774 Y171.7217 E24.19161 ; Brim
G1 X156.0874 Y172.0568 F9000 ; move to first Brim point
G1 F1200
G1 X156.2476 Y171.9841 E24.20161 ; Brim
G1 X157.1903 Y171.9420 E24.25523 ; Brim
G1 X157.2106 Y171.9416 E24.25639 ; Brim
G1 X187.7995 Y171.9416 E25.99467 ; Brim
G1 X187.9669 Y172.0109 E26.00497 ; Brim
G1 X188.2285 Y172.2725 E26.02600 ; Brim
G1 X188.2979 Y172.4400 E26.03630 ; Brim
G1 X188.2979 Y177.5600 E26.32725 ; Brim
G1 X188.2285 Y177.7275 E26.33755 ; Brim
G1 X187.9669 Y177.9891 E26.35858 ; Brim
G1 X187.7995 Y178.0584 E26.36888 ; Brim
G1 X157.2106 Y178.0584 E28.10716 ; Brim
G1 X157.1903 Y178.0580 E28.10832 ; Brim
G1 X156.2476 Y178.0159 E28.16194 ; Brim
G1 X156.0874 Y177.9432 E28.17194 ; Brim
G1 X155.8394 Y177.6839 E28.19233 ; Brim
G1 X155.7739 Y177.5205 E28.20233 ; Brim
G1 X155.7739 Y172.4794 E28.48880 ; Brim
G1 X155.8394 Y172.3161 E28.49880 ; Brim
G1 X156.0459 Y172.1002 E28.51578 ; Brim
G1 X156.3558 Y172.4353 F9000 ; move to first Brim point
G1 F1200
G1 X157.2131 Y172.3972 E28.56455 ; Brim
G1 X187.7088 Y172.3972 E30.29754 ; Brim
G1 X187.8423 Y172.5306 E30.30826 ; Brim
G1 X187.8423 Y177.4694 E30.58892 ; Brim
G1 X187.7088 Y177.6028 E30.59964 ; Brim
G1 X157.2131 Y177.6028 E32.33263 ; Brim
G1 X156.3559 Y177.5647 E32.38140 ; Brim
G1 X156.2295 Y177.4326 E32.39179 ; Brim
G1 X156.2295 Y172.5674 E32.66826 ; Brim
G1 X156.3144 Y172.4787 E32.67524 ; Brim
; INIT printing object smart_compact_temp_calibration id:0 copy 0
M104 S250 ; set temperature
@Object smart_compact_temp_calibration id:0 copy 0
G1 X156.7173 Y172.9015 F9000 ; move to first External perimeter point
;TYPE:External perimeter
G1 F1200
G1 X156.7173 Y177.0985 E32.91374 ; External perimeter
G1 X156.7458 Y177.1004 E32.91536 ; External perimeter
G1 X156.8580 Y177.1066 E32.92175 ; External perimeter
G1 X156.9703 Y177.1105 E32.92813 ; External perimeter
G1 X157.2180 Y177.1150 E32.94221 ; External perimeter
G1 X187.3545 Y177.1150 E34.65479 ; External perimeter
G1 X187.3545 Y172.8850 E34.89517 ; External perimeter
G1 X157.2180 Y172.8850 E36.60774 ; External perimeter
G1 X156.9703 Y172.8895 E36.62182 ; External perimeter
G1 X156.8580 Y172.8934 E36.62820 ; External perimeter
G1 X156.7772 Y172.8978 E36.63280 ; External perimeter
G92 E0 ; reset extrusion distance
G1 E-0.90000 F2400 ; retract
G1 X186.2968 Y173.0217 F9000 ; move to first Solid infill point
G1 E0.10000 F1800 ; unretract
;TYPE:Solid infill
;WIDTH:0.518923
G1 F1200
G1 X187.0128 Y173.7377 E0.15742 ; Solid infill
G1 X187.0128 Y174.3820 E0.19396 ; Solid infill
G1 X185.8574 Y173.2267 E0.28662 ; Solid infill
G1 X185.2131 Y173.2267 E0.32316 ; Solid infill
G1 X187.0128 Y175.0263 E0.46749 ; Solid infill
G1 X187.0128 Y175.6707 E0.50403 ; Solid infill
G1 X184.5688 Y173.2267 E0.70004 ; Solid infill
G1 X183.9244 Y173.2267 E0.73658 ; Solid infill
G1 X187.0128 Y176.3150 E0.98426 ; Solid infill
G1 X187.0128 Y176.7733 E1.01025 ; Solid infill
G1 X186.8267 Y176.7733 E1.02080 ; Solid infill
G1 X183.2801 Y173.2267 E1.30524 ; Solid infill
